dispcalGUI/ref/CMYK_FOGRA_MediaWedge_V3.ti1
CTI3

DESCRIPTOR "Argyll Calibration Target chart information 1"
ORIGINATOR "Argyll target"
CREATED "Sun Feb 01 18:20:41 2009"
KEYWORD "DEVICE_CLASS"
DEVICE_CLASS "OUTPUT"
KEYWORD "COLOR_REP"
COLOR_REP "CMYK"
KEYWORD "TOTAL_INK_LIMIT"
TOTAL_INK_LIMIT "300"

NUMBER_OF_FIELDS 9
BEGIN_DATA_FORMAT
SAMPLE_ID CMYK_C CMYK_M CMYK_Y CMYK_K
END_DATA_FORMAT

NUMBER_OF_SETS 72
BEGIN_DATA
1 100.00 0.0000 0.0000 0.0000
2 70.000 0.0000 0.0000 0.0000
3 40.000 0.0000 0.0000 0.0000
4 20.000 0.0000 0.0000 0.0000
5 10.000 0.0000 0.0000 0.0000
6 0.0000 100.00 0.0000 0.0000
7 0.0000 70.000 0.0000 0.0000
8 0.0000 40.000 0.0000 0.0000
9 0.0000 20.000 0.0000 0.0000
10 0.0000 10.000 0.0000 0.0000
11 0.0000 0.0000 100.00 0.0000
12 0.0000 0.0000 70.000 0.0000
13 0.0000 0.0000 40.000 0.0000
14 0.0000 0.0000 20.000 0.0000
15 0.0000 0.0000 10.000 0.0000
16 0.0000 0.0000 0.0000 10.000
17 0.0000 0.0000 0.0000 20.000
18 0.0000 0.0000 0.0000 40.000
19 0.0000 0.0000 0.0000 60.000
20 0.0000 0.0000 0.0000 80.000
21 0.0000 0.0000 0.0000 100.00
22 0.0000 100.00 0.0000 100.00
23 0.0000 70.000 70.000 60.000
24 0.0000 0.0000 70.000 80.000
25 100.00 100.00 0.0000 0.0000
26 70.000 70.000 0.0000 0.0000
27 40.000 40.000 0.0000 0.0000
28 20.000 20.000 0.0000 0.0000
29 10.000 10.000 0.0000 0.0000
30 0.0000 100.00 100.00 0.0000
31 0.0000 70.000 70.000 0.0000
32 0.0000 40.000 40.000 0.0000
33 0.0000 20.000 20.000 0.0000
34 0.0000 10.000 10.000 0.0000
35 100.00 0.0000 100.00 0.0000
36 70.000 0.0000 70.000 0.0000
37 40.000 0.0000 40.000 0.0000
38 20.000 0.0000 20.000 0.0000
39 10.000 0.0000 10.000 0.0000
40 10.000 6.0000 6.0000 0.0000
41 20.000 12.000 12.000 0.0000
42 40.000 27.000 27.000 0.0000
43 60.000 45.000 45.000 0.0000
44 80.000 65.000 65.000 0.0000
45 100.00 85.000 85.000 0.0000
46 100.00 0.0000 0.0000 100.00
47 20.000 100.00 70.000 60.000
48 70.000 0.0000 70.000 80.000
49 100.00 100.00 100.00 0.0000
50 70.000 70.000 70.000 0.0000
51 40.000 40.000 40.000 0.0000
52 20.000 20.000 20.000 0.0000
53 10.000 10.000 10.000 0.0000
54 20.000 70.000 70.000 0.0000
55 40.000 70.000 70.000 20.000
56 40.000 100.00 100.00 20.000
57 40.000 100.00 40.000 20.000
58 40.000 40.000 100.00 20.000
59 100.00 40.000 100.00 20.000
60 100.00 40.000 40.000 20.000
61 100.00 100.00 40.000 20.000
62 10.000 40.000 40.000 0.0000
63 0.0000 40.000 100.00 0.0000
64 0.0000 100.00 40.000 0.0000
65 40.000 100.00 0.0000 0.0000
66 40.000 0.0000 100.00 0.0000
67 100.00 0.0000 40.000 0.0000
68 100.00 40.000 0.0000 0.0000
69 0.0000 0.0000 0.0000 0.0000
70 0.0000 0.0000 100.00 100.00
71 0.0000 70.000 0.0000 60.000
72 70.000 0.0000 0.0000 80.000
END_DATA
