dispcalGUI/ref/verify.ti1
CTI1   

ORIGINATOR "Argyll targen"
CREATED "Thu Mar 11 19:23:29 2010"
KEYWORD "ERROR_OPTIMISED_PATCHES"
ERROR_OPTIMISED_PATCHES "24"
KEYWORD "APPROX_WHITE_POINT"
APPROX_WHITE_POINT "95.106486 100.000000 108.844025"
DESCRIPTOR "Argyll Calibration Target chart information 1"
KEYWORD "COLOR_REP"
COLOR_REP "RGB"

NUMBER_OF_FIELDS 7
BEGIN_DATA_FORMAT
SAMPLE_ID RGB_R RGB_G RGB_B XYZ_X XYZ_Y XYZ_Z
END_DATA_FORMAT

NUMBER_OF_SETS 24
BEGIN_DATA
1 100.00 100.00 100.00 95.106 100.00 108.84
2 0.0000 0.0000 0.0000 1.0000 1.0000 1.0000
3 12.500 12.500 12.500 2.3504 2.4206 2.5475
4 25.000 25.000 25.000 5.7878 6.0367 6.4867
5 37.500 37.500 37.500 11.918 12.486 13.512
6 50.000 50.000 50.000 21.143 22.190 24.083
7 62.500 62.500 62.500 33.797 35.503 38.585
8 75.000 75.000 75.000 50.173 52.730 57.351
9 87.500 87.500 87.500 70.530 74.146 80.680
10 50.000 0.0000 0.0000 9.7393 5.5060 1.4095
11 100.00 0.0000 0.0000 41.830 22.052 2.9132
12 100.00 50.000 50.000 53.233 38.736 25.587
13 0.0000 50.000 0.0000 8.5782 16.154 3.5261
14 0.0000 100.00 0.0000 36.405 71.801 12.802
15 50.000 100.00 50.000 48.970 77.836 33.359
16 0.0000 0.0000 50.000 4.8252 2.5298 21.147
17 0.0000 0.0000 100.00 18.871 8.1473 95.129
18 50.000 50.000 100.00 35.189 27.808 98.065
19 0.0000 50.000 50.000 12.403 17.684 23.674
20 0.0000 100.00 100.00 54.276 78.948 106.93
21 50.000 0.0000 50.000 13.564 7.0358 21.557
22 100.00 0.0000 100.00 59.701 29.199 97.042
23 50.000 50.000 0.0000 17.318 20.660 3.9356
24 100.00 100.00 0.0000 77.235 92.853 14.715
END_DATA
CTI1   

ORIGINATOR "Argyll targen"
KEYWORD "DENSITY_EXTREME_VALUES"
DENSITY_EXTREME_VALUES "8"
CREATED "March 11, 2010"
DESCRIPTOR "Argyll Calibration Target chart information 1"

KEYWORD "INDEX"
NUMBER_OF_FIELDS 7
BEGIN_DATA_FORMAT
INDEX RGB_R RGB_G RGB_B XYZ_X XYZ_Y XYZ_Z
END_DATA_FORMAT

NUMBER_OF_SETS 8
BEGIN_DATA
0 100.00 100.00 100.00 95.106 100.00 108.84
1 0.0000 47.361 100.00 25.613 21.629 97.376
2 100.00 0.0000 79.351 52.426 26.290 58.722
3 0.0000 0.0000 58.997 6.4858 3.1940 29.894
4 100.00 66.659 0.0000 56.059 50.505 7.6561
5 0.0000 35.601 0.0000 4.6856 8.3702 2.2286
6 84.444 0.0000 0.0000 28.843 15.356 2.3047
7 0.0000 0.0000 0.0000 1.0000 1.0000 1.0000
END_DATA
CTI1   

ORIGINATOR "Argyll targen"
CREATED "March 11, 2010"
DESCRIPTOR "Argyll Calibration Target chart information 1"
KEYWORD "DEVICE_COMBINATION_VALUES"
DEVICE_COMBINATION_VALUES "9"

KEYWORD "INDEX"
NUMBER_OF_FIELDS 7
BEGIN_DATA_FORMAT
INDEX RGB_R RGB_G RGB_B XYZ_X XYZ_Y XYZ_Z
END_DATA_FORMAT

NUMBER_OF_SETS 9
BEGIN_DATA
0 100.00 100.00 100.00 95.106 100.00 108.84
1 0.0000 100.00 100.00 54.276 78.948 106.93
2 100.00 0.0000 100.00 59.701 29.199 97.042
3 0.0000 0.0000 100.00 18.871 8.1473 95.129
4 100.00 100.00 0.0000 77.235 92.853 14.715
5 0.0000 100.00 0.0000 36.405 71.801 12.802
6 100.00 0.0000 0.0000 41.830 22.052 2.9132
7 0.0000 0.0000 0.0000 1.0000 1.0000 1.0000
8 60.000 60.000 60.000 30.977 32.536 35.353
END_DATA