dispcalGUI/ref/verify_video_large.ti1
CTI1   

ORIGINATOR "Argyll targen"
KEYWORD "OFPS_PATCHES"
OFPS_PATCHES "200"
CREATED "Mon Jan 13 22:06:17 2014"
KEYWORD "COMP_GREY_STEPS"
COMP_GREY_STEPS "21"
KEYWORD "BLACK_COLOR_PATCHES"
BLACK_COLOR_PATCHES "1"
KEYWORD "APPROX_WHITE_POINT"
APPROX_WHITE_POINT "95.045684 99.999971 108.903720"
DESCRIPTOR "Argyll Calibration Target chart information 1"
KEYWORD "MULTI_DIM_STEPS"
MULTI_DIM_STEPS "2"
KEYWORD "DARK_REGION_EMPHASIS"
DARK_REGION_EMPHASIS "1.6"
KEYWORD "ACCURATE_EXPECTED_VALUES"
ACCURATE_EXPECTED_VALUES "true"
KEYWORD "WHITE_COLOR_PATCHES"
WHITE_COLOR_PATCHES "1"
KEYWORD "COLOR_REP"
COLOR_REP "RGB"

NUMBER_OF_FIELDS 7
BEGIN_DATA_FORMAT
SAMPLE_ID RGB_R RGB_G RGB_B XYZ_X XYZ_Y XYZ_Z
END_DATA_FORMAT

NUMBER_OF_SETS 343
BEGIN_DATA
1 100.000000000 100.000000000 100.000000000 95.0457000000 100.000000000 108.904000000
2 0.00000000000 0.00000000000 0.00000000000 0.00000000000 0.00000000000 0.00000000000
3 1.00000000000 1.00000000000 1.00000000000 0.21094700000 0.22194200000 0.24170400000
4 2.00000000000 2.00000000000 2.00000000000 0.42267700000 0.44470900000 0.48430500000
5 3.00000000000 3.00000000000 3.00000000000 0.63329000000 0.66630000000 0.72562600000
6 4.00000000000 4.00000000000 4.00000000000 0.84523700000 0.88929600000 0.96847600000
7 5.00000000000 5.00000000000 5.00000000000 1.05597000000 1.11101000000 1.20993000000
8 10.0000000000 10.0000000000 10.0000000000 2.13166000000 2.24277000000 2.44246000000
9 15.0000000000 15.0000000000 15.0000000000 3.50749000000 3.69032000000 4.01889000000
10 20.0000000000 20.0000000000 20.0000000000 5.26837000000 5.54299000000 6.03652000000
11 25.0000000000 25.0000000000 25.0000000000 7.42846000000 7.81567000000 8.51156000000
12 30.0000000000 30.0000000000 30.0000000000 10.0017000000 10.5231000000 11.4600000000
13 35.0000000000 35.0000000000 35.0000000000 13.0023000000 13.6800000000 14.8980000000
14 40.0000000000 40.0000000000 40.0000000000 16.4418000000 17.2988000000 18.8391000000
15 45.0000000000 45.0000000000 45.0000000000 20.3283000000 21.3880000000 23.2923000000
16 50.0000000000 50.0000000000 50.0000000000 24.6726000000 25.9586000000 28.2699000000
17 55.0000000000 55.0000000000 55.0000000000 29.4850000000 31.0219000000 33.7840000000
18 60.0000000000 60.0000000000 60.0000000000 34.7713000000 36.5838000000 39.8411000000
19 65.0000000000 65.0000000000 65.0000000000 40.5417000000 42.6550000000 46.4529000000
20 70.0000000000 70.0000000000 70.0000000000 46.8023000000 49.2419000000 53.6263000000
21 75.0000000000 75.0000000000 75.0000000000 53.5605000000 56.3523000000 61.3698000000
22 80.0000000000 80.0000000000 80.0000000000 60.8234000000 63.9939000000 69.6917000000
23 85.0000000000 85.0000000000 85.0000000000 68.5971000000 72.1727000000 78.5988000000
24 90.0000000000 90.0000000000 90.0000000000 76.8886000000 80.8964000000 88.0993000000
25 95.0000000000 95.0000000000 95.0000000000 85.7024000000 90.1697000000 98.1981000000
26 96.0000000000 96.0000000000 96.0000000000 87.5286000000 92.0911000000 100.291000000
27 97.0000000000 97.0000000000 97.0000000000 89.3761000000 94.0348000000 102.407000000
28 98.0000000000 98.0000000000 98.0000000000 91.2445000000 96.0006000000 104.548000000
29 99.0000000000 99.0000000000 99.0000000000 93.1350000000 97.9897000000 106.714000000
30 5.0000000 0.0000000 0.0000000 0.4581630 0.2362480 0.0214702
31 10.000000 0.0000000 0.0000000 0.9248840 0.4769100 0.0433415
32 15.000000 0.0000000 0.0000000 1.5218300 0.7847200 0.0713153
33 20.000000 0.0000000 0.0000000 2.2858400 1.1786800 0.1071180
34 25.000000 0.0000000 0.0000000 3.2230600 1.6619500 0.1510380
35 30.000000 0.0000000 0.0000000 4.3395600 2.2376600 0.2033580
36 35.000000 0.0000000 0.0000000 5.6414300 2.9089600 0.2643660
37 40.000000 0.0000000 0.0000000 7.1337800 3.6784800 0.3343000
38 45.000000 0.0000000 0.0000000 8.8200700 4.5480000 0.4133220
39 50.000000 0.0000000 0.0000000 10.704900 5.5199300 0.5016500
40 55.000000 0.0000000 0.0000000 12.793000 6.5965900 0.5994970
41 60.000000 0.0000000 0.0000000 15.086600 7.7792900 0.7069810
42 65.000000 0.0000000 0.0000000 17.590300 9.0702900 0.8243060
43 70.000000 0.0000000 0.0000000 20.306600 10.471000 0.9515990
44 75.000000 0.0000000 0.0000000 23.238800 11.982900 1.0890100
45 80.000000 0.0000000 0.0000000 26.390100 13.607900 1.2366800
46 85.000000 0.0000000 0.0000000 29.762900 15.347000 1.3947400
47 90.000000 0.0000000 0.0000000 33.360500 17.202100 1.5633200
48 95.000000 0.0000000 0.0000000 37.184600 19.174000 1.7425300
49 0.0000000 5.0000000 0.0000000 0.3972830 0.7945580 0.1324170
50 0.0000000 10.000000 0.0000000 0.8019870 1.6039600 0.2673070
51 0.0000000 15.000000 0.0000000 1.3196100 2.6392000 0.4398350
52 0.0000000 20.000000 0.0000000 1.9821000 3.9641700 0.6606480
53 0.0000000 25.000000 0.0000000 2.7947900 5.5895100 0.9315200
54 0.0000000 30.000000 0.0000000 3.7629200 7.5257600 1.2542100
55 0.0000000 35.000000 0.0000000 4.8918000 9.7835000 1.6304700
56 0.0000000 40.000000 0.0000000 6.1858500 12.371600 2.0617800
57 0.0000000 45.000000 0.0000000 7.6480600 15.296000 2.5491500
58 0.0000000 50.000000 0.0000000 9.2824800 18.564800 3.0939100
59 0.0000000 55.000000 0.0000000 11.093000 22.185800 3.6973800
60 0.0000000 60.000000 0.0000000 13.081900 26.163500 4.3602800
61 0.0000000 65.000000 0.0000000 15.252900 30.505500 5.0838900
62 0.0000000 70.000000 0.0000000 17.608300 35.216200 5.8689600
63 0.0000000 75.000000 0.0000000 20.150900 40.301300 6.7164200
64 0.0000000 80.000000 0.0000000 22.883400 45.766300 7.6271900
65 0.0000000 85.000000 0.0000000 25.808100 51.615600 8.6019900
66 0.0000000 90.000000 0.0000000 28.927600 57.854500 9.6417400
67 0.0000000 95.000000 0.0000000 32.243500 64.486400 10.747000
68 0.0000000 0.0000000 5.0000000 0.2005200 0.0802030 1.0560400
69 0.0000000 0.0000000 10.000000 0.4047860 0.1619040 2.1318100
70 0.0000000 0.0000000 15.000000 0.6660460 0.2664020 3.5077400
71 0.0000000 0.0000000 20.000000 1.0004300 0.4001450 5.2687600
72 0.0000000 0.0000000 25.000000 1.4106100 0.5642080 7.4290000
73 0.0000000 0.0000000 30.000000 1.8992600 0.7596540 10.002500
74 0.0000000 0.0000000 35.000000 2.4690400 0.9875520 13.003200
75 0.0000000 0.0000000 40.000000 3.1221800 1.2487900 16.443000
76 0.0000000 0.0000000 45.000000 3.8602000 1.5439800 20.329800
77 0.0000000 0.0000000 50.000000 4.6851400 1.8739400 24.674400
78 0.0000000 0.0000000 55.000000 5.5989800 2.2394500 29.487100
79 0.0000000 0.0000000 60.000000 6.6028200 2.6409600 34.773900
80 0.0000000 0.0000000 65.000000 7.6985800 3.0792400 40.544700
81 0.0000000 0.0000000 70.000000 8.8874200 3.5547400 46.805700
82 0.0000000 0.0000000 75.000000 10.170700 4.0680400 53.564400
83 0.0000000 0.0000000 80.000000 11.549900 4.6196800 60.827900
84 0.0000000 0.0000000 85.000000 13.026100 5.2101000 68.602100
85 0.0000000 0.0000000 90.000000 14.600600 5.8398600 76.894200
86 0.0000000 0.0000000 95.000000 16.274300 6.5092900 85.708600
87 75.0000000000 75.0000000000 0.00000000000 43.3897000000 52.2843000000 7.80543000000
88 0.00000000000 75.0000000000 75.0000000000 30.3216000000 44.3694000000 60.2808000000
89 75.0000000000 0.00000000000 75.0000000000 33.4096000000 16.0510000000 54.6534000000
90 44.8566000000 44.8566000000 44.8566000000 20.2105799807 21.2641167721 23.1576926004
91 63.6730000000 38.1909000000 38.1909000000 25.4795441409 21.2641167721 17.8391838906
92 77.8822000000 30.1565000000 30.1565000000 30.7404365432 21.2641167721 12.5288228382
93 89.7018000000 19.4129000000 19.4129000000 35.9932757215 21.2641167721 7.22659073494
94 100.000000000 0.00000000000 0.00000000000 41.2380801533 21.2641167721 1.93246892968
95 84.6109000000 84.6109000000 84.6109000000 67.9735053999 71.5168272068 77.8854216218
96 66.4250000000 90.7682000000 66.4250000000 55.7939487249 71.5168272068 52.9451706649
97 49.3393000000 94.8651000000 49.3393000000 47.1673247416 71.5168272068 35.2803103753
98 30.8888000000 97.7963000000 30.8888000000 40.7368718541 71.5168272068 22.1125807886
99 0.00000000000 100.000000000 0.00000000000 35.7586345539 71.5168272068 11.9185736583
100 23.7758000000 23.7758000000 23.7758000000 6.86138581079 7.21905602106 7.86191507469
101 22.8931000000 22.8931000000 33.2690000000 7.50247306286 7.21905602106 12.8584175808
102 21.3291000000 21.3291000000 45.1634000000 8.58688917618 7.21905602106 21.3101342705
103 17.7705000000 17.7705000000 62.8893000000 10.8175303780 7.21905602106 38.6952941207
104 0.00000000000 0.00000000000 100.000000000 18.0487564842 7.21905602106 95.0539867089
105 96.3564000000 96.3564000000 96.3564000000 88.1840853806 92.7809439789 101.043114222
106 97.6065000000 97.6065000000 78.3201000000 84.3961739561 92.7809439789 71.5209097728
107 98.5809000000 98.5809000000 60.0046000000 81.4085699333 92.7809439789 48.2361370075
108 99.3610000000 99.3610000000 39.0127000000 78.9918743231 92.7809439789 29.4009072732
109 100.000000000 100.000000000 0.00000000000 76.9967147072 92.7809439789 13.8510425880
110 88.7908000000 88.7908000000 88.7908000000 74.8348912107 78.7358832279 85.7473366965
111 76.8144000000 91.7336000000 91.7336000000 69.5812715544 78.7358832279 91.0503566166
112 62.3586000000 94.5767000000 94.5767000000 64.3254825364 78.7358832279 96.3555662971
113 43.0013000000 97.3297000000 97.3297000000 59.0675228127 78.7358832279 101.662967095
114 0.00000000000 100.000000000 100.000000000 53.8073910381 78.7358832279 106.972560367
115 52.5544000000 52.5544000000 52.5544000000 27.0719657915 28.4831727932 31.0196076751
116 61.3265000000 48.6049000000 61.3265000000 31.4240290918 28.4831727932 39.9313894243
117 71.4880000000 42.6357000000 71.4880000000 37.3508948378 28.4831727932 52.0679164783
118 83.8675000000 32.1726000000 83.8675000000 45.8961413640 28.4831727932 69.5661389950
119 100.000000000 0.00000000000 100.000000000 59.2868366375 28.4831727932 96.9864556386
120 40.0135710000 25.7855360000 20.3166640000 11.0987728189 9.96349028933 6.70683889762
121 75.3239440000 53.3235670000 45.5138900000 37.8433433820 34.5929013874 25.3418411413
122 29.7294530000 42.8741830000 56.9655800000 17.2627869237 18.6079442344 34.0434895903
123 29.3696940000 36.7494550000 19.1227700000 10.4508213805 13.1858653104 6.90224862121
124 45.8783810000 45.2252700000 65.6332920000 24.6983361132 23.2842950070 44.3096351894
125 30.4672760000 71.5859150000 63.8934800000 30.2960557500 42.0637639242 45.5648346122
126 86.5041870000 43.4404240000 12.1170370000 38.5020181548 30.4426870384 6.50439120335
127 20.5251510000 29.9885530000 63.1046490000 13.4083303064 11.6546985998 39.6636026514
128 75.2173670000 26.1929250000 32.3762060000 28.5426975594 18.9383304960 13.4738366105
129 30.9759250000 16.5811270000 35.9008300000 8.67315554203 6.41998636560 14.3091503762
130 58.2143390000 71.1778220000 18.4987520000 33.3256900284 44.0814894823 11.4282819937
131 89.1957530000 59.4460460000 9.22096600000 45.9894818121 42.7488679977 7.77001673547
132 7.70206300000 18.7037800000 53.2815390000 7.77658204874 6.06567765789 28.4106687139
133 20.1281730000 54.0487620000 23.0357560000 14.2821402350 23.1550399334 10.2172360832
134 67.2756590000 12.8958240000 16.1663930000 20.6218372687 12.1579898005 5.12632342352
135 92.6431030000 75.2703180000 3.08526800000 55.7710164530 58.8665409800 9.07258281814
136 72.9460080000 27.0315430000 54.7477230000 30.7273155563 19.9064233819 31.3199872698
137 0.00000000000 48.6755780000 62.9033170000 14.5175137215 19.7608779901 40.9361487849
138 95.5677520000 95.6932160000 94.5773380000 86.4809674270 91.2936016949 97.6118474572
139 76.0962140000 76.9086440000 76.9976890000 55.7926464495 58.9561381180 64.5825373001
140 59.0609880000 59.9697830000 60.1494470000 34.3433701833 36.3410180207 39.9813089484
141 42.1652720000 42.3833700000 42.5344470000 18.1870513156 19.1598285842 21.0103026088
142 26.4050020000 27.0830310000 27.7677680000 8.36841404048 8.84041943583 10.0258124704
143 12.8919200000 13.1647200000 13.6934880000 2.95451621365 3.10776767194 3.54178841946
144 76.5532000000 26.1126000000 0.00000000000 27.1904000000 18.4682000000 2.13249000000
145 79.7869000000 34.0927000000 45.2055000000 34.8191000000 24.4436000000 23.2876000000
146 100.000000000 41.7069000000 48.8046000000 52.3843000000 36.3877000000 27.7485000000
147 100.000000000 62.1582000000 100.000000000 73.2835000000 56.4761000000 101.650000000
148 0.00000000000 9.09697000000 16.1459000000 1.45963000000 1.74139000000 4.11803000000
149 9.58097000000 8.28090000000 19.3040000000 2.48804000000 2.14721000000 5.26033000000
150 6.59162000000 5.66605000000 27.3385000000 2.68377000000 1.86397000000 8.75887000000
151 59.6288000000 49.0984000000 63.0921000000 31.1537000000 28.5453000000 41.9748000000
152 61.0865000000 63.7084000000 66.6048000000 38.3572000000 40.6271000000 48.1224000000
153 76.1129000000 68.0427000000 66.1564000000 48.5501000000 48.8478000000 48.6235000000
154 69.7263000000 26.3390000000 24.8993000000 24.5922000000 17.0289000000 9.33830000000
155 84.5263000000 45.7753000000 41.4861000000 40.6563000000 32.2901000000 21.5599000000
156 94.1913000000 64.5676000000 60.5377000000 58.3246000000 51.6484000000 42.1025000000
157 100.000000000 63.9844000000 71.9084000000 65.4013000000 54.6039000000 56.1900000000
158 12.1399000000 0.00000000000 14.5511000000 1.80040000000 0.85436100000 3.42371000000
159 0.00000000000 0.00000000000 15.6041000000 0.70251500000 0.28098800000 3.69980000000
160 15.5304000000 32.0535000000 41.6669000000 9.16042000000 10.5797000000 19.1649000000
161 18.0712000000 45.1244000000 46.6590000000 13.7816000000 18.0388000000 24.3747000000
162 19.2491000000 83.1298000000 54.2299000000 32.3041000000 52.6774000000 37.0459000000
163 26.0819000000 62.3310000000 33.1249000000 19.7660000000 30.8189000000 16.6791000000
164 46.2402000000 80.2249000000 49.6088000000 36.8973000000 52.6474000000 32.4221000000
165 55.3156000000 89.2378000000 69.2317000000 50.0690000000 67.0252000000 55.8961000000
166 0.00000000000 39.3055000000 20.5087000000 7.03440000000 12.4070000000 7.46783000000
167 0.00000000000 70.5160000000 35.2623000000 20.3631000000 36.7237000000 19.1264000000
168 0.00000000000 100.000000000 41.8856000000 39.1491000000 72.8728000000 29.7738000000
169 59.0177000000 51.9775000000 12.5833000000 25.1278000000 27.7055000000 6.80676000000
170 85.6325000000 73.9803000000 11.2490000000 50.2862000000 54.9943000000 10.3941000000
171 69.8271000000 53.1678000000 0.00000000000 30.6174000000 31.2376000000 4.41629000000
172 69.2740000000 78.6437000000 0.00000000000 42.0221000000 54.5070000000 8.30635000000
173 72.9077000000 100.000000000 56.6899000000 63.6717000000 85.2242000000 44.1685000000
174 0.00000000000 13.1393000000 41.3027000000 4.41672000000 3.54346000000 17.7821000000
175 51.7344000000 16.2727000000 71.6872000000 22.1906000000 12.5542000000 50.0562000000
176 74.4633000000 36.0650000000 81.9271000000 40.1745000000 26.9654000000 66.5543000000
177 78.5505000000 67.8105000000 83.4415000000 54.5629000000 51.2539000000 72.8334000000
178 63.9502000000 40.4456000000 50.6929000000 28.1627000000 23.3309000000 28.2150000000
179 63.9627000000 76.2841000000 67.7353000000 46.2250000000 53.7964000000 51.6520000000
180 76.9937000000 100.000000000 82.3775000000 72.4675000000 89.0296000000 77.5255000000
181 24.7979000000 0.00000000000 14.0498000000 3.79263000000 1.88497000000 3.36696000000
182 47.1013000000 11.7729000000 13.9301000000 11.1619000000 7.12475000000 3.95481000000
183 85.4390000000 15.1303000000 19.9767000000 32.4041000000 18.5755000000 7.11396000000
184 72.8153000000 0.00000000000 0.00000000000 21.9308000000 11.3085000000 1.02771000000
185 100.000000000 33.6932000000 19.9114000000 46.8135000000 30.8241000000 8.69356000000
186 15.1589000000 35.2127000000 17.3877000000 7.30378000000 11.0095000000 6.01929000000
187 19.3548000000 57.1239000000 14.6472000000 14.7389000000 25.2122000000 7.47287000000
188 17.2927000000 80.4519000000 28.5823000000 26.7437000000 47.9348000000 17.0302000000
189 55.0943000000 85.2550000000 38.7313000000 41.7450000000 59.7215000000 24.7824000000
190 73.5598000000 86.0390000000 61.6010000000 55.7554000000 67.1927000000 46.4298000000
191 43.6160000000 41.7420000000 31.7871000000 17.1031000000 18.4863000000 13.6418000000
192 58.9227000000 51.5126000000 31.0352000000 26.3969000000 27.9422000000 14.5421000000
193 84.0186000000 77.7702000000 33.0581000000 52.9626000000 59.1737000000 20.3629000000
194 100.000000000 100.000000000 59.9796000000 83.5958000000 95.4203000000 48.6025000000
195 12.0701000000 0.00000000000 0.00000000000 1.15255000000 0.59430100000 0.05401000000
196 8.10706000000 7.36301000000 8.15846000000 1.65224000000 1.68290000000 1.94772000000
197 11.5075000000 25.3998000000 52.3903000000 9.06506000000 8.33756000000 27.9229000000
198 18.0798000000 39.2544000000 58.2544000000 14.1962000000 15.4777000000 34.9596000000
199 69.3404000000 49.7493000000 77.6579000000 40.0242000000 33.0287000000 61.3619000000
200 0.00000000000 10.2112000000 0.00000000000 0.82084600000 1.64168000000 0.27359300000
201 0.00000000000 20.0416000000 0.00000000000 1.98815000000 3.97625000000 0.66266200000
202 0.00000000000 72.0401000000 0.00000000000 18.6230000000 37.2455000000 6.20715000000
203 56.6549000000 100.000000000 0.00000000000 49.2875000000 78.4928000000 12.5526000000
204 76.3054000000 100.000000000 25.6142000000 61.2652000000 84.4993000000 20.7673000000
205 100.000000000 100.000000000 32.3066000000 79.1492000000 93.6418000000 25.1844000000
206 39.7771000000 57.1598000000 14.5627000000 19.6332000000 27.7576000000 7.68021000000
207 39.4057000000 100.000000000 27.7354000000 44.3730000000 75.7657000000 21.0288000000
208 41.2421000000 100.000000000 59.6005000000 49.8122000000 78.0093000000 46.6055000000
209 0.00000000000 16.8912000000 13.4637000000 2.13133000000 3.33741000000 3.56304000000
210 13.2094000000 17.1345000000 8.10961000000 3.19830000000 3.96332000000 2.29646000000
211 28.2190000000 15.5829000000 7.96317000000 5.62980000000 4.92815000000 2.32853000000
212 36.7590000000 13.6320000000 0.00000000000 7.30862000000 5.49629000000 0.67589300000
213 13.6279000000 9.54872000000 0.00000000000 2.10397000000 2.21630000000 0.31693200000
214 10.0658000000 17.6140000000 20.1522000000 3.59090000000 4.18024000000 5.92053000000
215 0.00000000000 30.4490000000 31.6221000000 5.93333000000 8.54615000000 12.2152000000
216 21.9787000000 63.4214000000 61.1888000000 24.0382000000 33.1957000000 41.0745000000
217 20.6250000000 84.2207000000 80.4043000000 39.3982000000 56.5785000000 69.9954000000
218 30.5198000000 85.4334000000 100.000000000 48.5860000000 61.6634000000 103.952000000
219 0.00000000000 76.9174000000 63.6677000000 28.5739000000 45.3111000000 46.0172000000
220 0.00000000000 100.000000000 73.5766000000 45.5543000000 75.4347000000 63.5073000000
221 47.9999000000 100.000000000 100.000000000 63.7340000000 83.8543000000 107.436000000
222 13.5019000000 26.7981000000 7.40120000000 4.74782000000 7.05218000000 2.66722000000
223 35.7270000000 74.4542000000 0.00000000000 25.7106000000 42.7423000000 6.89476000000
224 42.1674000000 79.9856000000 20.5995000000 31.7614000000 50.2112000000 13.4973000000
225 62.1438000000 78.8226000000 20.0985000000 39.3645000000 53.1674000000 13.4698000000
226 13.9906000000 11.1626000000 43.9370000000 5.99428000000 4.01375000000 19.8338000000
227 32.0784000000 8.56960000000 89.0185000000 19.8215000000 9.57723000000 75.6798000000
228 52.9912000000 0.00000000000 100.000000000 29.9777000000 13.3702000000 95.6116000000
229 73.6130000000 22.4797000000 100.000000000 42.8177000000 23.5029000000 96.8910000000
230 29.5485000000 21.2387000000 61.4924000000 13.3208000000 9.28824000000 37.3661000000
231 50.1712000000 33.3462000000 62.9655000000 22.5153000000 17.4528000000 40.1418000000
232 51.6227000000 53.8355000000 77.7435000000 32.9313000000 31.5346000000 61.5709000000
233 60.6613000000 64.7792000000 100.000000000 48.6073000000 45.4686000000 100.825000000
234 82.3878000000 68.2944000000 100.000000000 62.8051000000 55.2100000000 101.958000000
235 100.000000000 83.7792000000 100.000000000 84.3633000000 78.6355000000 105.343000000
236 0.00000000000 0.00000000000 37.9699000000 2.84692000000 1.13870000000 14.9934000000
237 0.00000000000 0.00000000000 67.0427000000 8.17287000000 3.26894000000 43.0426000000
238 0.00000000000 38.6763000000 69.7251000000 14.6464000000 15.1812000000 48.3902000000
239 18.1190000000 57.4371000000 67.1836000000 22.2244000000 28.3817000000 47.3238000000
240 29.7952000000 57.9928000000 81.9901000000 28.6781000000 31.5857000000 68.1479000000
241 30.6942000000 43.4115000000 74.5649000000 21.7295000000 20.6768000000 55.5555000000
242 34.5286000000 54.2697000000 100.000000000 34.3768000000 31.6951000000 98.9164000000
243 38.2250000000 27.4228000000 100.000000000 27.8748000000 17.1014000000 96.4424000000
244 37.3003000000 13.9963000000 46.7231000000 11.6435000000 7.31367000000 22.4715000000
245 42.7448000000 31.8103000000 46.9247000000 16.3554000000 14.1161000000 23.7088000000
246 54.6866000000 47.2857000000 47.1789000000 25.2385000000 24.9566000000 25.5508000000
247 61.9997000000 62.2353000000 48.3125000000 34.4890000000 38.1003000000 28.5851000000
248 47.5478000000 26.0313000000 14.4951000000 13.3735000000 11.2476000000 4.80274000000
249 82.2077000000 40.4245000000 22.3535000000 35.3391000000 27.4417000000 9.64089000000
250 89.2213000000 51.2590000000 78.6256000000 53.6683000000 40.8129000000 63.5574000000
251 90.7060000000 80.8448000000 85.7774000000 70.5153000000 69.5066000000 79.2327000000
252 22.9638000000 7.37798000000 8.88099000000 3.76251000000 2.76932000000 2.20267000000
253 44.8838000000 51.5045000000 0.00000000000 18.5873000000 24.1436000000 3.68064000000
254 44.5461000000 56.3374000000 49.9962000000 24.9502000000 29.5523000000 28.9453000000
255 51.5071000000 68.8170000000 72.4991000000 37.8635000000 43.7071000000 56.3288000000
256 54.9868000000 85.3747000000 80.0989000000 50.4006000000 63.2945000000 70.2536000000
257 32.3961000000 18.4725000000 30.3080000000 8.63617000000 6.84763000000 10.9954000000
258 47.9906000000 29.5470000000 33.1258000000 15.8379000000 13.3527000000 13.5159000000
259 58.7837000000 39.3262000000 31.9592000000 22.6239000000 20.3298000000 13.8074000000
260 79.8801000000 58.7128000000 31.8787000000 40.9685000000 39.5140000000 16.4962000000
261 100.000000000 59.7703000000 39.6756000000 57.3021000000 48.4678000000 22.4667000000
262 59.7597000000 17.7656000000 7.89070000000 16.9559000000 11.1824000000 2.92420000000
263 89.4922000000 17.3889000000 6.75010000000 34.8730000000 20.3517000000 3.51032000000
264 100.000000000 45.1742000000 0.00000000000 48.9404000000 36.6681000000 4.49961000000
265 100.000000000 68.9993000000 0.00000000000 58.3603000000 55.5076000000 7.63932000000
266 48.0062000000 31.1933000000 0.00000000000 13.9468000000 13.1552000000 1.80441000000
267 63.5871000000 37.7052000000 12.8763000000 22.9786000000 20.0551000000 5.52433000000
268 87.0195000000 51.0039000000 12.6613000000 41.3558000000 35.5600000000 7.49005000000
269 97.9490000000 80.4521000000 55.5371000000 68.3902000000 68.9528000000 39.5979000000
270 100.000000000 81.0070000000 70.3943000000 73.6805000000 71.7713000000 57.0716000000
271 31.4090000000 24.9466000000 20.0758000000 8.47892000000 8.38997000000 6.44601000000
272 36.0205000000 46.7221000000 24.1952000000 15.4613000000 19.9762000000 10.0615000000
273 38.9380000000 71.0417000000 58.3081000000 31.1758000000 42.2523000000 39.2897000000
274 41.0875000000 100.000000000 81.9505000000 55.3563000000 80.2209000000 76.0682000000
275 0.00000000000 69.7389000000 78.9830000000 28.7421000000 39.4649000000 65.1360000000
276 0.00000000000 73.3370000000 100.000000000 37.3325000000 45.7866000000 101.480000000
277 42.0574000000 74.0431000000 100.000000000 45.5021000000 50.5419000000 101.968000000
