dispcalGUI/ref/verify_large.ti1
CTI1   

ORIGINATOR "Argyll targen"
KEYWORD "OFPS_PATCHES"
OFPS_PATCHES "200"
CREATED "Sun Oct 20 16:10:47 2013"
KEYWORD "COMP_GREY_STEPS"
COMP_GREY_STEPS "50"
KEYWORD "APPROX_WHITE_POINT"
APPROX_WHITE_POINT "95.106486 100.000000 108.844025"
DESCRIPTOR "Argyll Calibration Target chart information 1"
KEYWORD "MULTI_DIM_STEPS"
MULTI_DIM_STEPS "2"
KEYWORD "WHITE_COLOR_PATCHES"
WHITE_COLOR_PATCHES "1"
KEYWORD "SINGLE_DIM_STEPS"
SINGLE_DIM_STEPS "25"
KEYWORD "COLOR_REP"
COLOR_REP "RGB"

NUMBER_OF_FIELDS 7
BEGIN_DATA_FORMAT
SAMPLE_ID RGB_R RGB_G RGB_B XYZ_X XYZ_Y XYZ_Z
END_DATA_FORMAT

NUMBER_OF_SETS 325
BEGIN_DATA
1 100.00 100.00 100.00 95.106 100.00 108.84
2 0.0000 0.0000 0.0000 1.0000 1.0000 1.0000
3 4.1667 0.0000 0.0000 1.1318 1.0679 1.0062
4 8.3333 0.0000 0.0000 1.3115 1.1606 1.0146
5 12.500 0.0000 0.0000 1.5859 1.3021 1.0275
6 16.667 0.0000 0.0000 1.9657 1.4979 1.0453
7 20.833 0.0000 0.0000 2.4601 1.7528 1.0684
8 25.000 0.0000 0.0000 3.0773 2.0711 1.0973
9 29.167 0.0000 0.0000 3.8246 2.4564 1.1324
10 33.333 0.0000 0.0000 4.7091 2.9124 1.1738
11 37.500 0.0000 0.0000 5.7370 3.4424 1.2220
12 41.667 0.0000 0.0000 6.9143 4.0494 1.2771
13 45.833 0.0000 0.0000 8.2466 4.7364 1.3396
14 50.000 0.0000 0.0000 9.7393 5.5060 1.4095
15 54.167 0.0000 0.0000 11.398 6.3610 1.4872
16 58.333 0.0000 0.0000 13.226 7.3038 1.5729
17 62.500 0.0000 0.0000 15.230 8.3369 1.6668
18 66.667 0.0000 0.0000 17.413 9.4625 1.7691
19 70.833 0.0000 0.0000 19.780 10.683 1.8800
20 75.000 0.0000 0.0000 22.335 12.000 1.9997
21 79.167 0.0000 0.0000 25.082 13.417 2.1284
22 83.333 0.0000 0.0000 28.024 14.934 2.2663
23 87.500 0.0000 0.0000 31.167 16.554 2.4136
24 91.667 0.0000 0.0000 34.513 18.280 2.5704
25 95.833 0.0000 0.0000 38.066 20.112 2.7369
26 100.00 0.0000 0.0000 41.830 22.052 2.9132
27 0.0000 4.1667 0.0000 1.1143 1.2285 1.0381
28 0.0000 8.3333 0.0000 1.2701 1.5401 1.0900
29 0.0000 12.500 0.0000 1.5081 2.0160 1.1694
30 0.0000 16.667 0.0000 1.8374 2.6746 1.2791
31 0.0000 20.833 0.0000 2.2661 3.5319 1.4220
32 0.0000 25.000 0.0000 2.8013 4.6021 1.6004
33 0.0000 29.167 0.0000 3.4493 5.8980 1.8165
34 0.0000 33.333 0.0000 4.2163 7.4316 2.0721
35 0.0000 37.500 0.0000 5.1076 9.2140 2.3692
36 0.0000 41.667 0.0000 6.1284 11.255 2.7095
37 0.0000 45.833 0.0000 7.2838 13.566 3.0946
38 0.0000 50.000 0.0000 8.5782 16.154 3.5261
39 0.0000 54.167 0.0000 10.016 19.030 4.0054
40 0.0000 58.333 0.0000 11.602 22.200 4.5339
41 0.0000 62.500 0.0000 13.339 25.675 5.1131
42 0.0000 66.667 0.0000 15.232 29.460 5.7441
43 0.0000 70.833 0.0000 17.285 33.565 6.4282
44 0.0000 75.000 0.0000 19.500 37.995 7.1667
45 0.0000 79.167 0.0000 21.882 42.758 7.9607
46 0.0000 83.333 0.0000 24.434 47.861 8.8113
47 0.0000 87.500 0.0000 27.159 53.311 9.7197
48 0.0000 91.667 0.0000 30.060 59.113 10.687
49 0.0000 95.833 0.0000 33.142 65.274 11.714
50 0.0000 100.00 0.0000 36.405 71.801 12.802
51 0.0000 0.0000 4.1667 1.0577 1.0231 1.3038
52 0.0000 0.0000 8.3333 1.1363 1.0545 1.7180
53 0.0000 0.0000 12.500 1.2564 1.1026 2.3507
54 0.0000 0.0000 16.667 1.4227 1.1691 3.2264
55 0.0000 0.0000 20.833 1.6391 1.2556 4.3661
56 0.0000 0.0000 25.000 1.9092 1.3636 5.7889
57 0.0000 0.0000 29.167 2.2363 1.4945 7.5119
58 0.0000 0.0000 33.333 2.6234 1.6493 9.5508
59 0.0000 0.0000 37.500 3.0733 1.8292 11.920
60 0.0000 0.0000 41.667 3.5886 2.0353 14.635
61 0.0000 0.0000 45.833 4.1718 2.2685 17.706
62 0.0000 0.0000 50.000 4.8252 2.5298 21.147
63 0.0000 0.0000 54.167 5.5509 2.8201 24.970
64 0.0000 0.0000 58.333 6.3513 3.1402 29.186
65 0.0000 0.0000 62.500 7.2283 3.4909 33.805
66 0.0000 0.0000 66.667 8.1838 3.8731 38.838
67 0.0000 0.0000 70.833 9.2198 4.2874 44.294
68 0.0000 0.0000 75.000 10.338 4.7346 50.184
69 0.0000 0.0000 79.167 11.540 5.2155 56.517
70 0.0000 0.0000 83.333 12.828 5.7306 63.302
71 0.0000 0.0000 87.500 14.204 6.2808 70.547
72 0.0000 0.0000 91.667 15.669 6.8665 78.261
73 0.0000 0.0000 95.833 17.224 7.4885 86.452
74 0.0000 0.0000 100.00 18.871 8.1473 95.129
75 2.0408 2.0408 2.0408 1.1486 1.1564 1.1703
76 4.0816 4.0816 4.0816 1.2974 1.3128 1.3408
77 6.1224 6.1224 6.1224 1.4726 1.4972 1.5416
78 8.1633 8.1633 8.1633 1.6969 1.7331 1.7986
79 10.204 10.204 10.204 1.9733 2.0239 2.1154
80 12.245 12.245 12.245 2.3049 2.3728 2.4954
81 14.286 14.286 14.286 2.6946 2.7827 2.9419
82 16.327 16.327 16.327 3.1448 3.2563 3.4578
83 18.367 18.367 18.367 3.6579 3.7961 4.0459
84 20.408 20.408 20.408 4.2364 4.4047 4.7088
85 22.449 22.449 22.449 4.8823 5.0842 5.4491
86 24.490 24.490 24.490 5.5978 5.8369 6.2690
87 26.531 26.531 26.531 6.3848 6.6648 7.1709
88 28.571 28.571 28.571 7.2453 7.5700 8.1569
89 30.612 30.612 30.612 8.1810 8.5544 9.2293
90 32.653 32.653 32.653 9.1938 9.6199 10.390
91 34.694 34.694 34.694 10.285 10.768 11.641
92 36.735 36.735 36.735 11.457 12.001 12.984
93 38.776 38.776 38.776 12.711 13.320 14.421
94 40.816 40.816 40.816 14.049 14.727 15.954
95 42.857 42.857 42.857 15.472 16.224 17.584
96 44.898 44.898 44.898 16.981 17.812 19.314
97 46.939 46.939 46.939 18.578 19.492 21.144
98 48.980 48.980 48.980 20.265 21.267 23.078
99 51.020 51.020 51.020 22.043 23.137 25.115
100 53.061 53.061 53.061 23.913 25.104 27.258
101 55.102 55.102 55.102 25.876 27.170 29.508
102 57.143 57.143 57.143 27.934 29.335 31.866
103 59.184 59.184 59.184 30.088 31.601 34.335
104 61.224 61.224 61.224 32.340 33.970 36.915
105 63.265 63.265 63.265 34.690 36.442 39.608
106 65.306 65.306 65.306 37.140 39.019 42.415
107 67.347 67.347 67.347 39.690 41.702 45.338
108 69.388 69.388 69.388 42.343 44.493 48.378
109 71.429 71.429 71.429 45.099 47.392 51.536
110 73.469 73.469 73.469 47.959 50.400 54.813
111 75.510 75.510 75.510 50.924 53.520 58.212
112 77.551 77.551 77.551 53.996 56.752 61.732
113 79.592 79.592 79.592 57.175 60.096 65.376
114 81.633 81.633 81.633 60.463 63.555 69.144
115 83.673 83.673 83.673 63.861 67.129 73.037
116 85.714 85.714 85.714 67.369 70.820 77.057
117 87.755 87.755 87.755 70.989 74.628 81.206
118 89.796 89.796 89.796 74.721 78.555 85.483
119 91.837 91.837 91.837 78.567 82.601 89.890
120 93.878 93.878 93.878 82.528 86.767 94.429
121 95.918 95.918 95.918 86.604 91.055 99.100
122 97.959 97.959 97.959 90.796 95.466 103.90
123 100.00 100.00 0.0000 77.235 92.853 14.715
124 100.00 0.0000 100.00 59.701 29.199 97.042
125 0.0000 100.00 100.00 54.276 78.948 106.93
126 60.476 0.0000 0.0000 14.235 7.8238 1.6201
127 0.0000 35.411 0.0000 4.6449 8.2888 2.2150
128 0.0000 79.735 100.00 40.091 50.581 102.20
129 76.253 0.0000 100.00 41.011 19.563 96.166
130 100.00 64.910 0.0000 55.245 48.878 7.3848
131 60.531 100.00 100.00 67.537 85.785 107.55
132 48.260 100.00 0.0000 44.501 75.975 13.181
133 0.0000 100.00 48.454 39.980 73.230 31.629
134 100.00 0.0000 50.228 45.693 23.597 23.260
135 0.0000 89.529 0.0000 28.550 56.092 10.183
136 0.0000 59.197 100.00 29.820 30.043 98.779
137 100.00 23.896 100.00 61.350 32.496 97.592
138 100.00 100.00 34.509 78.979 93.550 23.901
139 27.250 0.0000 100.00 21.335 9.4179 95.244
140 100.00 30.860 0.0000 44.577 27.544 3.8287
141 80.563 100.00 100.00 79.322 91.862 108.10
142 41.089 74.950 100.00 43.085 48.047 101.56
143 100.00 50.395 68.227 57.101 40.491 45.314
144 0.0000 21.621 100.00 20.230 10.865 95.582
145 55.772 0.0000 61.703 18.136 9.1352 33.408
146 56.195 100.00 23.920 48.505 77.943 17.722
147 40.767 100.00 100.00 59.923 81.860 107.20
148 49.819 45.224 0.0000 15.777 17.682 3.4418
149 0.0000 49.872 42.574 11.246 17.154 17.785
150 100.00 100.00 69.465 85.106 96.000 56.170
151 100.00 51.225 100.00 67.687 45.169 99.704
152 47.821 25.341 100.00 28.659 15.940 96.118
153 37.975 100.00 76.650 51.073 78.229 64.668
154 100.00 0.0000 27.477 42.927 22.491 8.6890
155 0.0000 46.897 67.045 14.875 17.109 41.516
156 100.00 0.0000 76.517 51.596 25.958 54.352
157 52.440 51.484 100.00 36.635 29.289 98.274
158 0.0000 100.00 74.778 45.682 75.511 61.662
159 25.812 100.00 0.0000 38.618 72.941 12.906
160 100.00 80.947 18.091 64.272 66.145 12.816
161 73.200 100.00 0.0000 56.613 82.220 13.749
162 63.101 100.00 51.954 55.095 80.956 35.375
163 0.0000 100.00 26.948 37.460 72.222 18.358
164 100.00 77.057 100.00 79.356 68.503 103.59
165 51.609 0.0000 100.00 28.231 12.973 95.568
166 100.00 50.505 19.121 50.119 37.757 8.3594
167 75.591 0.0000 27.098 23.779 12.622 7.6354
168 100.00 75.185 62.684 66.701 61.758 42.133
169 40.878 100.00 49.123 45.767 76.201 32.460
170 54.387 74.195 0.0000 29.549 42.521 7.5112
171 47.086 0.0000 20.978 9.3259 5.2180 4.7703
172 69.996 25.230 0.0000 21.123 14.098 2.4684
173 0.0000 40.854 100.00 23.790 17.984 96.769
174 77.743 51.259 0.0000 32.119 28.914 4.7493
175 75.064 43.622 100.00 45.900 30.474 98.015
176 0.0000 76.079 53.143 24.467 40.943 30.362
177 23.717 0.0000 30.638 4.2397 2.5124 8.2828
178 0.0000 36.564 21.437 5.5711 9.0613 5.8530
179 74.916 0.0000 76.612 32.075 15.889 53.579
180 62.186 78.239 100.00 53.280 56.071 102.57
181 100.00 84.503 45.857 69.186 71.677 27.698
182 33.712 71.463 17.199 21.853 36.350 9.0711
183 31.091 0.0000 52.408 8.4515 4.3521 23.460
184 58.925 100.00 73.923 57.946 81.861 61.008
185 19.276 100.00 40.163 40.062 73.409 25.476
186 100.00 24.430 61.115 49.480 27.866 34.711
187 21.210 100.00 100.00 55.787 79.727 107.00
188 42.608 31.352 62.798 16.332 12.387 35.387
189 100.00 31.126 41.680 47.215 28.677 17.489
190 22.833 22.414 100.00 22.068 11.957 95.696
191 91.413 64.285 24.017 48.275 44.766 11.364
192 81.708 18.394 56.337 32.814 18.318 28.662
193 82.805 79.152 0.0000 48.514 56.477 9.2061
194 71.016 18.442 78.208 31.151 16.855 56.241
195 35.838 22.884 0.0000 6.8252 6.2531 1.7072
196 26.165 76.164 73.264 31.283 44.008 54.167
197 100.00 74.514 81.362 71.271 62.996 68.026
198 73.225 20.138 100.00 40.281 20.949 96.472
199 0.0000 71.499 26.596 18.655 34.661 11.955
200 74.042 100.00 31.216 58.555 83.057 21.248
201 0.0000 25.281 69.651 10.759 7.8487 43.317
202 57.684 36.314 15.040 17.122 14.972 4.6934
203 0.0000 23.157 39.325 4.8418 5.0177 13.583
204 100.00 20.242 24.204 43.882 24.791 7.8075
205 0.0000 67.956 77.555 25.915 34.721 58.965
206 44.794 69.433 50.234 27.341 37.252 26.868
207 10.223 41.397 84.820 18.791 16.257 67.540
208 81.454 100.00 77.787 72.211 89.090 67.375
209 23.214 42.271 0.0000 8.0848 12.500 2.8468
210 27.130 47.587 100.00 28.125 23.028 97.514
211 52.090 0.0000 41.179 13.075 6.9340 14.746
212 23.008 0.0000 73.570 11.711 5.4882 48.197
213 100.00 58.926 42.065 55.311 44.785 20.439
214 48.170 0.0000 80.238 19.927 9.5023 58.596
215 50.282 59.683 85.261 33.448 32.834 70.727
216 17.166 100.00 81.903 48.800 76.876 72.771
217 59.720 72.287 20.121 31.510 41.949 10.434
218 100.00 28.778 80.903 55.281 31.245 61.996
219 36.715 100.00 24.795 41.832 74.495 17.726
220 72.840 32.399 41.648 26.606 18.406 16.569
221 20.490 74.449 100.00 38.484 45.267 101.26
222 22.010 66.719 43.452 19.708 31.477 20.735
223 84.740 100.00 54.139 69.014 88.088 38.061
224 79.001 37.723 75.498 38.605 25.465 53.428
225 77.458 0.0000 52.026 28.100 14.491 24.032
226 70.114 81.807 30.470 43.188 55.957 16.468
227 78.457 10.694 38.793 27.220 14.847 13.962
228 32.341 61.607 87.331 29.586 31.959 74.391
229 63.866 15.164 32.006 18.126 10.708 9.8013
230 56.526 45.941 74.529 27.934 23.195 52.136
231 8.7030 82.131 38.113 26.157 47.382 19.873
232 26.503 18.136 74.476 13.501 7.8321 49.854
233 91.732 85.377 8.2214 59.449 67.851 11.527
234 84.760 47.355 30.439 37.166 29.494 11.663
235 62.123 87.877 63.068 47.809 63.602 43.929
236 27.346 54.195 25.994 13.490 20.722 9.2972
237 82.099 55.622 70.793 44.894 36.860 48.649
238 32.114 15.231 43.361 7.9662 5.3242 16.238
239 74.007 58.451 39.252 34.639 33.884 17.539
240 52.009 76.204 80.569 40.653 48.630 65.586
241 73.190 36.926 20.380 25.792 19.615 6.5011
242 13.497 81.218 13.419 24.073 45.687 9.9257
243 52.949 87.443 40.441 39.446 59.308 22.970
244 5.6090 24.648 55.311 7.6991 6.5029 26.681
245 61.171 31.601 63.885 23.991 16.376 37.028
246 46.497 28.044 78.726 21.146 13.542 56.931
247 42.576 88.266 63.236 40.262 60.099 43.846
248 26.472 58.755 63.165 20.472 26.287 38.279
249 84.903 100.00 15.277 64.952 86.477 16.029
250 88.986 72.324 39.999 51.769 52.218 20.660
251 28.501 71.520 0.0000 20.334 35.662 6.6724
252 20.850 100.00 61.752 43.933 74.980 44.816
253 80.803 67.793 100.00 58.855 50.685 101.23
254 81.469 24.588 13.832 28.731 17.851 4.3879
255 90.757 54.820 7.4949 43.138 36.448 6.2383
256 16.976 100.00 17.276 37.855 72.496 15.225
257 13.709 35.482 35.273 7.1698 9.4021 11.864
258 68.351 77.624 49.783 42.117 51.415 28.432
259 20.340 26.447 4.7619 4.4751 5.7719 2.0871
260 36.728 13.747 15.675 6.5108 4.6831 3.4062
261 13.309 56.312 74.641 20.703 24.655 52.961
262 40.283 38.281 17.134 11.240 12.593 5.0284
263 44.418 14.101 67.631 15.816 8.7064 40.588
264 42.734 63.381 31.009 21.367 30.226 12.908
265 25.169 86.259 88.072 41.834 58.096 80.119
266 58.198 13.819 16.167 14.166 8.6357 3.8785
267 66.728 52.520 87.587 39.110 31.631 74.284
268 48.632 19.838 50.083 14.224 9.0876 21.991
269 59.796 68.679 36.892 31.116 38.859 17.226
270 36.886 86.589 6.4712 31.220 54.487 10.238
271 80.156 9.3308 15.655 26.459 14.557 4.2571
272 90.126 54.520 86.239 55.175 41.027 72.864
273 89.118 11.842 89.771 46.898 23.736 76.321
274 79.820 74.917 17.617 44.452 50.739 10.763
275 71.015 66.058 5.3801 33.910 38.656 6.9371
276 33.962 12.713 89.627 19.318 9.6079 74.780
277 55.554 56.547 12.627 22.152 26.574 6.1897
278 12.012 42.854 51.348 11.044 13.789 24.182
279 64.139 88.236 11.094 42.937 62.163 11.704
280 9.8968 59.261 31.023 13.779 23.716 12.058
281 2.1976 20.829 21.701 3.0258 3.8429 5.0635
282 27.873 48.468 48.900 14.310 17.957 22.685
283 55.444 30.671 37.238 16.695 12.881 13.178
284 20.677 81.398 55.828 29.527 48.134 34.080
285 17.653 12.018 60.293 8.3023 4.8060 31.517
286 53.137 24.370 3.9713 12.740 9.5895 2.3276
287 46.413 84.694 22.012 33.459 53.724 13.190
288 10.444 63.188 57.401 19.245 28.570 32.443
289 14.843 57.854 91.414 26.775 28.056 81.286
290 56.379 13.698 86.041 25.652 13.121 68.687
291 42.561 70.318 67.543 30.604 39.187 45.580
292 81.760 85.711 62.991 58.194 66.811 43.912
293 55.665 50.438 31.090 21.165 22.696 11.504
294 64.294 15.009 57.668 22.061 12.287 29.427
295 88.033 11.693 71.259 40.369 21.011 46.461
296 92.893 14.284 8.6025 36.318 20.139 3.5829
297 70.001 45.494 53.459 29.899 24.567 27.212
298 24.490 27.994 55.393 10.029 8.4494 27.015
299 24.482 80.932 29.327 26.186 46.406 14.992
300 87.225 29.618 30.120 34.800 22.024 10.196
301 38.943 50.490 73.217 22.716 22.660 50.430
302 9.2353 79.680 85.940 35.228 48.626 74.859
303 85.288 31.274 91.089 46.756 27.107 79.438
304 14.469 10.920 42.409 4.8466 3.2773 15.326
305 67.987 68.150 89.318 46.919 45.255 79.640
306 42.214 87.907 88.005 46.891 62.347 80.552
307 46.084 15.814 31.494 10.539 6.8824 9.2084
308 10.436 86.731 69.259 34.899 55.631 50.751
309 15.068 43.883 15.931 7.9226 13.022 4.9997
310 86.528 34.854 59.586 39.550 25.462 33.085
311 67.922 88.828 88.676 58.779 69.383 82.499
312 34.821 83.265 45.049 31.506 51.090 25.087
313 70.600 53.250 21.933 29.035 28.266 8.4826
314 94.013 14.675 44.298 40.105 21.813 18.418
315 87.216 64.719 56.927 49.347 45.121 33.564
316 35.541 56.074 6.9398 15.064 22.670 4.9961
317 11.887 61.028 13.479 13.538 24.806 6.4616
318 58.440 36.439 90.006 31.218 20.694 76.995
319 93.003 91.984 23.925 65.753 77.758 16.779
320 33.642 38.496 86.609 22.022 16.787 70.583
321 12.171 17.810 85.860 15.157 8.2385 67.980
322 88.255 38.153 8.3199 36.153 25.430 4.5772
323 91.515 45.320 45.447 43.636 31.727 21.015
324 82.293 88.351 40.991 56.509 69.012 24.314
325 22.364 36.929 71.522 15.049 13.176 46.642
END_DATA
CTI1   

ORIGINATOR "Argyll targen"
KEYWORD "DENSITY_EXTREME_VALUES"
DENSITY_EXTREME_VALUES "8"
CREATED "October 20, 2013"
DESCRIPTOR "Argyll Calibration Target chart information 1"

KEYWORD "INDEX"
NUMBER_OF_FIELDS 7
BEGIN_DATA_FORMAT
INDEX RGB_R RGB_G RGB_B XYZ_X XYZ_Y XYZ_Z
END_DATA_FORMAT

NUMBER_OF_SETS 8
BEGIN_DATA
0 100.00 100.00 100.00 95.106 100.00 108.84
1 0.0000 47.361 100.00 25.613 21.629 97.376
2 100.00 0.0000 79.351 52.426 26.290 58.722
3 0.0000 0.0000 58.997 6.4858 3.1940 29.894
4 100.00 66.659 0.0000 56.059 50.505 7.6561
5 0.0000 35.601 0.0000 4.6856 8.3702 2.2286
6 84.444 0.0000 0.0000 28.843 15.356 2.3047
7 0.0000 0.0000 0.0000 1.0000 1.0000 1.0000
END_DATA
CTI1   

ORIGINATOR "Argyll targen"
CREATED "October 20, 2013"
DESCRIPTOR "Argyll Calibration Target chart information 1"
KEYWORD "DEVICE_COMBINATION_VALUES"
DEVICE_COMBINATION_VALUES "9"

KEYWORD "INDEX"
NUMBER_OF_FIELDS 7
BEGIN_DATA_FORMAT
INDEX RGB_R RGB_G RGB_B XYZ_X XYZ_Y XYZ_Z
END_DATA_FORMAT

NUMBER_OF_SETS 9
BEGIN_DATA
0 100.00 100.00 100.00 95.106 100.00 108.84
1 0.0000 100.00 100.00 54.276 78.948 106.93
2 100.00 0.0000 100.00 59.701 29.199 97.042
3 0.0000 0.0000 100.00 18.871 8.1473 95.129
4 100.00 100.00 0.0000 77.235 92.853 14.715
5 0.0000 100.00 0.0000 36.405 71.801 12.802
6 100.00 0.0000 0.0000 41.830 22.052 2.9132
7 0.0000 0.0000 0.0000 1.0000 1.0000 1.0000
8 50.000 50.000 50.000 21.143 22.190 24.083
END_DATA