dispcalGUI/ref/verify_video_extended.ti1
CTI1   

ORIGINATOR "Argyll targen"
CREATED "Fri Oct 11 21:11:25 2013"
KEYWORD "COMP_GREY_STEPS"
COMP_GREY_STEPS "21"
KEYWORD "BLACK_COLOR_PATCHES"
BLACK_COLOR_PATCHES "4"
KEYWORD "APPROX_WHITE_POINT"
APPROX_WHITE_POINT "95.106486 100.000000 108.844025"
DESCRIPTOR "Argyll Calibration Target chart information 1"
KEYWORD "COLOR_REP"
COLOR_REP "RGB"

NUMBER_OF_FIELDS 7
BEGIN_DATA_FORMAT
SAMPLE_ID RGB_R RGB_G RGB_B XYZ_X XYZ_Y XYZ_Z
END_DATA_FORMAT

NUMBER_OF_SETS 89
BEGIN_DATA
1 100.000000000 100.000000000 100.000000000 95.1065000000 100.000000000 108.844000000
2 0.00000000000 0.00000000000 0.00000000000 1.00000000000 1.00000000000 1.00000000000
3 1.00000000000 1.00000000000 1.00000000000 1.07284000000 1.07663000000 1.08347000000
4 2.00000000000 2.00000000000 2.00000000000 1.14568000000 1.15325000000 1.16694000000
5 3.00000000000 3.00000000000 3.00000000000 1.21851000000 1.22988000000 1.25041000000
6 4.00000000000 4.00000000000 4.00000000000 1.29131000000 1.30645000000 1.33383000000
7 5.00000000000 5.00000000000 5.00000000000 1.37040000000 1.38966000000 1.42447000000
8 10.0000000000 10.0000000000 10.0000000000 1.94321000000 1.99226000000 2.08090000000
9 15.0000000000 15.0000000000 15.0000000000 2.84511000000 2.94106000000 3.11446000000
10 20.0000000000 20.0000000000 20.0000000000 4.11537000000 4.27737000000 4.57015000000
11 25.0000000000 25.0000000000 25.0000000000 5.78777000000 6.03673000000 6.48668000000
12 30.0000000000 30.0000000000 30.0000000000 7.89226000000 8.25066000000 8.89838000000
13 35.0000000000 35.0000000000 35.0000000000 10.4560000000 10.9477000000 11.8363000000
14 40.0000000000 40.0000000000 40.0000000000 13.5038000000 14.1540000000 15.3291000000
15 45.0000000000 45.0000000000 45.0000000000 17.0588000000 17.8938000000 19.4030000000
16 50.0000000000 50.0000000000 50.0000000000 21.1427000000 22.1901000000 24.0831000000
17 55.0000000000 55.0000000000 55.0000000000 25.7757000000 27.0641000000 29.3925000000
18 60.0000000000 60.0000000000 60.0000000000 30.9773000000 32.5361000000 35.3534000000
19 65.0000000000 65.0000000000 65.0000000000 36.7658000000 38.6256000000 41.9868000000
20 70.0000000000 70.0000000000 70.0000000000 43.1586000000 45.3509000000 49.3129000000
21 75.0000000000 75.0000000000 75.0000000000 50.1727000000 52.7296000000 57.3508000000
22 80.0000000000 80.0000000000 80.0000000000 57.8241000000 60.7789000000 66.1192000000
23 85.0000000000 85.0000000000 85.0000000000 66.1284000000 69.5150000000 75.6357000000
24 90.0000000000 90.0000000000 90.0000000000 75.1006000000 78.9538000000 85.9177000000
25 95.0000000000 95.0000000000 95.0000000000 84.7553000000 89.1105000000 96.9818000000
26 96.0000000000 96.0000000000 96.0000000000 86.7694000000 91.2293000000 99.2899000000
27 97.0000000000 97.0000000000 97.0000000000 88.8114000000 93.3776000000 101.630000000
28 98.0000000000 98.0000000000 98.0000000000 90.8815000000 95.5554000000 104.002000000
29 99.0000000000 99.0000000000 99.0000000000 92.9799000000 97.7628000000 106.407000000
30 75.0000000000 0.00000000000 0.00000000000 22.3346000000 12.0002000000 1.99970000000
31 0.00000000000 75.0000000000 0.00000000000 19.5000000000 37.9948000000 7.16671000000
32 0.00000000000 0.00000000000 75.0000000000 10.3380000000 4.73463000000 50.1844000000
33 75.0000000000 75.0000000000 0.00000000000 40.8346000000 48.9950000000 8.16642000000
34 0.00000000000 75.0000000000 75.0000000000 28.8380000000 41.7294000000 56.3511000000
35 75.0000000000 0.00000000000 75.0000000000 31.6727000000 15.7348000000 51.1841000000
36 49.4578000000 49.4578000000 49.4578000000 20.2063066795 21.2596207123 23.1527961651
37 66.6613000000 43.3789000000 43.3789000000 25.4759600309 21.2596207123 17.8354981697
38 79.6847000000 36.0631000000 36.0631000000 30.7378482715 21.2596207123 12.5260354921
39 90.5351000000 26.3049000000 26.3049000000 35.9919885521 21.2596207123 7.22439082624
40 100.000000000 0.00000000000 0.00000000000 41.2383979730 21.2596207123 1.93054691728
41 85.8632000000 85.8632000000 85.8632000000 67.9764717203 71.5199481556 77.8888204920
42 69.1860000000 91.5170000000 69.1860000000 55.7951444189 71.5199481556 52.9478124652
43 53.5567000000 95.2807000000 53.5567000000 47.1673405487 71.5199481556 35.2825679269
44 36.7321000000 97.9742000000 36.7321000000 40.7360481906 71.5199481556 22.1146338950
45 0.00000000000 100.000000000 0.00000000000 35.7571844875 71.5199481556 11.9205165784
46 30.2678000000 30.2678000000 30.2678000000 6.86269279158 7.22043113213 7.86341263981
47 29.4663000000 29.4663000000 38.9007000000 7.50387265569 7.22043113213 12.8606279680
48 28.0476000000 28.0476000000 49.7455000000 8.58841701867 7.22043113213 21.3133290245
49 24.8196000000 24.8196000000 65.9505000000 10.8192097777 7.22043113213 38.6996388474
50 0.00000000000 0.00000000000 100.000000000 18.0498887309 7.22043113213 95.0539658012
51 96.6497000000 96.6497000000 96.6497000000 88.1827783998 92.7795688679 101.041616657
52 97.7995000000 97.7995000000 80.0881000000 84.3949293461 92.7795688679 71.5199513462
53 98.6950000000 98.6950000000 63.3068000000 81.4073721996 92.7795688679 48.2355857542
54 99.4124000000 99.4124000000 44.1305000000 78.9907130133 92.7795688679 29.4006737353
55 100.000000000 100.000000000 0.00000000000 76.9955824605 92.7795688679 13.8510634957
56 89.7016000000 89.7016000000 89.7016000000 74.8391645119 78.7403792877 85.7522331318
57 78.7098000000 92.4042000000 92.4042000000 69.5842730928 78.7403792877 91.0546357274
58 65.4634000000 95.0162000000 95.0162000000 64.3272948999 78.7403792877 96.3591439641
59 47.7702000000 97.5458000000 97.5458000000 59.0682286898 78.7403792877 101.665759096
60 0.00000000000 100.000000000 100.000000000 53.8070732184 78.7403792877 106.974482380
61 56.4906000000 56.4906000000 56.4906000000 27.0689994711 28.4800518444 31.0162088049
62 64.5145000000 52.8832000000 64.5145000000 31.4213205297 28.4800518444 39.9274934106
63 73.8217000000 47.4341000000 73.8217000000 37.3487075449 28.4800518444 52.0636919927
64 85.1775000000 37.8990000000 85.1775000000 45.8950512241 28.4800518444 69.5621485262
65 100.000000000 0.00000000000 100.000000000 59.2882867039 28.4800518444 96.9845127185
66 45.0435160000 32.0937180000 27.1265780000 11.5218133036 10.0824485551 5.08890950613
67 77.3399000000 57.1984890000 50.0625130000 39.1757873662 34.9503608319 19.2203201483
68 35.6775530000 47.6521800000 60.5266190000 16.8064019801 18.3601091845 25.7106808483
69 35.3502000000 42.0682320000 26.0421380000 10.9068746656 13.2516510994 5.29035871058
70 50.3949040000 49.7985490000 68.4589720000 24.1896687609 23.0365833874 33.4292642726
71 36.3549470000 73.9116600000 66.8661300000 30.4228132482 41.7814819468 34.6040368503
72 87.5979660000 48.1753170000 19.7020470000 40.7168115237 31.1808434320 4.99187420721
73 27.3136520000 35.9104800000 66.1437520000 12.3257961291 11.2630327202 29.8660860980
74 77.2407750000 32.4698030000 38.0853210000 29.6669419684 19.3723307721 10.1494350566
75 36.8106200000 23.7409010000 41.2942660000 8.51707877747 6.37107815876 10.7724737001
76 61.6711530000 73.5395210000 25.4748720000 35.3579416802 44.4526263426 8.94653795410
77 90.0702850000 62.7993510000 17.0842330000 48.7813083423 43.5697849302 6.05943387003
78 15.7304090000 25.6609890000 57.1572140000 6.86134127101 5.75278707563 21.3753061054
79 26.9592270000 57.8578840000 29.5921230000 14.9836785174 23.1826717716 7.89699135571
80 69.9621990000 20.4140220000 23.3651430000 21.6305590748 12.5647667109 3.84583399478
81 93.2377570000 77.2939330000 10.3788820000 59.3352296328 59.8011765625 7.19098478639
82 75.1577000000 33.2299060000 58.4985710000 31.0822118893 20.0910511773 23.5584709498
83 0.00000000000 52.9473710000 65.9591040000 13.6099766879 19.3031439419 30.9345542305
84 95.9260530000 96.0407390000 95.0146810000 87.8129265637 91.3159758923 73.9491134094
85 78.0494700000 78.7944300000 78.8752780000 56.5725057000 58.9425374385 48.9180486953
86 62.4438470000 63.2754630000 63.4392470000 34.8131560134 36.3282851601 30.2832942372
87 47.0073960000 47.2057250000 47.3424490000 18.4420381221 19.1566692914 15.9136171484
88 32.6538490000 33.2702460000 33.8919900000 8.46830659438 8.83261372289 7.59206017287
89 20.3991380000 20.6478970000 21.1250780000 2.98937053412 3.10510310335 2.68181046078
END_DATA
CTI1   

ORIGINATOR "Argyll targen"
KEYWORD "DENSITY_EXTREME_VALUES"
DENSITY_EXTREME_VALUES "8"
CREATED "October 11, 2013"
DESCRIPTOR "Argyll Calibration Target chart information 1"

KEYWORD "INDEX"
NUMBER_OF_FIELDS 7
BEGIN_DATA_FORMAT
INDEX RGB_R RGB_G RGB_B XYZ_X XYZ_Y XYZ_Z
END_DATA_FORMAT

NUMBER_OF_SETS 8
BEGIN_DATA
0 100.000 100.000 100.000 95.1065 100.000 108.844
1 0.00000 47.3607 100.000 25.6130 21.6292 97.3763
2 100.000 0.00000 79.3514 52.4258 26.2898 58.7215
3 0.00000 0.00000 58.9971 6.48583 3.19399 29.8944
4 100.000 66.6593 0.00000 56.0588 50.5054 7.65614
5 0.00000 35.6011 0.00000 4.68562 8.37021 2.22855
6 84.4444 0.00000 0.00000 28.8428 15.3558 2.30466
7 0.00000 0.00000 0.00000 1.00000 1.00000 1.00000
END_DATA
CTI1   

ORIGINATOR "Argyll targen"
CREATED "October 11, 2013"
DESCRIPTOR "Argyll Calibration Target chart information 1"
KEYWORD "DEVICE_COMBINATION_VALUES"
DEVICE_COMBINATION_VALUES "9"

KEYWORD "INDEX"
NUMBER_OF_FIELDS 7
BEGIN_DATA_FORMAT
INDEX RGB_R RGB_G RGB_B XYZ_X XYZ_Y XYZ_Z
END_DATA_FORMAT

NUMBER_OF_SETS 9
BEGIN_DATA
0 100.000 100.000 100.000 95.1065 100.000 108.844
1 0.00000 100.000 100.000 54.2763 78.9478 106.931
2 100.000 0.00000 100.000 59.7013 29.1995 97.0422
3 0.00000 0.00000 100.000 18.8711 8.14731 95.1290
4 100.000 100.000 0.00000 77.2354 92.8527 14.7151
5 0.00000 100.000 0.00000 36.4052 71.8005 12.8018
6 100.000 0.00000 0.00000 41.8302 22.0522 2.91323
7 0.00000 0.00000 0.00000 1.00000 1.00000 1.00000
8 50.0000 50.0000 50.0000 21.1427 22.1901 24.0831
END_DATA