dispcalGUI/ref/verify_video_xl.ti1
CTI1   

ORIGINATOR "Argyll targen"
KEYWORD "OFPS_PATCHES"
OFPS_PATCHES "200"
CREATED "Mon Jan 13 22:06:17 2014"
KEYWORD "COMP_GREY_STEPS"
COMP_GREY_STEPS "21"
KEYWORD "BLACK_COLOR_PATCHES"
BLACK_COLOR_PATCHES "1"
KEYWORD "APPROX_WHITE_POINT"
APPROX_WHITE_POINT "95.045684 99.999971 108.903720"
DESCRIPTOR "Argyll Calibration Target chart information 1"
KEYWORD "MULTI_DIM_STEPS"
MULTI_DIM_STEPS "2"
KEYWORD "DARK_REGION_EMPHASIS"
DARK_REGION_EMPHASIS "1.6"
KEYWORD "ACCURATE_EXPECTED_VALUES"
ACCURATE_EXPECTED_VALUES "true"
KEYWORD "WHITE_COLOR_PATCHES"
WHITE_COLOR_PATCHES "1"
KEYWORD "COLOR_REP"
COLOR_REP "RGB"

NUMBER_OF_FIELDS 7
BEGIN_DATA_FORMAT
SAMPLE_ID RGB_R RGB_G RGB_B XYZ_X XYZ_Y XYZ_Z
END_DATA_FORMAT

NUMBER_OF_SETS 493
BEGIN_DATA
1 100.00 100.00 100.00 95.046 100.00 108.90
2 0.0000 0.0000 0.0000 1.0000 1.0000 1.0000
3 1.0000 1.0000 1.0000 0.2109 0.2219 0.2417
4 2.0000 2.0000 2.0000 0.4227 0.4447 0.4843
5 3.0000 3.0000 3.0000 0.6333 0.6663 0.7256
6 4.0000 4.0000 4.0000 0.8452 0.8893 0.9685
7 5.0000 5.0000 5.0000 1.0560 1.1110 1.2099
8 10.000 10.000 10.000 2.1317 2.2428 2.4425
9 15.000 15.000 15.000 3.5075 3.6903 4.0189
10 20.000 20.000 20.000 5.2684 5.5430 6.0365
11 25.000 25.000 25.000 7.4285 7.8157 8.5116
12 30.000 30.000 30.000 10.002 10.523 11.460
13 35.000 35.000 35.000 13.002 13.680 14.898
14 40.000 40.000 40.000 16.442 17.299 18.839
15 45.000 45.000 45.000 20.328 21.388 23.292
16 50.000 50.000 50.000 24.673 25.959 28.270
17 55.000 55.000 55.000 29.485 31.022 33.784
18 60.000 60.000 60.000 34.771 36.584 39.841
19 65.000 65.000 65.000 40.542 42.655 46.453
20 70.000 70.000 70.000 46.802 49.242 53.626
21 75.000 75.000 75.000 53.560 56.352 61.370
22 80.000 80.000 80.000 60.823 63.994 69.692
23 85.000 85.000 85.000 68.597 72.173 78.599
24 90.000 90.000 90.000 76.889 80.896 88.099
25 95.000 95.000 95.000 85.702 90.170 98.198
26 96.000 96.000 96.000 87.529 92.091 100.29
27 97.000 97.000 97.000 89.376 94.035 102.41
28 98.000 98.000 98.000 91.245 96.001 104.55
29 99.000 99.000 99.000 93.135 97.990 106.71
30 5.0000 0.0000 0.0000 0.4582 0.2362 0.0215
31 10.000 0.0000 0.0000 0.9249 0.4769 0.0433
32 15.000 0.0000 0.0000 1.5218 0.7847 0.0713
33 20.000 0.0000 0.0000 2.2858 1.1787 0.1071
34 25.000 0.0000 0.0000 3.2231 1.6620 0.1510
35 30.000 0.0000 0.0000 4.3396 2.2377 0.2034
36 35.000 0.0000 0.0000 5.6414 2.9090 0.2644
37 40.000 0.0000 0.0000 7.1338 3.6785 0.3343
38 45.000 0.0000 0.0000 8.8201 4.5480 0.4133
39 50.000 0.0000 0.0000 10.705 5.5199 0.5017
40 55.000 0.0000 0.0000 12.793 6.5966 0.5995
41 60.000 0.0000 0.0000 15.087 7.7793 0.7070
42 65.000 0.0000 0.0000 17.590 9.0703 0.8243
43 70.000 0.0000 0.0000 20.307 10.471 0.9516
44 75.000 0.0000 0.0000 23.239 11.983 1.0890
45 80.000 0.0000 0.0000 26.390 13.608 1.2367
46 85.000 0.0000 0.0000 29.763 15.347 1.3947
47 90.000 0.0000 0.0000 33.361 17.202 1.5633
48 95.000 0.0000 0.0000 37.185 19.174 1.7425
49 0.0000 5.0000 0.0000 0.3973 0.7946 0.1324
50 0.0000 10.000 0.0000 0.8020 1.6040 0.2673
51 0.0000 15.000 0.0000 1.3196 2.6392 0.4398
52 0.0000 20.000 0.0000 1.9821 3.9642 0.6606
53 0.0000 25.000 0.0000 2.7948 5.5895 0.9315
54 0.0000 30.000 0.0000 3.7629 7.5258 1.2542
55 0.0000 35.000 0.0000 4.8918 9.7835 1.6305
56 0.0000 40.000 0.0000 6.1859 12.372 2.0618
57 0.0000 45.000 0.0000 7.6481 15.296 2.5492
58 0.0000 50.000 0.0000 9.2825 18.565 3.0939
59 0.0000 55.000 0.0000 11.093 22.186 3.6974
60 0.0000 60.000 0.0000 13.082 26.163 4.3603
61 0.0000 65.000 0.0000 15.253 30.506 5.0839
62 0.0000 70.000 0.0000 17.608 35.216 5.8690
63 0.0000 75.000 0.0000 20.151 40.301 6.7164
64 0.0000 80.000 0.0000 22.883 45.766 7.6272
65 0.0000 85.000 0.0000 25.808 51.616 8.6020
66 0.0000 90.000 0.0000 28.928 57.855 9.6417
67 0.0000 95.000 0.0000 32.243 64.486 10.747
68 0.0000 0.0000 5.0000 0.2005 0.0802 1.0560
69 0.0000 0.0000 10.000 0.4048 0.1619 2.1318
70 0.0000 0.0000 15.000 0.6660 0.2664 3.5077
71 0.0000 0.0000 20.000 1.0004 0.4001 5.2688
72 0.0000 0.0000 25.000 1.4106 0.5642 7.4290
73 0.0000 0.0000 30.000 1.8993 0.7597 10.002
74 0.0000 0.0000 35.000 2.4690 0.9876 13.003
75 0.0000 0.0000 40.000 3.1222 1.2488 16.443
76 0.0000 0.0000 45.000 3.8602 1.5440 20.330
77 0.0000 0.0000 50.000 4.6851 1.8739 24.674
78 0.0000 0.0000 55.000 5.5990 2.2395 29.487
79 0.0000 0.0000 60.000 6.6028 2.6410 34.774
80 0.0000 0.0000 65.000 7.6986 3.0792 40.545
81 0.0000 0.0000 70.000 8.8874 3.5547 46.806
82 0.0000 0.0000 75.000 10.171 4.0680 53.564
83 0.0000 0.0000 80.000 11.550 4.6197 60.828
84 0.0000 0.0000 85.000 13.026 5.2101 68.602
85 0.0000 0.0000 90.000 14.601 5.8399 76.894
86 0.0000 0.0000 95.000 16.274 6.5093 85.709
87 5.0000 5.0000 0.0000 0.8554 1.0308 0.1539
88 10.000 10.000 0.0000 1.7269 2.0809 0.3106
89 15.000 15.000 0.0000 2.8414 3.4239 0.5111
90 20.000 20.000 0.0000 4.2679 5.1429 0.7678
91 25.000 25.000 0.0000 6.0179 7.2515 1.0826
92 30.000 30.000 0.0000 8.1025 9.7634 1.4576
93 35.000 35.000 0.0000 10.533 12.693 1.8948
94 40.000 40.000 0.0000 13.320 16.050 2.3961
95 45.000 45.000 0.0000 16.468 19.844 2.9625
96 50.000 50.000 0.0000 19.987 24.085 3.5956
97 55.000 55.000 0.0000 23.886 28.782 4.2969
98 60.000 60.000 0.0000 28.169 33.943 5.0673
99 65.000 65.000 0.0000 32.843 39.576 5.9082
100 70.000 70.000 0.0000 37.915 45.687 6.8206
101 75.000 75.000 0.0000 43.390 52.284 7.8054
102 80.000 80.000 0.0000 49.273 59.374 8.8639
103 85.000 85.000 0.0000 55.571 66.963 9.9967
104 90.000 90.000 0.0000 62.288 75.057 11.205
105 95.000 95.000 0.0000 69.428 83.660 12.489
106 0.0000 5.0000 5.0000 0.5978 0.8748 1.1885
107 0.0000 10.000 10.000 1.2068 1.7659 2.3991
108 0.0000 15.000 15.000 1.9857 2.9056 3.9476
109 0.0000 20.000 20.000 2.9825 4.3643 5.9294
110 0.0000 25.000 25.000 4.2054 6.1537 8.3605
111 0.0000 30.000 30.000 5.6622 8.2854 11.257
112 0.0000 35.000 35.000 7.3608 10.771 14.634
113 0.0000 40.000 40.000 9.3080 13.620 18.505
114 0.0000 45.000 45.000 11.508 16.840 22.879
115 0.0000 50.000 50.000 13.968 20.439 27.768
116 0.0000 55.000 55.000 16.692 24.425 33.184
117 0.0000 60.000 60.000 19.685 28.805 39.134
118 0.0000 65.000 65.000 22.951 33.585 45.629
119 0.0000 70.000 70.000 26.496 38.771 52.675
120 0.0000 75.000 75.000 30.322 44.369 60.281
121 0.0000 80.000 80.000 34.433 50.386 68.455
122 0.0000 85.000 85.000 38.834 56.826 77.204
123 0.0000 90.000 90.000 43.528 63.694 86.536
124 0.0000 95.000 95.000 48.518 70.996 96.456
125 5.0000 0.0000 5.0000 0.6587 0.3165 1.0775
126 10.000 0.0000 10.000 1.3297 0.6388 2.1751
127 15.000 0.0000 15.000 2.1879 1.0511 3.5791
128 20.000 0.0000 20.000 3.2863 1.5788 5.3759
129 25.000 0.0000 25.000 4.6337 2.2262 7.5800
130 30.000 0.0000 30.000 6.2388 2.9973 10.206
131 35.000 0.0000 35.000 8.1105 3.8965 13.268
132 40.000 0.0000 40.000 10.256 4.9273 16.777
133 45.000 0.0000 45.000 12.680 6.0920 20.743
134 50.000 0.0000 50.000 15.390 7.3939 25.176
135 55.000 0.0000 55.000 18.392 8.8360 30.087
136 60.000 0.0000 60.000 21.689 10.420 35.481
137 65.000 0.0000 65.000 25.289 12.149 41.369
138 70.000 0.0000 70.000 29.194 14.026 47.757
139 75.000 0.0000 75.000 33.410 16.051 54.653
140 80.000 0.0000 80.000 37.940 18.227 62.065
141 85.000 0.0000 85.000 42.789 20.557 69.997
142 90.000 0.0000 90.000 47.961 23.042 78.457
143 95.000 0.0000 95.000 53.459 25.683 87.451
144 44.857 44.857 44.857 20.211 21.264 23.158
145 49.219 43.604 43.604 21.265 21.264 22.093
146 53.218 42.313 42.313 22.319 21.264 21.029
147 56.927 40.985 40.985 23.373 21.264 19.966
148 60.400 39.612 39.612 24.426 21.264 18.902
149 63.673 38.191 38.191 25.480 21.264 17.839
150 66.777 36.718 36.718 26.532 21.264 16.776
151 69.733 35.187 35.187 27.585 21.264 15.714
152 72.560 33.587 33.587 28.637 21.264 14.652
153 75.272 31.916 31.916 29.689 21.264 13.590
154 77.882 30.157 30.157 30.740 21.264 12.529
155 80.400 28.299 28.299 31.792 21.264 11.468
156 82.834 26.325 26.325 32.843 21.264 10.407
157 85.192 24.210 24.210 33.893 21.264 9.3465
158 87.479 21.922 21.922 34.943 21.264 8.2864
159 89.702 19.413 19.413 35.993 21.264 7.2266
160 91.865 16.610 16.610 37.043 21.264 6.1671
161 93.974 13.391 13.391 38.092 21.264 5.1080
162 96.029 9.5046 9.5046 39.141 21.264 4.0491
163 98.038 4.7686 4.7686 40.190 21.264 2.9906
164 100.00 0.0000 0.0000 41.238 21.264 1.9325
165 84.611 84.611 84.611 67.974 71.517 77.885
166 80.792 86.081 80.792 65.152 71.517 72.108
167 77.080 87.414 77.080 62.546 71.517 66.771
168 73.459 88.630 73.459 60.130 71.517 61.824
169 69.912 89.744 69.912 57.885 71.517 57.228
170 66.425 90.768 66.425 55.794 71.517 52.945
171 62.982 91.714 62.982 53.841 71.517 48.945
172 59.568 92.589 59.568 52.012 71.517 45.202
173 56.168 93.402 56.168 50.297 71.517 41.690
174 52.765 94.159 52.765 48.685 71.517 38.389
175 49.339 94.865 49.339 47.167 71.517 35.280
176 45.870 95.526 45.870 45.735 71.517 32.348
177 42.329 96.147 42.329 44.382 71.517 29.578
178 38.686 96.730 38.686 43.102 71.517 26.956
179 34.894 97.278 34.894 41.889 71.517 24.471
180 30.889 97.796 30.889 40.737 71.517 22.113
181 26.578 98.286 26.578 39.642 71.517 19.871
182 21.795 98.748 21.795 38.601 71.517 17.739
183 16.225 99.188 16.225 37.609 71.517 15.707
184 9.0236 99.604 9.0236 36.662 71.517 13.769
185 0.0000 100.00 0.0000 35.759 71.517 11.919
186 23.776 23.776 23.776 6.8614 7.2191 7.8619
187 23.631 23.631 25.568 6.9677 7.2191 8.6908
188 23.474 23.474 27.403 7.0836 7.2191 9.5936
189 23.299 23.299 29.290 7.2102 7.2191 10.580
190 23.108 23.108 31.241 7.3492 7.2191 11.664
191 22.893 22.893 33.269 7.5025 7.2191 12.858
192 22.655 22.655 35.388 7.6724 7.2191 14.183
193 22.385 22.385 37.615 7.8617 7.2191 15.658
194 22.082 22.082 39.971 8.0741 7.2191 17.313
195 21.732 21.732 42.478 8.3139 7.2191 19.182
196 21.329 21.329 45.163 8.5869 7.2191 21.310
197 20.860 20.860 48.063 8.9004 7.2191 23.754
198 20.303 20.303 51.219 9.2643 7.2191 26.590
199 19.633 19.633 54.689 9.6917 7.2191 29.921
200 18.811 18.811 58.546 10.201 7.2191 33.889
201 17.770 17.770 62.889 10.818 7.2191 38.695
202 16.416 16.416 67.856 11.580 7.2191 44.638
203 14.568 14.568 73.644 12.547 7.2191 52.174
204 11.851 11.851 80.553 13.813 7.2191 62.043
205 7.2766 7.2766 89.063 15.543 7.2191 75.526
206 0.0000 0.0000 100.00 18.049 7.2191 95.054
207 96.356 96.356 96.356 88.184 92.781 101.04
208 96.634 96.634 92.704 87.347 92.781 94.523
209 96.897 96.897 89.083 86.553 92.781 88.333
210 97.146 97.146 85.486 85.799 92.781 82.451
211 97.382 97.382 81.902 85.080 92.781 76.854
212 97.606 97.606 78.320 84.396 92.781 71.521
213 97.821 97.821 74.729 83.743 92.781 66.434
214 98.024 98.024 71.117 83.120 92.781 61.577
215 98.218 98.218 67.471 82.525 92.781 56.934
216 98.404 98.404 63.772 81.955 92.781 52.491
217 98.581 98.581 60.005 81.409 92.781 48.236
218 98.750 98.750 56.143 80.885 92.781 44.157
219 98.912 98.912 52.159 80.383 92.781 40.244
220 99.068 99.068 48.015 79.901 92.781 36.486
221 99.218 99.218 43.657 79.438 92.781 32.874
222 99.361 99.361 39.013 78.992 92.781 29.401
223 99.499 99.499 33.964 78.563 92.781 26.058
224 99.631 99.631 28.317 78.150 92.781 22.838
225 99.759 99.759 21.682 77.752 92.781 19.734
226 99.881 99.881 13.036 77.367 92.781 16.740
227 100.00 100.00 0.0000 76.997 92.781 13.851
228 88.791 88.791 88.791 74.835 78.736 85.747
229 86.540 89.387 89.387 73.784 78.736 86.808
230 84.224 89.980 89.980 72.734 78.736 87.868
231 81.835 90.569 90.569 71.683 78.736 88.929
232 79.368 91.153 91.153 70.632 78.736 89.990
233 76.814 91.734 91.734 69.581 78.736 91.050
234 74.166 92.310 92.310 68.530 78.736 92.111
235 71.410 92.882 92.882 67.479 78.736 93.172
236 68.534 93.451 93.451 66.428 78.736 94.233
237 65.524 94.016 94.016 65.377 78.736 95.294
238 62.359 94.577 94.577 64.325 78.736 96.356
239 59.014 95.134 95.134 63.274 78.736 97.417
240 55.458 95.689 95.689 62.223 78.736 98.478
241 51.647 96.239 96.239 61.171 78.736 99.540
242 47.524 96.786 96.786 60.119 78.736 100.60
243 43.001 97.330 97.330 59.068 78.736 101.66
244 37.948 97.870 97.870 58.016 78.736 102.72
245 32.139 98.408 98.408 56.964 78.736 103.79
246 25.128 98.941 98.941 55.912 78.736 104.85
247 15.742 99.472 99.472 54.860 78.736 105.91
248 0.0000 100.00 100.00 53.807 78.736 106.97
249 52.554 52.554 52.554 27.072 28.483 31.020
250 54.225 51.873 54.225 27.847 28.483 32.607
251 55.934 51.144 55.934 28.666 28.483 34.284
252 57.685 50.361 57.685 29.532 28.483 36.058
253 59.481 49.517 59.481 30.450 28.483 37.937
254 61.327 48.605 61.327 31.424 28.483 39.931
255 63.228 47.616 63.228 32.460 28.483 42.052
256 65.188 46.541 65.188 33.563 28.483 44.311
257 67.213 45.362 67.213 34.740 28.483 46.722
258 69.311 44.068 69.311 36.000 28.483 49.302
259 71.488 42.636 71.488 37.351 28.483 52.068
260 73.751 41.042 73.751 38.803 28.483 55.042
261 76.110 39.251 76.110 40.369 28.483 58.248
262 78.574 37.220 78.574 42.062 28.483 61.715
263 81.156 34.890 81.156 43.898 28.483 65.474
264 83.868 32.173 83.868 45.896 28.483 69.566
265 86.724 28.935 86.724 48.079 28.483 74.036
266 89.743 24.953 89.743 50.474 28.483 78.940
267 92.945 19.798 92.945 53.112 28.483 84.343
268 96.355 12.357 96.355 56.034 28.483 90.325
269 100.00 0.0000 100.00 59.287 28.483 96.986
270 40.014 25.786 20.317 11.099 9.9635 6.7068
271 75.324 53.324 45.514 37.843 34.593 25.342
272 29.729 42.874 56.966 17.263 18.608 34.043
273 29.370 36.749 19.123 10.451 13.186 6.9022
274 45.878 45.225 65.633 24.698 23.284 44.310
275 30.467 71.586 63.893 30.296 42.064 45.565
276 86.504 43.440 12.117 38.502 30.443 6.5044
277 20.525 29.989 63.105 13.408 11.655 39.664
278 75.217 26.193 32.376 28.543 18.938 13.474
279 30.976 16.581 35.901 8.6732 6.4200 14.309
280 58.214 71.178 18.499 33.326 44.081 11.428
281 89.196 59.446 9.2210 45.989 42.749 7.7700
282 7.7021 18.704 53.282 7.7766 6.0657 28.411
283 20.128 54.049 23.036 14.282 23.155 10.217
284 67.276 12.896 16.166 20.622 12.158 5.1263
285 92.643 75.270 3.0853 55.771 58.867 9.0726
286 72.946 27.032 54.748 30.727 19.906 31.320
287 0.0000 48.676 62.903 14.518 19.761 40.936
288 95.568 95.693 94.577 86.481 91.294 97.612
289 76.096 76.909 76.998 55.793 58.956 64.583
290 59.061 59.970 60.149 34.343 36.341 39.981
291 42.165 42.383 42.534 18.187 19.160 21.010
292 26.405 27.083 27.768 8.3684 8.8404 10.026
293 12.892 13.165 13.693 2.9545 3.1078 3.5418
294 76.553 26.113 0.0000 27.190 18.468 2.1325
295 79.787 34.093 45.206 34.819 24.444 23.288
296 100.00 41.707 48.805 52.384 36.388 27.748
297 100.00 62.158 100.00 73.284 56.476 101.65
298 0.0000 9.0970 16.146 1.4596 1.7414 4.1180
299 9.5810 8.2809 19.304 2.4880 2.1472 5.2603
300 6.5916 5.6661 27.338 2.6838 1.8640 8.7589
301 59.629 49.098 63.092 31.154 28.545 41.975
302 61.087 63.708 66.605 38.357 40.627 48.122
303 76.113 68.043 66.156 48.550 48.848 48.623
304 69.726 26.339 24.899 24.592 17.029 9.3383
305 84.526 45.775 41.486 40.656 32.290 21.560
306 94.191 64.568 60.538 58.325 51.648 42.102
307 100.00 63.984 71.908 65.401 54.604 56.190
308 12.140 0.0000 14.551 1.8004 0.8544 3.4237
309 0.0000 0.0000 15.604 0.7025 0.2810 3.6998
310 15.530 32.053 41.667 9.1604 10.580 19.165
311 18.071 45.124 46.659 13.782 18.039 24.375
312 19.249 83.130 54.230 32.304 52.677 37.046
313 26.082 62.331 33.125 19.766 30.819 16.679
314 46.240 80.225 49.609 36.897 52.647 32.422
315 55.316 89.238 69.232 50.069 67.025 55.896
316 0.0000 39.306 20.509 7.0344 12.407 7.4678
317 0.0000 70.516 35.262 20.363 36.724 19.126
318 0.0000 100.00 41.886 39.149 72.873 29.774
319 59.018 51.977 12.583 25.128 27.706 6.8068
320 85.632 73.980 11.249 50.286 54.994 10.394
321 69.827 53.168 0.0000 30.617 31.238 4.4163
322 69.274 78.644 0.0000 42.022 54.507 8.3064
323 72.908 100.00 56.690 63.672 85.224 44.169
324 0.0000 13.139 41.303 4.4167 3.5435 17.782
325 51.734 16.273 71.687 22.191 12.554 50.056
326 74.463 36.065 81.927 40.175 26.965 66.554
327 78.550 67.811 83.442 54.563 51.254 72.833
328 63.950 40.446 50.693 28.163 23.331 28.215
329 63.963 76.284 67.735 46.225 53.796 51.652
330 76.994 100.00 82.377 72.468 89.030 77.525
331 24.798 0.0000 14.050 3.7926 1.8850 3.3670
332 47.101 11.773 13.930 11.162 7.1247 3.9548
333 85.439 15.130 19.977 32.404 18.576 7.1140
334 72.815 0.0000 0.0000 21.931 11.309 1.0277
335 100.00 33.693 19.911 46.813 30.824 8.6936
336 15.159 35.213 17.388 7.3038 11.009 6.0193
337 19.355 57.124 14.647 14.739 25.212 7.4729
338 17.293 80.452 28.582 26.744 47.935 17.030
339 55.094 85.255 38.731 41.745 59.721 24.782
340 73.560 86.039 61.601 55.755 67.193 46.430
341 43.616 41.742 31.787 17.103 18.486 13.642
342 58.923 51.513 31.035 26.397 27.942 14.542
343 84.019 77.770 33.058 52.963 59.174 20.363
344 100.00 100.00 59.980 83.596 95.420 48.602
345 12.070 0.0000 0.0000 1.1525 0.5943 0.0540
346 8.1071 7.3630 8.1585 1.6522 1.6829 1.9477
347 11.508 25.400 52.390 9.0651 8.3376 27.923
348 18.080 39.254 58.254 14.196 15.478 34.960
349 69.340 49.749 77.658 40.024 33.029 61.362
350 0.0000 10.211 0.0000 0.8208 1.6417 0.2736
351 0.0000 20.042 0.0000 1.9882 3.9762 0.6627
352 0.0000 72.040 0.0000 18.623 37.245 6.2072
353 56.655 100.00 0.0000 49.288 78.493 12.553
354 76.305 100.00 25.614 61.265 84.499 20.767
355 100.00 100.00 32.307 79.149 93.642 25.184
356 39.777 57.160 14.563 19.633 27.758 7.6802
357 39.406 100.00 27.735 44.373 75.766 21.029
358 41.242 100.00 59.600 49.812 78.009 46.605
359 0.0000 16.891 13.464 2.1313 3.3374 3.5630
360 13.209 17.134 8.1096 3.1983 3.9633 2.2965
361 28.219 15.583 7.9632 5.6298 4.9281 2.3285
362 36.759 13.632 0.0000 7.3086 5.4963 0.6759
363 13.628 9.5487 0.0000 2.1040 2.2163 0.3169
364 10.066 17.614 20.152 3.5909 4.1802 5.9205
365 0.0000 30.449 31.622 5.9333 8.5462 12.215
366 21.979 63.421 61.189 24.038 33.196 41.075
367 20.625 84.221 80.404 39.398 56.578 69.995
368 30.520 85.433 100.00 48.586 61.663 103.95
369 0.0000 76.917 63.668 28.574 45.311 46.017
370 0.0000 100.00 73.577 45.554 75.435 63.507
371 48.000 100.00 100.00 63.734 83.854 107.44
372 13.502 26.798 7.4012 4.7478 7.0522 2.6672
373 35.727 74.454 0.0000 25.711 42.742 6.8948
374 42.167 79.986 20.599 31.761 50.211 13.497
375 62.144 78.823 20.099 39.364 53.167 13.470
376 13.991 11.163 43.937 5.9943 4.0137 19.834
377 32.078 8.5696 89.019 19.822 9.5772 75.680
378 52.991 0.0000 100.00 29.978 13.370 95.612
379 73.613 22.480 100.00 42.818 23.503 96.891
380 29.549 21.239 61.492 13.321 9.2882 37.366
381 50.171 33.346 62.965 22.515 17.453 40.142
382 51.623 53.836 77.743 32.931 31.535 61.571
383 60.661 64.779 100.00 48.607 45.469 100.83
384 82.388 68.294 100.00 62.805 55.210 101.96
385 100.00 83.779 100.00 84.363 78.635 105.34
386 0.0000 0.0000 37.970 2.8469 1.1387 14.993
387 0.0000 0.0000 67.043 8.1729 3.2689 43.043
388 0.0000 38.676 69.725 14.646 15.181 48.390
389 18.119 57.437 67.184 22.224 28.382 47.324
390 29.795 57.993 81.990 28.678 31.586 68.148
391 30.694 43.411 74.565 21.730 20.677 55.556
392 34.529 54.270 100.00 34.377 31.695 98.916
393 38.225 27.423 100.00 27.875 17.101 96.442
394 37.300 13.996 46.723 11.643 7.3137 22.471
395 42.745 31.810 46.925 16.355 14.116 23.709
396 54.687 47.286 47.179 25.238 24.957 25.551
397 62.000 62.235 48.313 34.489 38.100 28.585
398 47.548 26.031 14.495 13.373 11.248 4.8027
399 82.208 40.425 22.354 35.339 27.442 9.6409
400 89.221 51.259 78.626 53.668 40.813 63.557
401 90.706 80.845 85.777 70.515 69.507 79.233
402 22.964 7.3780 8.8810 3.7625 2.7693 2.2027
403 44.884 51.505 0.0000 18.587 24.144 3.6806
404 44.546 56.337 49.996 24.950 29.552 28.945
405 51.507 68.817 72.499 37.864 43.707 56.329
406 54.987 85.375 80.099 50.401 63.294 70.254
407 32.396 18.473 30.308 8.6362 6.8476 10.995
408 47.991 29.547 33.126 15.838 13.353 13.516
409 58.784 39.326 31.959 22.624 20.330 13.807
410 79.880 58.713 31.879 40.968 39.514 16.496
411 100.00 59.770 39.676 57.302 48.468 22.467
412 59.760 17.766 7.8907 16.956 11.182 2.9242
413 89.492 17.389 6.7501 34.873 20.352 3.5103
414 100.00 45.174 0.0000 48.940 36.668 4.4996
415 100.00 68.999 0.0000 58.360 55.508 7.6393
416 48.006 31.193 0.0000 13.947 13.155 1.8044
417 63.587 37.705 12.876 22.979 20.055 5.5243
418 87.019 51.004 12.661 41.356 35.560 7.4901
419 97.949 80.452 55.537 68.390 68.953 39.598
420 100.00 81.007 70.394 73.680 71.771 57.072
421 31.409 24.947 20.076 8.4789 8.3900 6.4460
422 36.020 46.722 24.195 15.461 19.976 10.062
423 38.938 71.042 58.308 31.176 42.252 39.290
424 41.087 100.00 81.951 55.356 80.221 76.068
425 0.0000 69.739 78.983 28.742 39.465 65.136
426 0.0000 73.337 100.00 37.333 45.787 101.48
427 42.057 74.043 100.00 45.502 50.542 101.97
428 35.461 14.293 19.209 7.9515 5.8284 5.6466
429 44.958 10.067 31.914 11.721 6.9992 11.782
430 56.936 26.050 49.843 21.299 14.874 26.166
431 78.422 34.880 59.028 36.635 25.369 36.518
432 76.079 56.860 47.423 39.961 37.647 27.434
433 80.577 58.786 67.575 47.650 42.287 49.156
434 84.981 86.723 79.496 68.017 73.625 70.419
435 100.00 100.00 82.374 89.236 97.676 78.306
436 27.152 26.757 30.322 8.7320 8.9057 11.395
437 30.069 32.281 51.934 13.642 12.773 28.104
438 18.136 17.305 33.532 5.8811 5.1521 12.706
439 16.992 15.690 79.796 14.700 8.3325 61.074
440 17.580 33.812 84.917 19.505 15.395 70.094
441 0.0000 46.892 61.673 15.206 19.276 39.400
442 3.4863 54.830 86.160 24.730 27.574 74.171
443 44.072 77.245 85.819 43.124 52.398 77.440
444 0.0000 20.043 33.872 4.3217 4.9098 12.951
445 0.0000 20.060 67.493 10.270 7.2933 44.268
446 0.0000 29.300 100.00 21.666 14.455 96.258
447 0.0000 52.264 100.00 28.129 27.379 98.412
448 45.312 0.0000 18.916 9.8535 4.9743 5.2720
449 68.501 0.0000 20.224 20.487 10.446 6.2689
450 100.00 0.0000 27.275 42.862 21.913 10.481
451 100.00 76.695 35.235 64.792 64.375 22.106
452 21.070 19.161 0.0000 4.3319 4.9951 0.7359
453 21.663 37.614 0.0000 8.1255 12.424 1.9699
454 19.541 91.230 11.258 32.397 60.773 12.454
455 0.0000 44.727 0.0000 7.5634 15.127 2.5209
456 0.0000 52.035 45.558 13.946 21.575 24.125
457 37.491 53.229 63.168 24.078 27.056 42.148
458 62.637 67.106 80.707 44.355 45.591 68.070
459 72.376 84.847 88.385 61.470 68.239 83.746
460 72.046 85.597 100.00 65.699 70.636 104.78
461 75.176 100.00 100.00 77.153 90.774 108.06
462 27.901 38.752 34.862 12.148 14.659 15.045
463 39.142 41.663 48.916 18.016 18.645 26.233
464 65.105 45.216 100.00 43.408 31.747 98.451
465 72.245 0.0000 46.821 25.747 12.796 22.871
466 100.00 0.0000 48.555 45.676 23.039 25.305
467 60.842 15.178 30.659 18.804 11.459 11.547
468 85.977 14.203 34.789 34.119 19.133 14.704
469 85.041 19.056 49.815 36.290 20.914 26.517
470 100.00 37.480 70.256 55.702 35.870 50.908
471 24.910 8.4713 26.206 5.3975 3.6041 8.3862
472 26.898 50.520 37.383 15.858 21.902 17.912
473 12.589 28.387 20.550 5.6887 7.9090 6.6870
474 6.6565 57.545 38.199 15.570 25.630 19.209
475 49.940 64.711 41.532 29.142 37.087 23.126
476 74.755 84.325 44.043 52.204 64.194 29.099
477 28.856 30.946 15.539 8.7311 10.306 5.1905
478 61.205 64.526 26.587 32.267 38.781 13.947
479 80.445 76.169 55.545 53.157 57.584 38.214
480 26.077 0.0000 0.0000 3.4478 1.7779 0.1616
481 46.835 0.0000 0.0000 9.4885 4.8927 0.4446
482 45.975 0.0000 42.271 12.618 6.1080 18.582
483 63.629 12.008 59.385 24.350 13.281 35.219
484 100.00 0.0000 72.636 50.791 25.085 52.239
485 16.974 10.388 15.069 3.3106 2.8721 3.8929
486 42.645 36.094 12.916 13.711 14.667 4.9836
487 43.966 36.212 81.956 25.761 19.586 65.934
488 21.817 0.0000 35.294 5.1111 2.3457 13.316
489 20.219 4.5843 53.326 7.9701 4.0393 28.053
490 35.068 0.0000 69.435 14.409 6.4181 46.339
491 67.706 0.0000 76.542 29.619 14.049 56.642
492 86.835 21.082 75.494 43.505 24.425 56.430
493 100.00 35.869 100.00 64.392 38.693 98.686
END_DATA
CTI1   

ORIGINATOR "Argyll targen"
KEYWORD "DENSITY_EXTREME_VALUES"
DENSITY_EXTREME_VALUES "8"
CREATED "January 13, 2014"
