dispcalGUI/ref/verify_video.ti1
CTI1   

ORIGINATOR "Argyll targen"
CREATED "Fri Oct 11 21:11:25 2013"
KEYWORD "COMP_GREY_STEPS"
COMP_GREY_STEPS "21"
KEYWORD "BLACK_COLOR_PATCHES"
BLACK_COLOR_PATCHES "4"
KEYWORD "APPROX_WHITE_POINT"
APPROX_WHITE_POINT "95.106486 100.000000 108.844025"
DESCRIPTOR "Argyll Calibration Target chart information 1"
KEYWORD "COLOR_REP"
COLOR_REP "RGB"

NUMBER_OF_FIELDS 7
BEGIN_DATA_FORMAT
SAMPLE_ID RGB_R RGB_G RGB_B XYZ_X XYZ_Y XYZ_Z
END_DATA_FORMAT

NUMBER_OF_SETS 41
BEGIN_DATA
1 100.000000000 100.000000000 100.000000000 95.1065000000 100.000000000 108.844000000
2 0.00000000000 0.00000000000 0.00000000000 1.00000000000 1.00000000000 1.00000000000
3 10.0000000000 10.0000000000 10.0000000000 1.94321000000 1.99226000000 2.08090000000
4 20.0000000000 20.0000000000 20.0000000000 4.11537000000 4.27737000000 4.57015000000
5 30.0000000000 30.0000000000 30.0000000000 7.89226000000 8.25066000000 8.89838000000
6 40.0000000000 40.0000000000 40.0000000000 13.5038000000 14.1540000000 15.3291000000
7 50.0000000000 50.0000000000 50.0000000000 21.1427000000 22.1901000000 24.0831000000
8 60.0000000000 60.0000000000 60.0000000000 30.9773000000 32.5361000000 35.3534000000
9 70.0000000000 70.0000000000 70.0000000000 43.1586000000 45.3509000000 49.3129000000
10 80.0000000000 80.0000000000 80.0000000000 57.8241000000 60.7789000000 66.1192000000
11 90.0000000000 90.0000000000 90.0000000000 75.1006000000 78.9538000000 85.9177000000
12 49.4578000000 49.4578000000 49.4578000000 20.2063066795 21.2596207123 23.1527961651
13 66.6613000000 43.3789000000 43.3789000000 25.4759600309 21.2596207123 17.8354981697
14 79.6847000000 36.0631000000 36.0631000000 30.7378482715 21.2596207123 12.5260354921
15 90.5351000000 26.3049000000 26.3049000000 35.9919885521 21.2596207123 7.22439082624
16 100.000000000 0.00000000000 0.00000000000 41.2383979730 21.2596207123 1.93054691728
17 85.8632000000 85.8632000000 85.8632000000 67.9764717203 71.5199481556 77.8888204920
18 69.1860000000 91.5170000000 69.1860000000 55.7951444189 71.5199481556 52.9478124652
19 53.5567000000 95.2807000000 53.5567000000 47.1673405487 71.5199481556 35.2825679269
20 36.7321000000 97.9742000000 36.7321000000 40.7360481906 71.5199481556 22.1146338950
21 0.00000000000 100.000000000 0.00000000000 35.7571844875 71.5199481556 11.9205165784
22 30.2678000000 30.2678000000 30.2678000000 6.86269279158 7.22043113213 7.86341263981
23 29.4663000000 29.4663000000 38.9007000000 7.50387265569 7.22043113213 12.8606279680
24 28.0476000000 28.0476000000 49.7455000000 8.58841701867 7.22043113213 21.3133290245
25 24.8196000000 24.8196000000 65.9505000000 10.8192097777 7.22043113213 38.6996388474
26 0.00000000000 0.00000000000 100.000000000 18.0498887309 7.22043113213 95.0539658012
27 96.6497000000 96.6497000000 96.6497000000 88.1827783998 92.7795688679 101.041616657
28 97.7995000000 97.7995000000 80.0881000000 84.3949293461 92.7795688679 71.5199513462
29 98.6950000000 98.6950000000 63.3068000000 81.4073721996 92.7795688679 48.2355857542
30 99.4124000000 99.4124000000 44.1305000000 78.9907130133 92.7795688679 29.4006737353
31 100.000000000 100.000000000 0.00000000000 76.9955824605 92.7795688679 13.8510634957
32 89.7016000000 89.7016000000 89.7016000000 74.8391645119 78.7403792877 85.7522331318
33 78.7098000000 92.4042000000 92.4042000000 69.5842730928 78.7403792877 91.0546357274
34 65.4634000000 95.0162000000 95.0162000000 64.3272948999 78.7403792877 96.3591439641
35 47.7702000000 97.5458000000 97.5458000000 59.0682286898 78.7403792877 101.665759096
36 0.00000000000 100.000000000 100.000000000 53.8070732184 78.7403792877 106.974482380
37 56.4906000000 56.4906000000 56.4906000000 27.0689994711 28.4800518444 31.0162088049
38 64.5145000000 52.8832000000 64.5145000000 31.4213205297 28.4800518444 39.9274934106
39 73.8217000000 47.4341000000 73.8217000000 37.3487075449 28.4800518444 52.0636919927
40 85.1775000000 37.8990000000 85.1775000000 45.8950512241 28.4800518444 69.5621485262
41 100.000000000 0.00000000000 100.000000000 59.2882867039 28.4800518444 96.9845127185
END_DATA
CTI1   

ORIGINATOR "Argyll targen"
KEYWORD "DENSITY_EXTREME_VALUES"
DENSITY_EXTREME_VALUES "8"
CREATED "October 11, 2013"
DESCRIPTOR "Argyll Calibration Target chart information 1"

KEYWORD "INDEX"
NUMBER_OF_FIELDS 7
BEGIN_DATA_FORMAT
INDEX RGB_R RGB_G RGB_B XYZ_X XYZ_Y XYZ_Z
END_DATA_FORMAT

NUMBER_OF_SETS 8
BEGIN_DATA
0 100.000 100.000 100.000 95.1065 100.000 108.844
1 0.00000 47.3607 100.000 25.6130 21.6292 97.3763
2 100.000 0.00000 79.3514 52.4258 26.2898 58.7215
3 0.00000 0.00000 58.9971 6.48583 3.19399 29.8944
4 100.000 66.6593 0.00000 56.0588 50.5054 7.65614
5 0.00000 35.6011 0.00000 4.68562 8.37021 2.22855
6 84.4444 0.00000 0.00000 28.8428 15.3558 2.30466
7 0.00000 0.00000 0.00000 1.00000 1.00000 1.00000
END_DATA
CTI1   

ORIGINATOR "Argyll targen"
CREATED "October 11, 2013"
DESCRIPTOR "Argyll Calibration Target chart information 1"
KEYWORD "DEVICE_COMBINATION_VALUES"
DEVICE_COMBINATION_VALUES "9"

KEYWORD "INDEX"
NUMBER_OF_FIELDS 7
BEGIN_DATA_FORMAT
INDEX RGB_R RGB_G RGB_B XYZ_X XYZ_Y XYZ_Z
END_DATA_FORMAT

NUMBER_OF_SETS 9
BEGIN_DATA
0 100.000 100.000 100.000 95.1065 100.000 108.844
1 0.00000 100.000 100.000 54.2763 78.9478 106.931
2 100.000 0.00000 100.000 59.7013 29.1995 97.0422
3 0.00000 0.00000 100.000 18.8711 8.14731 95.1290
4 100.000 100.000 0.00000 77.2354 92.8527 14.7151
5 0.00000 100.000 0.00000 36.4052 71.8005 12.8018
6 100.000 0.00000 0.00000 41.8302 22.0522 2.91323
7 0.00000 0.00000 0.00000 1.00000 1.00000 1.00000
8 50.0000 50.0000 50.0000 21.1427 22.1901 24.0831
END_DATA