dispcalGUI/ref/verify_grayscale.ti1
CTI1   

ORIGINATOR "Argyll targen"
CREATED "Sun Oct 20 16:04:02 2013"
KEYWORD "COMP_GREY_STEPS"
COMP_GREY_STEPS "50"
KEYWORD "APPROX_WHITE_POINT"
APPROX_WHITE_POINT "95.106486 100.000000 108.844025"
DESCRIPTOR "Argyll Calibration Target chart information 1"
KEYWORD "WHITE_COLOR_PATCHES"
WHITE_COLOR_PATCHES "1"
KEYWORD "COLOR_REP"
COLOR_REP "RGB"

NUMBER_OF_FIELDS 7
BEGIN_DATA_FORMAT
SAMPLE_ID RGB_R RGB_G RGB_B XYZ_X XYZ_Y XYZ_Z
END_DATA_FORMAT

NUMBER_OF_SETS 50
BEGIN_DATA
1 100.00 100.00 100.00 95.106 100.00 108.84
2 0.0000 0.0000 0.0000 1.0000 1.0000 1.0000
3 2.0408 2.0408 2.0408 1.1486 1.1564 1.1703
4 4.0816 4.0816 4.0816 1.2974 1.3128 1.3408
5 6.1224 6.1224 6.1224 1.4726 1.4972 1.5416
6 8.1633 8.1633 8.1633 1.6969 1.7331 1.7986
7 10.204 10.204 10.204 1.9733 2.0239 2.1154
8 12.245 12.245 12.245 2.3049 2.3728 2.4954
9 14.286 14.286 14.286 2.6946 2.7827 2.9419
10 16.327 16.327 16.327 3.1448 3.2563 3.4578
11 18.367 18.367 18.367 3.6579 3.7961 4.0459
12 20.408 20.408 20.408 4.2364 4.4047 4.7088
13 22.449 22.449 22.449 4.8823 5.0842 5.4491
14 24.490 24.490 24.490 5.5978 5.8369 6.2690
15 26.531 26.531 26.531 6.3848 6.6648 7.1709
16 28.571 28.571 28.571 7.2453 7.5700 8.1569
17 30.612 30.612 30.612 8.1810 8.5544 9.2293
18 32.653 32.653 32.653 9.1938 9.6199 10.390
19 34.694 34.694 34.694 10.285 10.768 11.641
20 36.735 36.735 36.735 11.457 12.001 12.984
21 38.776 38.776 38.776 12.711 13.320 14.421
22 40.816 40.816 40.816 14.049 14.727 15.954
23 42.857 42.857 42.857 15.472 16.224 17.584
24 44.898 44.898 44.898 16.981 17.812 19.314
25 46.939 46.939 46.939 18.578 19.492 21.144
26 48.980 48.980 48.980 20.265 21.267 23.078
27 51.020 51.020 51.020 22.043 23.137 25.115
28 53.061 53.061 53.061 23.913 25.104 27.258
29 55.102 55.102 55.102 25.876 27.170 29.508
30 57.143 57.143 57.143 27.934 29.335 31.866
31 59.184 59.184 59.184 30.088 31.601 34.335
32 61.224 61.224 61.224 32.340 33.970 36.915
33 63.265 63.265 63.265 34.690 36.442 39.608
34 65.306 65.306 65.306 37.140 39.019 42.415
35 67.347 67.347 67.347 39.690 41.702 45.338
36 69.388 69.388 69.388 42.343 44.493 48.378
37 71.429 71.429 71.429 45.099 47.392 51.536
38 73.469 73.469 73.469 47.959 50.400 54.813
39 75.510 75.510 75.510 50.924 53.520 58.212
40 77.551 77.551 77.551 53.996 56.752 61.732
41 79.592 79.592 79.592 57.175 60.096 65.376
42 81.633 81.633 81.633 60.463 63.555 69.144
43 83.673 83.673 83.673 63.861 67.129 73.037
44 85.714 85.714 85.714 67.369 70.820 77.057
45 87.755 87.755 87.755 70.989 74.628 81.206
46 89.796 89.796 89.796 74.721 78.555 85.483
47 91.837 91.837 91.837 78.567 82.601 89.890
48 93.878 93.878 93.878 82.528 86.767 94.429
49 95.918 95.918 95.918 86.604 91.055 99.100
50 97.959 97.959 97.959 90.796 95.466 103.90
END_DATA
CTI1   

ORIGINATOR "Argyll targen"
KEYWORD "DENSITY_EXTREME_VALUES"
DENSITY_EXTREME_VALUES "8"
CREATED "October 20, 2013"
DESCRIPTOR "Argyll Calibration Target chart information 1"

KEYWORD "INDEX"
NUMBER_OF_FIELDS 7
BEGIN_DATA_FORMAT
INDEX RGB_R RGB_G RGB_B XYZ_X XYZ_Y XYZ_Z
END_DATA_FORMAT

NUMBER_OF_SETS 8
BEGIN_DATA
0 100.00 100.00 100.00 95.106 100.00 108.84
1 0.0000 47.361 100.00 25.613 21.629 97.376
2 100.00 0.0000 79.351 52.426 26.290 58.722
3 0.0000 0.0000 58.997 6.4858 3.1940 29.894
4 100.00 66.659 0.0000 56.059 50.505 7.6561
5 0.0000 35.601 0.0000 4.6856 8.3702 2.2286
6 84.444 0.0000 0.0000 28.843 15.356 2.3047
7 0.0000 0.0000 0.0000 1.0000 1.0000 1.0000
END_DATA
CTI1   

ORIGINATOR "Argyll targen"
CREATED "October 20, 2013"
DESCRIPTOR "Argyll Calibration Target chart information 1"
KEYWORD "DEVICE_COMBINATION_VALUES"
DEVICE_COMBINATION_VALUES "9"

KEYWORD "INDEX"
NUMBER_OF_FIELDS 7
BEGIN_DATA_FORMAT
INDEX RGB_R RGB_G RGB_B XYZ_X XYZ_Y XYZ_Z
END_DATA_FORMAT

NUMBER_OF_SETS 9
BEGIN_DATA
0 100.00 100.00 100.00 95.106 100.00 108.84
1 0.0000 100.00 100.00 54.276 78.948 106.93
2 100.00 0.0000 100.00 59.701 29.199 97.042
3 0.0000 0.0000 100.00 18.871 8.1473 95.129
4 100.00 100.00 0.0000 77.235 92.853 14.715
5 0.0000 100.00 0.0000 36.405 71.801 12.802
6 100.00 0.0000 0.0000 41.830 22.052 2.9132
7 0.0000 0.0000 0.0000 1.0000 1.0000 1.0000
8 50.000 50.000 50.000 21.143 22.190 24.083
END_DATA