dispcalGUI/ref/verify_xl.ti1
CTI1   

ORIGINATOR "Argyll targen"
KEYWORD "OFPS_PATCHES"
OFPS_PATCHES "200"
CREATED "Sun Oct 20 16:10:47 2013"
KEYWORD "COMP_GREY_STEPS"
COMP_GREY_STEPS "41"
KEYWORD "BLACK_COLOR_PATCHES"
BLACK_COLOR_PATCHES "1"
KEYWORD "APPROX_WHITE_POINT"
APPROX_WHITE_POINT "95.106486 100.000000 108.844025"
DESCRIPTOR "Argyll Calibration Target chart information 1"
KEYWORD "MULTI_DIM_STEPS"
MULTI_DIM_STEPS "2"
KEYWORD "WHITE_COLOR_PATCHES"
WHITE_COLOR_PATCHES "1"
KEYWORD "SINGLE_DIM_STEPS"
SINGLE_DIM_STEPS "21"
KEYWORD "COLOR_REP"
COLOR_REP "RGB"

NUMBER_OF_FIELDS 7
BEGIN_DATA_FORMAT
SAMPLE_ID RGB_R RGB_G RGB_B XYZ_X XYZ_Y XYZ_Z
END_DATA_FORMAT

NUMBER_OF_SETS 490
BEGIN_DATA
1 100.00 100.00 100.00 95.106 100.00 108.84
2 0.0000 0.0000 0.0000 1.0000 1.0000 1.0000
3 2.5000 2.5000 2.5000 1.1821 1.1916 1.2087
4 5.0000 5.0000 5.0000 1.3704 1.3897 1.4245
5 7.5000 7.5000 7.5000 1.6184 1.6506 1.7087
6 10.000 10.000 10.000 1.9432 1.9923 2.0809
7 12.500 12.500 12.500 2.3504 2.4206 2.5475
8 15.000 15.000 15.000 2.8451 2.9411 3.1145
9 17.500 17.500 17.500 3.4320 3.5584 3.7870
10 20.000 20.000 20.000 4.1154 4.2774 4.5702
11 22.500 22.500 22.500 4.8994 5.1021 5.4686
12 25.000 25.000 25.000 5.7878 6.0367 6.4867
13 27.500 27.500 27.500 6.7843 7.0850 7.6286
14 30.000 30.000 30.000 7.8923 8.2507 8.8984
15 32.500 32.500 32.500 9.1151 9.5371 10.300
16 35.000 35.000 35.000 10.456 10.948 11.836
17 37.500 37.500 37.500 11.918 12.486 13.512
18 40.000 40.000 40.000 13.504 14.154 15.329
19 42.500 42.500 42.500 15.216 15.956 17.292
20 45.000 45.000 45.000 17.059 17.894 19.403
21 47.500 47.500 47.500 19.033 19.971 21.666
22 50.000 50.000 50.000 21.143 22.190 24.083
23 52.500 52.500 52.500 23.389 24.554 26.658
24 55.000 55.000 55.000 25.776 27.064 29.392
25 57.500 57.500 57.500 28.304 29.724 32.290
26 60.000 60.000 60.000 30.977 32.536 35.353
27 62.500 62.500 62.500 33.797 35.503 38.585
28 65.000 65.000 65.000 36.766 38.626 41.987
29 67.500 67.500 67.500 39.886 41.908 45.562
30 70.000 70.000 70.000 43.159 45.351 49.313
31 72.500 72.500 72.500 46.587 48.957 53.242
32 75.000 75.000 75.000 50.173 52.730 57.351
33 77.500 77.500 77.500 53.918 56.669 61.643
34 80.000 80.000 80.000 57.824 60.779 66.119
35 82.500 82.500 82.500 61.894 65.060 70.783
36 85.000 85.000 85.000 66.128 69.515 75.636
37 87.500 87.500 87.500 70.530 74.146 80.680
38 90.000 90.000 90.000 75.101 78.954 85.918
39 92.500 92.500 92.500 79.842 83.941 91.351
40 95.000 95.000 95.000 84.755 89.111 96.982
41 97.500 97.500 97.500 89.843 94.463 102.81
42 5.0000 0.0000 0.0000 1.1607 1.0829 1.0075
43 10.000 0.0000 0.0000 1.4092 1.2110 1.0192
44 15.000 0.0000 0.0000 1.8005 1.4128 1.0375
45 20.000 0.0000 0.0000 2.3517 1.6969 1.0633
46 25.000 0.0000 0.0000 3.0773 2.0711 1.0973
47 30.000 0.0000 0.0000 3.9904 2.5418 1.1401
48 35.000 0.0000 0.0000 5.1027 3.1154 1.1922
49 40.000 0.0000 0.0000 6.4250 3.7972 1.2542
50 45.000 0.0000 0.0000 7.9675 4.5924 1.3265
51 50.000 0.0000 0.0000 9.7393 5.5060 1.4095
52 55.000 0.0000 0.0000 11.749 6.5425 1.5037
53 60.000 0.0000 0.0000 14.006 7.7061 1.6095
54 65.000 0.0000 0.0000 16.518 9.0010 1.7271
55 70.000 0.0000 0.0000 19.291 10.431 1.8571
56 75.000 0.0000 0.0000 22.335 12.000 1.9997
57 80.000 0.0000 0.0000 25.654 13.712 2.1553
58 85.000 0.0000 0.0000 29.257 15.570 2.3241
59 90.000 0.0000 0.0000 33.150 17.577 2.5065
60 95.000 0.0000 0.0000 37.339 19.737 2.7028
61 100.00 0.0000 0.0000 41.830 22.052 2.9132
62 0.0000 5.0000 0.0000 1.1394 1.2787 1.0465
63 0.0000 10.000 0.0000 1.3549 1.7096 1.1183
64 0.0000 15.000 0.0000 1.6942 2.3882 1.2314
65 0.0000 20.000 0.0000 2.1721 3.3438 1.3907
66 0.0000 25.000 0.0000 2.8013 4.6021 1.6004
67 0.0000 30.000 0.0000 3.5930 6.1854 1.8644
68 0.0000 35.000 0.0000 4.5576 8.1141 2.1859
69 0.0000 40.000 0.0000 5.7042 10.407 2.5681
70 0.0000 45.000 0.0000 7.0417 13.082 3.0139
71 0.0000 50.000 0.0000 8.5782 16.154 3.5261
72 0.0000 55.000 0.0000 10.321 19.640 4.1071
73 0.0000 60.000 0.0000 12.278 23.553 4.7594
74 0.0000 65.000 0.0000 14.456 27.908 5.4854
75 0.0000 70.000 0.0000 16.861 32.718 6.2871
76 0.0000 75.000 0.0000 19.500 37.995 7.1667
77 0.0000 80.000 0.0000 22.379 43.751 8.1263
78 0.0000 85.000 0.0000 25.503 49.999 9.1677
79 0.0000 90.000 0.0000 28.878 56.749 10.293
80 0.0000 95.000 0.0000 32.511 64.013 11.504
81 0.0000 100.00 0.0000 36.405 71.801 12.802
82 0.0000 0.0000 5.0000 1.0703 1.0281 1.3705
83 0.0000 0.0000 10.000 1.1791 1.0716 1.9434
84 0.0000 0.0000 15.000 1.3504 1.1401 2.8456
85 0.0000 0.0000 20.000 1.5916 1.2366 4.1161
86 0.0000 0.0000 25.000 1.9092 1.3636 5.7889
87 0.0000 0.0000 30.000 2.3089 1.5235 7.8939
88 0.0000 0.0000 35.000 2.7957 1.7182 10.458
89 0.0000 0.0000 40.000 3.3745 1.9497 13.507
90 0.0000 0.0000 45.000 4.0496 2.2197 17.063
91 0.0000 0.0000 50.000 4.8252 2.5298 21.147
92 0.0000 0.0000 55.000 5.7050 2.8817 25.782
93 0.0000 0.0000 60.000 6.6928 3.2768 30.984
94 0.0000 0.0000 65.000 7.7920 3.7164 36.774
95 0.0000 0.0000 70.000 9.0060 4.2019 43.169
96 0.0000 0.0000 75.000 10.338 4.7346 50.184
97 0.0000 0.0000 80.000 11.791 5.3157 57.838
98 0.0000 0.0000 85.000 13.368 5.9464 66.144
99 0.0000 0.0000 90.000 15.072 6.6279 75.118
100 0.0000 0.0000 95.000 16.905 7.3611 84.775
101 0.0000 0.0000 100.00 18.871 8.1473 95.129
102 0.0000 5.0000 5.0000 1.2097 1.3068 1.4169
103 0.0000 10.000 10.000 1.5340 1.7813 2.0617
104 0.0000 15.000 15.000 2.0446 2.5283 3.0769
105 0.0000 20.000 20.000 2.7637 3.5804 4.5068
106 0.0000 25.000 25.000 3.7105 4.9657 6.3893
107 0.0000 30.000 30.000 4.9019 6.7088 8.7583
108 0.0000 35.000 35.000 6.3533 8.8323 11.644
109 0.0000 40.000 40.000 8.0787 11.357 15.075
110 0.0000 45.000 45.000 10.091 14.301 19.077
111 0.0000 50.000 50.000 12.403 17.684 23.674
112 0.0000 55.000 55.000 15.026 21.522 28.889
113 0.0000 60.000 60.000 17.971 25.830 34.744
114 0.0000 65.000 65.000 21.248 30.625 41.260
115 0.0000 70.000 70.000 24.867 35.920 48.456
116 0.0000 75.000 75.000 28.838 41.729 56.351
117 0.0000 80.000 80.000 33.170 48.067 64.964
118 0.0000 85.000 85.000 37.871 54.945 74.312
119 0.0000 90.000 90.000 42.950 62.377 84.411
120 0.0000 95.000 95.000 48.416 70.374 95.279
121 0.0000 100.00 100.00 54.276 78.948 106.93
122 5.0000 0.0000 5.0000 1.2310 1.1110 1.3780
123 10.000 0.0000 10.000 1.5884 1.2826 1.9626
124 15.000 0.0000 15.000 2.1509 1.5529 2.8831
125 20.000 0.0000 20.000 2.9433 1.9335 4.1795
126 25.000 0.0000 25.000 3.9865 2.4347 5.8863
127 30.000 0.0000 30.000 5.2992 3.0653 8.0340
128 35.000 0.0000 35.000 6.8984 3.8335 10.650
129 40.000 0.0000 40.000 8.7995 4.7468 13.761
130 45.000 0.0000 45.000 11.017 5.8121 17.389
131 50.000 0.0000 50.000 13.564 7.0358 21.557
132 55.000 0.0000 55.000 16.454 8.4242 26.285
133 60.000 0.0000 60.000 19.699 9.9829 31.594
134 65.000 0.0000 65.000 23.310 11.717 37.501
135 70.000 0.0000 70.000 27.297 13.633 44.026
136 75.000 0.0000 75.000 31.673 15.735 51.184
137 80.000 0.0000 80.000 36.445 18.028 58.993
138 85.000 0.0000 85.000 41.625 20.516 67.468
139 90.000 0.0000 90.000 47.222 23.205 76.625
140 95.000 0.0000 95.000 53.244 26.098 86.478
141 100.00 0.0000 100.00 59.701 29.199 97.042
142 5.0000 5.0000 0.0000 1.3001 1.3615 1.0540
143 10.000 10.000 0.0000 1.7641 1.9206 1.1375
144 15.000 15.000 0.0000 2.4947 2.8009 1.2689
145 20.000 20.000 0.0000 3.5238 4.0408 1.4540
146 25.000 25.000 0.0000 4.8786 5.6731 1.6978
147 30.000 30.000 0.0000 6.5834 7.7272 2.0045
148 35.000 35.000 0.0000 8.6602 10.229 2.3781
149 40.000 40.000 0.0000 11.129 13.204 2.8223
150 45.000 45.000 0.0000 14.009 16.674 3.3404
151 50.000 50.000 0.0000 17.318 20.660 3.9356
152 55.000 55.000 0.0000 21.071 25.182 4.6108
153 60.000 60.000 0.0000 25.285 30.259 5.3689
154 65.000 65.000 0.0000 29.974 35.909 6.2125
155 70.000 70.000 0.0000 35.153 42.149 7.1442
156 75.000 75.000 0.0000 40.835 48.995 8.1664
157 80.000 80.000 0.0000 47.033 56.463 9.2815
158 85.000 85.000 0.0000 53.760 64.569 10.492
159 90.000 90.000 0.0000 61.029 73.326 11.799
160 95.000 95.000 0.0000 68.850 82.749 13.206
161 100.00 100.00 0.0000 77.235 92.853 14.715
162 100.00 5.0000 5.0000 42.040 22.359 3.3302
163 100.00 10.000 10.000 42.364 22.833 3.9750
164 100.00 15.000 15.000 42.875 23.580 4.9902
165 100.00 20.000 20.000 43.594 24.633 6.4200
166 100.00 25.000 25.000 44.541 26.018 8.3026
167 100.00 30.000 30.000 45.732 27.761 10.671
168 100.00 35.000 35.000 47.183 29.884 13.557
169 100.00 40.000 40.000 48.909 32.409 16.988
170 100.00 45.000 45.000 50.922 35.354 20.990
171 100.00 50.000 50.000 53.233 38.736 25.587
172 100.00 55.000 55.000 55.856 42.574 30.802
173 100.00 60.000 60.000 58.801 46.882 36.657
174 100.00 65.000 65.000 62.078 51.677 43.173
175 100.00 70.000 70.000 65.697 56.972 50.369
176 100.00 75.000 75.000 69.668 62.782 58.264
177 100.00 80.000 80.000 74.000 69.119 66.877
178 100.00 85.000 85.000 78.701 75.998 76.225
179 100.00 90.000 90.000 83.781 83.429 86.324
180 100.00 95.000 95.000 89.246 91.426 97.192
181 5.0000 100.00 5.0000 36.636 71.912 13.180
182 10.000 100.00 10.000 36.994 72.083 13.764
183 15.000 100.00 15.000 37.556 72.353 14.685
184 20.000 100.00 20.000 38.349 72.734 15.981
185 25.000 100.00 25.000 39.392 73.235 17.688
186 30.000 100.00 30.000 40.704 73.866 19.836
187 35.000 100.00 35.000 42.304 74.634 22.452
188 40.000 100.00 40.000 44.205 75.547 25.563
189 45.000 100.00 45.000 46.422 76.613 29.191
190 50.000 100.00 50.000 48.970 77.836 33.359
191 55.000 100.00 55.000 51.860 79.225 38.087
192 60.000 100.00 60.000 55.104 80.783 43.396
193 65.000 100.00 65.000 58.715 82.518 49.303
194 70.000 100.00 70.000 62.703 84.434 55.828
195 75.000 100.00 75.000 67.078 86.535 62.986
196 80.000 100.00 80.000 71.851 88.828 70.795
197 85.000 100.00 85.000 77.031 91.317 79.270
198 90.000 100.00 90.000 82.627 94.005 88.427
199 95.000 100.00 95.000 88.650 96.898 98.280
200 5.0000 5.0000 100.00 19.171 8.5088 95.183
201 10.000 10.000 100.00 19.635 9.0679 95.266
202 15.000 15.000 100.00 20.366 9.9482 95.398
203 20.000 20.000 100.00 21.395 11.188 95.583
204 25.000 25.000 100.00 22.750 12.820 95.827
205 30.000 30.000 100.00 24.455 14.875 96.133
206 35.000 35.000 100.00 26.531 17.377 96.507
207 40.000 40.000 100.00 29.000 20.352 96.951
208 45.000 45.000 100.00 31.880 23.822 97.469
209 50.000 50.000 100.00 35.189 27.808 98.065
210 55.000 55.000 100.00 38.942 32.330 98.740
211 60.000 60.000 100.00 43.156 37.407 99.498
212 65.000 65.000 100.00 47.845 43.057 100.34
213 70.000 70.000 100.00 53.024 49.296 101.27
214 75.000 75.000 100.00 58.706 56.142 102.30
215 80.000 80.000 100.00 64.904 63.610 103.41
216 85.000 85.000 100.00 71.631 71.716 104.62
217 90.000 90.000 100.00 78.900 80.473 105.93
218 95.000 95.000 100.00 86.721 89.897 107.34
219 5.0000 100.00 100.00 54.437 79.031 106.94
220 10.000 100.00 100.00 54.686 79.159 106.95
221 15.000 100.00 100.00 55.077 79.361 106.97
222 20.000 100.00 100.00 55.628 79.645 106.99
223 25.000 100.00 100.00 56.354 80.019 107.03
224 30.000 100.00 100.00 57.267 80.490 107.07
225 35.000 100.00 100.00 58.379 81.063 107.12
226 40.000 100.00 100.00 59.701 81.745 107.19
227 45.000 100.00 100.00 61.244 82.540 107.26
228 50.000 100.00 100.00 63.016 83.454 107.34
229 55.000 100.00 100.00 65.026 84.490 107.43
230 60.000 100.00 100.00 67.283 85.654 107.54
231 65.000 100.00 100.00 69.794 86.949 107.66
232 70.000 100.00 100.00 72.568 88.379 107.79
233 75.000 100.00 100.00 75.611 89.948 107.93
234 80.000 100.00 100.00 78.931 91.660 108.09
235 85.000 100.00 100.00 82.534 93.517 108.25
236 90.000 100.00 100.00 86.426 95.525 108.44
237 95.000 100.00 100.00 90.615 97.684 108.63
238 100.00 5.0000 100.00 59.841 29.478 97.089
239 100.00 10.000 100.00 60.056 29.909 97.160
240 100.00 15.000 100.00 60.395 30.588 97.274
241 100.00 20.000 100.00 60.873 31.543 97.433
242 100.00 25.000 100.00 61.503 32.802 97.643
243 100.00 30.000 100.00 62.294 34.385 97.907
244 100.00 35.000 100.00 63.259 36.314 98.228
245 100.00 40.000 100.00 64.406 38.607 98.610
246 100.00 45.000 100.00 65.743 41.281 99.056
247 100.00 50.000 100.00 67.279 44.354 99.568
248 100.00 55.000 100.00 69.023 47.839 100.15
249 100.00 60.000 100.00 70.979 51.753 100.80
250 100.00 65.000 100.00 73.157 56.108 101.53
251 100.00 70.000 100.00 75.562 60.917 102.33
252 100.00 75.000 100.00 78.201 66.194 103.21
253 100.00 80.000 100.00 81.080 71.951 104.17
254 100.00 85.000 100.00 84.204 78.198 105.21
255 100.00 90.000 100.00 87.580 84.949 106.34
256 100.00 95.000 100.00 91.212 92.212 107.55
257 100.00 100.00 5.0000 77.306 92.881 15.086
258 100.00 100.00 10.000 77.414 92.924 15.659
259 100.00 100.00 15.000 77.586 92.993 16.561
260 100.00 100.00 20.000 77.827 93.089 17.831
261 100.00 100.00 25.000 78.145 93.216 19.504
262 100.00 100.00 30.000 78.544 93.376 21.609
263 100.00 100.00 35.000 79.031 93.571 24.173
264 100.00 100.00 40.000 79.610 93.802 27.222
265 100.00 100.00 45.000 80.285 94.072 30.778
266 100.00 100.00 50.000 81.061 94.383 34.863
267 100.00 100.00 55.000 81.940 94.734 39.497
268 100.00 100.00 60.000 82.928 95.129 44.700
269 100.00 100.00 65.000 84.027 95.569 50.489
270 100.00 100.00 70.000 85.241 96.055 56.884
271 100.00 100.00 75.000 86.573 96.587 63.899
272 100.00 100.00 80.000 88.026 97.168 71.553
273 100.00 100.00 85.000 89.603 97.799 79.859
274 100.00 100.00 90.000 91.307 98.481 88.833
275 100.00 100.00 95.000 93.141 99.214 98.490
276 66.667 100.00 100.00 70.689 87.410 107.70
277 100.00 66.667 100.00 73.933 57.660 101.79
278 100.00 100.00 66.667 84.419 95.726 52.553
279 66.667 33.333 33.333 22.253 16.543 11.392
280 33.333 66.667 33.333 20.565 32.022 14.469
281 33.333 33.333 66.667 15.109 12.217 40.084
282 33.333 66.667 66.667 26.125 34.246 43.756
283 66.667 33.333 66.667 27.813 18.767 40.679
284 66.667 66.667 33.333 33.268 38.572 15.064
285 100.00 0.0000 66.667 49.014 24.925 40.751
286 66.667 100.00 0.0000 52.818 80.263 13.571
287 0.0000 66.667 100.00 33.103 36.608 99.873
288 0.0000 100.00 66.667 43.589 74.674 50.640
289 66.667 0.0000 100.00 35.284 16.610 95.898
290 100.00 66.667 0.0000 56.062 50.512 7.6573
291 25.665 0.0000 0.0000 3.1876 2.1279 1.1025
292 68.161 35.358 27.002 22.933 17.579 8.5973
293 80.462 47.698 33.859 34.498 28.237 13.283
294 41.319 53.173 11.065 15.680 21.397 5.2654
295 50.198 74.689 16.807 28.573 42.370 9.7830
296 52.842 84.771 67.979 42.708 57.782 49.090
297 84.523 84.137 100.00 70.718 70.418 104.42
298 19.278 18.627 29.511 4.5538 4.2090 8.0694
299 70.801 19.825 34.011 22.606 13.655 11.177
300 87.995 21.393 71.227 41.208 22.745 46.707
301 91.008 25.897 90.262 50.066 27.526 77.796
302 32.778 0.0000 100.00 22.454 9.9947 95.297
303 44.224 20.024 100.00 26.759 13.958 95.835
304 68.736 29.691 100.00 38.975 22.281 96.798
305 81.754 9.1441 34.621 28.951 15.668 11.563
306 83.704 0.0000 51.876 32.439 16.731 24.100
307 84.009 0.0000 83.686 40.462 19.965 65.186
308 43.285 15.428 57.571 13.342 7.8447 28.929
309 53.174 15.742 71.304 20.085 10.998 45.657
310 52.241 49.504 73.873 27.054 24.397 51.470
311 33.359 35.738 43.288 11.238 11.468 17.199
312 46.183 53.166 46.252 20.257 23.404 21.266
313 67.814 66.608 53.864 36.746 39.992 30.213
314 74.316 68.051 71.535 45.201 44.926 51.200
315 89.766 10.631 10.933 33.558 18.343 3.7134
316 100.00 0.0000 30.873 43.218 22.607 10.221
317 100.00 0.0000 65.701 48.785 24.834 39.547
318 93.216 7.5584 44.579 39.034 20.614 18.453
319 100.00 19.075 48.837 46.538 25.651 22.420
320 100.00 48.125 48.715 52.425 37.453 24.286
321 19.753 10.620 65.990 9.7334 5.2692 38.184
322 17.255 0.0000 81.005 13.126 5.9687 59.502
323 31.609 15.844 79.502 15.732 8.4999 57.458
324 47.548 28.283 84.435 23.327 14.519 66.307
325 56.585 14.312 26.843 14.124 8.5949 7.2622
326 60.210 52.894 26.148 23.662 25.275 9.7008
327 73.037 71.483 32.251 39.243 45.208 15.472
328 100.00 100.00 49.139 80.920 94.326 34.121
329 0.0000 73.081 0.0000 18.459 35.913 6.8198
330 20.686 100.00 17.749 38.320 72.733 15.366
331 24.754 100.00 43.829 41.325 74.004 28.080
332 17.589 60.844 30.957 15.090 25.364 12.275
333 18.959 85.401 41.509 29.555 52.179 22.838
334 84.390 86.194 42.826 56.832 66.998 25.185
335 22.174 82.074 0.0000 25.289 47.130 8.6252
336 36.119 100.00 0.0000 40.785 74.059 13.007
337 34.989 89.006 15.829 32.673 57.635 12.284
338 40.193 89.300 35.374 35.707 59.334 20.056
339 48.153 100.00 52.416 48.700 77.650 35.496
340 12.410 32.334 82.818 16.265 12.005 63.473
341 10.305 54.979 90.294 24.918 25.515 78.791
342 0.0000 66.665 100.00 33.102 36.606 99.873
343 20.708 78.158 100.00 40.605 49.466 101.96
344 45.768 84.613 100.00 50.348 60.370 103.55
345 65.184 100.00 100.00 69.891 86.999 107.66
346 76.518 22.590 13.294 25.076 15.575 4.0364
347 100.00 23.824 24.308 44.330 25.674 7.9919
348 62.018 11.822 10.151 15.636 9.2127 2.7756
349 75.947 0.0000 0.0000 22.942 12.313 2.0281
350 81.424 18.801 56.042 32.597 18.274 28.369
351 85.026 15.380 100.00 47.873 24.178 96.696
352 31.430 9.0865 41.360 7.1428 4.3277 14.679
353 33.372 70.135 43.720 23.515 35.918 21.587
354 38.070 88.681 60.754 38.704 59.780 41.036
355 49.510 100.00 82.002 56.368 80.774 73.287
356 0.0000 34.231 20.121 4.9959 8.0335 5.2842
357 26.068 34.704 18.166 7.2463 9.3512 4.8761
358 31.962 50.192 26.608 13.072 18.446 9.1237
359 100.00 24.248 0.0000 43.527 25.445 3.4787
360 100.00 50.715 0.0000 49.645 37.679 5.5181
361 87.973 37.148 16.310 35.970 24.961 5.9146
362 100.00 49.362 24.672 50.087 37.146 10.036
363 100.00 74.328 25.467 60.905 58.687 13.924
364 34.821 11.176 13.313 5.7674 4.0528 2.8330
365 76.016 0.0000 23.807 23.813 12.667 6.3817
366 87.758 30.282 37.859 36.126 22.789 14.444
367 87.506 42.180 61.073 42.354 29.449 35.345
368 90.432 44.028 91.678 53.939 35.156 81.727
369 45.223 64.036 30.740 22.435 31.214 12.913
370 49.270 65.115 63.748 29.481 34.981 40.168
371 60.085 66.390 83.402 39.999 40.666 68.729
372 33.139 35.732 71.321 16.725 13.654 46.370
373 35.879 40.262 89.483 23.979 18.320 75.951
374 50.537 41.721 100.00 32.958 23.043 97.262
375 65.384 50.566 44.380 27.447 25.818 19.918
376 87.494 61.484 43.792 45.941 41.502 21.536
377 87.915 82.347 57.717 59.534 64.435 37.571
378 0.0000 0.0000 29.574 2.2714 1.5085 7.6968
379 0.0000 73.930 51.188 22.940 38.435 28.170
380 7.2442 82.171 94.800 39.790 52.866 91.956
381 30.173 100.00 100.00 57.302 80.508 107.07
382 23.675 0.0000 24.768 3.7598 2.3197 5.7893
383 63.989 0.0000 70.434 24.106 11.975 44.456
384 65.720 31.557 75.677 29.303 18.757 52.886
385 66.530 72.242 100.00 52.224 50.597 101.57
386 22.405 48.936 49.710 13.690 17.842 23.386
387 24.886 51.283 79.271 21.636 22.298 59.447
388 24.603 68.521 87.180 31.234 37.523 75.110
389 26.209 25.670 57.508 10.365 8.0449 29.059
390 49.837 37.247 59.721 19.362 15.826 32.436
391 69.050 49.229 62.485 32.297 27.292 37.061
392 78.315 43.615 78.708 40.560 28.581 58.783
393 84.706 64.396 86.583 55.112 46.971 74.619
394 0.0000 100.00 28.303 37.569 72.266 18.931
395 0.0000 100.00 51.968 40.564 73.464 34.707
396 0.0000 100.00 75.598 45.910 75.602 62.867
397 0.0000 56.952 26.775 12.101 21.533 9.8386
398 60.823 88.348 30.980 42.534 61.931 17.899
399 71.789 100.00 40.171 58.150 82.735 26.328
400 74.445 51.465 6.9792 30.157 27.993 5.2330
401 75.471 70.107 0.0000 38.551 43.981 7.3189
402 100.00 77.017 0.0000 61.462 61.310 9.4572
403 54.635 50.673 0.0000 19.395 22.061 4.0966
404 65.223 66.337 13.747 31.013 37.331 8.0112
405 75.566 85.925 8.0285 47.934 62.448 11.067
406 78.966 100.00 19.178 60.897 84.365 16.804
407 68.326 86.571 68.778 51.568 64.081 50.873
408 68.692 86.649 85.438 56.640 66.217 76.255
409 78.771 100.00 84.664 72.476 88.981 78.482
410 0.0000 22.319 0.0000 2.4443 3.8883 1.4814
411 13.836 24.386 8.5050 3.5517 4.8454 2.3440
412 27.787 27.246 0.0000 5.6986 6.5930 1.8321
413 43.668 32.957 24.126 11.524 10.991 6.8198
414 52.709 36.677 40.178 17.116 14.852 15.390
415 51.769 73.294 45.181 31.072 42.230 23.500
416 100.00 74.277 49.815 63.729 59.773 28.934
417 73.801 34.459 51.978 29.185 20.163 25.026
418 43.142 19.737 35.625 10.374 7.3146 11.492
419 62.365 17.069 53.517 20.469 11.823 25.303
420 100.00 32.410 69.847 52.833 31.309 45.890
421 100.00 55.042 77.177 61.123 44.705 58.463
422 100.00 78.496 77.802 72.454 67.075 63.136
423 0.0000 0.0000 63.452 7.4397 3.5755 34.918
424 9.9374 9.2115 91.257 16.239 7.6423 77.605
425 23.768 47.410 100.00 27.510 22.629 97.469
426 47.120 62.678 100.00 38.978 36.942 99.628
427 15.970 65.970 48.240 19.339 30.682 24.325
428 12.404 81.802 67.123 31.348 49.161 46.933
429 49.292 82.441 84.000 44.390 55.925 72.451
430 89.750 61.096 62.806 50.980 43.460 39.570
431 92.200 81.373 88.820 70.827 68.389 81.935
432 50.307 0.0000 0.0000 9.8558 5.5661 1.4150
433 54.266 24.058 0.0000 13.110 9.7231 2.0460
434 77.132 34.645 0.0000 27.199 19.678 3.2255
435 87.526 61.437 15.609 43.444 40.474 8.3549
436 90.186 79.768 12.663 54.803 60.233 10.974
437 89.549 87.811 27.673 60.268 70.565 17.138
438 50.678 79.736 0.0000 31.218 48.074 8.4951
439 58.210 90.852 9.6697 41.819 64.293 11.959
440 71.465 100.00 0.0000 55.560 81.677 13.699
441 100.00 100.00 25.916 78.211 93.243 19.856
442 40.594 28.813 7.4171 9.1020 8.7107 2.6680
443 57.906 37.398 12.942 17.387 15.479 4.3569
444 65.494 84.947 48.555 44.839 59.502 28.807
445 72.328 100.00 62.625 62.336 84.447 46.674
446 0.0000 19.227 32.772 3.6563 3.8038 9.6203
447 11.666 38.090 64.169 12.368 12.397 37.210
448 30.213 74.026 65.876 28.997 41.292 43.981
449 32.716 86.718 84.485 42.403 58.981 73.970
450 33.216 54.802 63.220 20.318 23.947 37.901
451 39.443 61.890 85.823 30.982 32.918 71.847
452 19.642 21.158 100.00 21.482 11.428 95.625
453 15.493 0.0000 50.734 5.7952 3.0158 21.832
454 37.599 0.0000 53.997 10.283 5.2637 25.031
455 42.710 0.0000 79.959 18.012 8.5246 58.064
456 55.524 8.2388 89.135 26.008 12.696 74.119
457 65.986 0.0000 100.00 34.915 16.419 95.881
458 76.260 10.437 72.763 32.251 16.667 48.131
459 100.00 14.664 84.036 54.552 28.207 66.626
460 100.00 34.498 100.00 63.154 36.104 98.193
461 100.00 67.141 100.00 74.159 58.111 101.86
462 8.1638 8.9303 13.425 1.8905 1.8693 2.6371
463 14.259 47.478 11.643 8.7389 15.023 4.4952
464 13.322 67.035 11.928 16.297 30.241 7.0830
465 22.720 77.737 24.406 23.637 42.322 12.331
466 11.235 37.195 37.311 7.5815 10.149 13.174
467 0.0000 48.356 49.976 11.872 16.627 23.476
468 0.0000 48.964 75.712 17.781 19.298 53.650
469 63.842 49.183 88.773 36.868 28.769 75.989
470 48.265 0.0000 23.841 9.9265 5.5067 5.7431
471 58.576 0.0000 45.432 16.450 8.6063 17.973
472 69.384 18.308 86.994 32.961 17.447 70.814
473 11.656 16.463 47.761 5.8064 4.2930 19.549
474 0.0000 22.840 58.298 7.8544 6.1571 29.652
475 11.112 62.451 67.528 21.192 28.837 44.059
476 0.0000 75.828 77.317 29.956 42.913 59.971
477 16.533 92.162 86.956 44.389 65.525 79.425
478 0.0000 16.923 81.952 13.253 7.2775 61.289
479 0.0000 34.163 100.00 22.255 14.914 96.257
480 78.866 52.536 100.00 51.184 37.328 99.060
481 27.845 54.060 0.0000 12.551 20.279 4.1131
482 34.436 69.750 8.1956 20.836 34.565 7.1321
483 50.594 100.00 20.910 46.014 76.681 16.612
484 0.0000 47.356 0.0000 7.7405 14.479 3.2468
485 0.0000 79.426 21.027 22.686 43.326 11.438
486 3.9228 82.924 36.338 26.241 48.184 18.956
487 15.935 95.844 58.324 39.390 67.889 39.934
488 24.404 100.00 75.468 47.855 76.609 62.769
489 86.788 90.925 71.122 67.441 76.641 55.586
490 100.00 100.00 72.982 86.021 96.367 60.992
END_DATA
CTI1   

ORIGINATOR "Argyll targen"
KEYWORD "DENSITY_EXTREME_VALUES"
DENSITY_EXTREME_VALUES "8"
CREATED "October 20, 2013"
DESCRIPTOR "Argyll Calibration Target chart information 1"

KEYWORD "INDEX"
NUMBER_OF_FIELDS 7
BEGIN_DATA_FORMAT
INDEX RGB_R RGB_G RGB_B XYZ_X XYZ_Y XYZ_Z
END_DATA_FORMAT

NUMBER_OF_SETS 8
BEGIN_DATA
