dispcalGUI/ti1/d3-e4-s41-g121-m0-f2527-ceRGBv2.ti1
CTI1   

ORIGINATOR "Argyll targen"
KEYWORD "OFPS_PATCHES"
OFPS_PATCHES "2280"
CREATED "Sat Oct 19 13:13:00 2013"
KEYWORD "COMP_GREY_STEPS"
COMP_GREY_STEPS "121"
KEYWORD "BLACK_COLOR_PATCHES"
BLACK_COLOR_PATCHES "4"
KEYWORD "APPROX_WHITE_POINT"
APPROX_WHITE_POINT "96.415999 99.996948 82.488027"
DESCRIPTOR "Argyll Calibration Target chart information 1"
KEYWORD "ACCURATE_EXPECTED_VALUES"
ACCURATE_EXPECTED_VALUES "true"
KEYWORD "WHITE_COLOR_PATCHES"
WHITE_COLOR_PATCHES "4"
KEYWORD "SINGLE_DIM_STEPS"
SINGLE_DIM_STEPS "41"
KEYWORD "COLOR_REP"
COLOR_REP "RGB"

NUMBER_OF_FIELDS 7
BEGIN_DATA_FORMAT
SAMPLE_ID RGB_R RGB_G RGB_B XYZ_X XYZ_Y XYZ_Z
END_DATA_FORMAT

NUMBER_OF_SETS 2527
BEGIN_DATA
1 100.00000 100.00000 100.00000 96.416000 99.996900 82.488000
2 26.617500 16.049000 0.0000000 3.5999200 2.8579300 0.1430810
3 59.286600 20.285500 0.0000000 18.320800 10.597900 0.2076420
4 69.696600 100.00000 0.0000000 44.023300 73.120800 6.7840500
5 69.298900 100.00000 35.251400 44.831800 73.611400 13.313000
6 99.166700 99.166700 99.166700 94.353200 97.857500 80.723200
7 15.000000 0.0000000 0.0000000 1.2406100 0.6110310 1e-070000
8 15.805300 0.0000000 7.8925100 1.4590000 0.7279500 0.6609680
9 12.500000 0.0000000 0.0000000 0.9641380 0.4748640 0.0000000
10 10.833300 10.833300 10.833300 1.1937800 1.2381200 1.0213300
11 0.0000000 33.252800 21.682100 1.8287700 4.8747000 3.1144100
12 0.0000000 40.671600 23.528800 2.6140500 7.3279200 3.7867700
13 0.0000000 49.764400 36.480900 4.5029900 11.690100 8.2466600
14 21.153200 74.734100 52.570900 13.464100 31.469000 18.883600
15 32.687600 81.202900 0.0000000 15.284600 37.793600 3.9916300
16 32.785800 100.00000 0.0000000 22.643400 62.590700 6.7840500
17 43.038800 100.00000 36.749800 27.656900 65.160700 13.902600
18 55.264600 100.00000 47.345700 35.095700 68.898200 19.112000
19 47.120400 61.239500 64.233600 20.229400 25.503400 27.053400
20 48.058700 72.387700 73.059200 24.976600 35.541800 37.260900
21 35.000000 0.0000000 0.0000000 5.5259700 2.7216900 3e-070000
22 37.500000 0.0000000 0.0000000 6.3785200 3.1415900 3e-070000
23 40.000000 0.0000000 0.0000000 7.3158400 3.6032500 4e-070000
24 41.583400 12.079100 0.0000000 8.2061400 4.7714500 0.0962398
25 42.500000 0.0000000 0.0000000 8.3397100 4.1075300 4e-070000
26 45.000000 0.0000000 0.0000000 9.4554500 4.6570600 5e-070000
27 47.500000 0.0000000 0.0000000 10.666000 5.2533100 5e-070000
28 50.000000 0.0000000 0.0000000 11.975900 5.8984700 6e-070000
29 52.500000 0.0000000 0.0000000 13.389600 6.5947200 7e-070000
30 55.000000 0.0000000 0.0000000 14.909600 7.3433700 8e-070000
31 57.500000 0.0000000 0.0000000 16.540500 8.1466300 8e-070000
32 60.000000 0.0000000 0.0000000 18.286400 9.0065500 9e-070000
33 62.500000 0.0000000 0.0000000 20.150400 9.9246200 1e-060000
34 65.000000 0.0000000 0.0000000 22.138200 10.903600 1.1e-0600
35 67.500000 0.0000000 0.0000000 24.251700 11.944600 1.2e-0600
36 70.000000 0.0000000 0.0000000 26.495900 13.049900 1.4e-0600
37 72.500000 0.0000000 0.0000000 28.874500 14.221500 1.5e-0600
38 75.000000 0.0000000 0.0000000 31.391700 15.461200 1.6e-0600
39 77.500000 0.0000000 0.0000000 34.050300 16.770700 1.7e-0600
40 80.000000 0.0000000 0.0000000 36.855200 18.152200 1.9e-0600
41 82.500000 0.0000000 0.0000000 39.809700 19.607400 2e-060000
42 85.000000 0.0000000 0.0000000 42.918900 21.138700 2.2e-0600
43 87.500000 0.0000000 0.0000000 46.185900 22.747800 2.4e-0600
44 90.000000 0.0000000 0.0000000 49.613900 24.436200 2.5e-0600
45 100.00000 18.214500 0.0000000 65.478600 33.569900 0.1740870
46 100.00000 47.134500 51.930900 70.621400 43.291400 16.297500
47 100.00000 68.519000 75.486000 78.575000 59.122600 39.761400
48 100.00000 88.643000 80.598900 85.940300 80.707500 48.698300
49 45.732500 41.824700 26.903400 12.693400 12.677500 4.6707100
50 50.522400 64.981600 51.177900 20.960500 28.033100 17.012100
51 62.844300 100.00000 91.261600 48.966100 76.402300 66.635800
52 12.741200 14.925700 0.0000000 1.3263200 1.6277600 0.1285260
53 10.000000 10.000000 10.000000 1.0853100 1.1256200 0.9285330
54 0.0000000 15.000000 0.0000000 0.3397480 1.1487700 0.1294390
55 0.0000000 17.500000 0.0000000 0.4288550 1.4500600 0.1633880
56 0.0000000 20.000000 0.0000000 0.5321740 1.7994100 0.2027500
57 0.0000000 22.500000 0.0000000 0.6510610 2.2013900 0.2480440
58 0.0000000 25.000000 0.0000000 0.7862640 2.6585500 0.2995550
59 0.0000000 27.500000 0.0000000 0.9389800 3.1749200 0.3577370
60 0.0000000 30.000000 0.0000000 1.1103200 3.7542600 0.4230160
61 0.0000000 32.500000 0.0000000 1.3014400 4.4004700 0.4958280
62 0.0000000 35.000000 0.0000000 1.5133200 5.1169100 0.5765530
63 0.0000000 37.500000 0.0000000 1.7468000 5.9063500 0.6655040
64 0.0000000 40.000000 0.0000000 2.0034900 6.7742800 0.7633000
65 0.0000000 42.500000 0.0000000 2.2838800 7.7223600 0.8701250
66 0.0000000 45.000000 0.0000000 2.5894300 8.7555100 0.9865360
67 0.0000000 47.500000 0.0000000 2.9209600 9.8764900 1.1128400
68 0.0000000 50.000000 0.0000000 3.2796900 11.089400 1.2495100
69 0.0000000 52.500000 0.0000000 3.6668200 12.398400 1.3970000
70 0.0000000 55.000000 0.0000000 4.0830900 13.805900 1.5555900
71 0.0000000 57.500000 0.0000000 4.5297200 15.316100 1.7257600
72 0.0000000 60.000000 0.0000000 5.0078500 16.932800 1.9079200
73 0.0000000 62.500000 0.0000000 5.5183200 18.658800 2.1024000
74 0.0000000 65.000000 0.0000000 6.0626800 20.499400 2.3097900
75 0.0000000 67.500000 0.0000000 6.6414800 22.456400 2.5303000
76 0.0000000 70.000000 0.0000000 7.2560700 24.534500 2.7644600
77 0.0000000 72.500000 0.0000000 7.9074700 26.737100 3.0126300
78 0.0000000 75.000000 0.0000000 8.5968100 29.067900 3.2752600
79 0.0000000 77.500000 0.0000000 9.3248800 31.529700 3.5526400
80 0.0000000 80.000000 0.0000000 10.093000 34.127000 3.8453000
81 0.0000000 82.500000 0.0000000 10.902100 36.862800 4.1535600
82 0.0000000 85.000000 0.0000000 11.753600 39.741800 4.4779500
83 0.0000000 87.500000 0.0000000 12.648300 42.766900 4.8188100
84 0.0000000 90.000000 0.0000000 13.587100 45.941200 5.1764800
85 0.0000000 92.500000 0.0000000 14.571300 49.269100 5.5514500
86 0.0000000 95.000000 0.0000000 15.601800 52.753300 5.9440400
87 0.0000000 97.500000 0.0000000 16.680000 56.399000 6.3548200
88 0.0000000 100.00000 0.0000000 17.806600 60.208400 6.7840500
89 22.876300 100.00000 53.901600 23.227100 63.112600 23.350100
90 45.820200 100.00000 81.757700 35.781200 69.702600 52.094400
91 55.591800 100.00000 100.00000 46.680000 75.500700 82.488000
92 8.3333300 8.3333300 8.3333300 0.8897170 0.9227610 0.7611910
93 0.0000000 0.0000000 10.000000 0.1529520 0.0873920 0.8521680
94 0.0000000 0.0000000 15.000000 0.2592530 0.1481290 1.4444200
95 0.0000000 0.0000000 17.500000 0.3272490 0.1869800 1.8232600
96 0.0000000 0.0000000 20.000000 0.4060880 0.2320270 2.2625100
97 0.0000000 0.0000000 22.500000 0.4968080 0.2838610 2.7679600
98 0.0000000 0.0000000 25.000000 0.5999780 0.3428100 3.3427700
99 0.0000000 0.0000000 30.000000 0.8472580 0.4840980 4.7204800
100 0.0000000 0.0000000 32.500000 0.9930930 0.5674230 5.5330000
101 0.0000000 0.0000000 35.000000 1.1547800 0.6598060 6.4338300
102 0.0000000 0.0000000 37.500000 1.3329400 0.7616000 7.4264300
103 0.0000000 0.0000000 40.000000 1.5288100 0.8735180 8.5177500
104 0.0000000 0.0000000 42.500000 1.7427700 0.9957680 9.7098300
105 0.0000000 0.0000000 45.000000 1.9759300 1.1289900 11.008900
106 0.0000000 0.0000000 47.500000 2.2289100 1.2735300 12.418400
107 0.0000000 0.0000000 50.000000 2.5026500 1.4299400 13.943500
108 0.0000000 0.0000000 52.500000 2.7980600 1.5987300 15.589300
109 0.0000000 0.0000000 55.000000 3.1157000 1.7802200 17.359100
110 0.0000000 10.994700 57.415300 3.6691100 2.7272700 19.277100
111 0.0000000 0.0000000 57.500000 3.4565100 1.9749500 19.257900
112 0.0000000 0.0000000 60.000000 3.8213700 2.1834200 21.290700
113 0.0000000 0.0000000 62.500000 4.2108900 2.4059800 23.460900
114 0.0000000 0.0000000 65.000000 4.6262800 2.6433200 25.775200
115 0.0000000 0.0000000 67.500000 5.0679400 2.8956700 28.236000
116 0.0000000 0.0000000 70.000000 5.5369300 3.1636300 30.848900
117 0.0000000 0.0000000 72.500000 6.0339900 3.4476400 33.618300
118 0.0000000 0.0000000 75.000000 6.5600100 3.7481900 36.549000
119 0.0000000 0.0000000 77.500000 7.1155800 4.0656300 39.644300
120 0.0000000 0.0000000 80.000000 7.7017400 4.4005500 42.910100
121 0.0000000 0.0000000 82.500000 8.3191500 4.7533200 46.350000
122 0.0000000 0.0000000 85.000000 8.9688900 5.1245500 49.970000
123 0.0000000 0.0000000 87.500000 9.6515900 5.5146300 53.773700
124 0.0000000 0.0000000 90.000000 10.368000 5.9239400 57.764900
125 0.0000000 0.0000000 92.500000 11.119000 6.3530600 61.949200
126 0.0000000 57.523900 79.251200 12.057100 19.629500 43.641400
127 0.0000000 68.925000 86.847600 16.457600 29.037000 55.425100
128 9.1666700 9.1666700 9.1666700 0.9845360 1.0211000 0.8423130
129 0.0000000 7.5000000 0.0000000 0.1478310 0.4998530 0.0563215
130 0.0000000 2.5000000 0.0000000 0.0491865 0.1663120 0.0187393
131 5.0000000 0.0000000 0.0000000 0.3602060 0.1774110 0.0000000
132 0.0000000 10.000000 0.0000000 0.2004410 0.6777410 0.0763652
133 0.0000000 0.0000000 5.0000000 0.0752733 0.0430089 0.4193840
134 0.0000000 0.0000000 2.5000000 0.0375330 0.0214452 0.2091140
135 7.5000000 0.0000000 0.0000000 0.5398130 0.2658720 0.0000000
136 0.0000000 5.0000000 0.0000000 0.0986448 0.3335420 0.0375822
137 0.0000000 0.0000000 7.5000000 0.1128060 0.0644541 0.6284980
138 3.3333300 3.3333300 3.3333300 0.3555920 0.3687990 0.3042250
139 0.0000000 12.500000 0.0000000 0.2640350 0.8927680 0.1005940
140 4.1666700 4.1666700 4.1666700 0.4448580 0.4613810 0.3805950
141 0.8333330 0.8333330 0.8333330 0.0892659 0.0925813 0.0763708
142 10.000000 0.0000000 0.0000000 0.7319210 0.3604910 0.0000000
143 1.6666700 1.6666700 1.6666700 0.1785320 0.1851630 0.1527420
144 2.5000000 2.5000000 2.5000000 0.2663260 0.2762180 0.2278540
145 5.0000000 5.0000000 5.0000000 0.5341240 0.5539620 0.4569660
146 5.8333300 5.8333300 5.8333300 0.6229120 0.6460470 0.5329280
147 13.333300 13.333300 13.333300 1.5586000 1.6164900 1.3334500
148 14.166700 14.166700 14.166700 1.6951000 1.7580500 1.4502300
149 15.000000 15.000000 15.000000 1.8396100 1.9079300 1.5738600
150 15.833300 15.833300 15.833300 1.9930200 2.0670400 1.7051100
151 17.500000 17.500000 17.500000 2.3220900 2.4083300 1.9866500
152 18.333300 18.333300 18.333300 2.4999600 2.5928100 2.1388200
153 19.166700 19.166700 19.166700 2.6866200 2.7864000 2.2985200
154 20.833300 20.833300 20.833300 3.0867900 3.2014400 2.6408800
155 21.666700 21.666700 21.666700 3.3009600 3.4235600 2.8241200
156 22.500000 22.500000 22.500000 3.5252500 3.6561800 3.0160000
157 23.333300 23.333300 23.333300 3.7593900 3.8990200 3.2163200
158 24.166700 24.166700 24.166700 4.0024400 4.1510900 3.4242600
159 25.000000 25.000000 25.000000 4.2573300 4.4154400 3.6423200
160 25.833300 25.833300 25.833300 4.5221800 4.6901400 3.8689200
161 26.666700 26.666700 26.666700 4.7982200 4.9764300 4.1050800
162 27.500000 27.500000 27.500000 5.0842200 5.2730500 4.3497700
163 28.333300 28.333300 28.333300 5.3822900 5.5821900 4.6047800
164 29.166700 29.166700 29.166700 5.6912100 5.9025800 4.8690700
165 30.000000 30.000000 30.000000 6.0119700 6.2352600 5.1435000
166 30.833300 30.833300 30.833300 6.3445700 6.5802100 5.4280500
167 31.666700 31.666700 31.666700 6.6904900 6.9389800 5.7240000
168 32.500000 32.500000 32.500000 7.0467800 7.3085100 6.0288300
169 34.166700 34.166700 34.166700 7.7993100 8.0889800 6.6726400
170 35.000000 35.000000 35.000000 8.1940700 8.4984100 7.0103800
171 35.833300 35.833300 35.833300 8.6021500 8.9216400 7.3595100
172 36.666700 36.666700 36.666700 9.0235400 9.3586800 7.7200300
173 37.500000 37.500000 37.500000 9.4582500 9.8095400 8.0919400
174 38.333300 38.333300 38.333300 9.9077400 10.275700 8.4765000
175 39.166700 39.166700 39.166700 10.370500 10.755700 8.8724500
176 40.000000 40.000000 40.000000 10.848100 11.251000 9.2810500
177 40.833300 40.833300 40.833300 11.339000 11.760200 9.7010400
178 41.666700 41.666700 41.666700 11.845100 12.285000 10.134000
179 42.500000 42.500000 42.500000 12.366400 12.825700 10.580000
180 43.333300 43.333300 43.333300 12.902400 13.381600 11.038600
181 44.166700 44.166700 44.166700 13.453200 13.952900 11.509800
182 45.000000 45.000000 45.000000 14.020800 14.541600 11.995400
183 45.833300 45.833300 45.833300 14.603500 15.145800 12.493900
184 46.666700 46.666700 46.666700 15.201500 15.766100 13.005500
185 47.500000 47.500000 47.500000 15.815900 16.403300 13.531200
186 48.333300 48.333300 48.333300 16.446600 17.057500 14.070800
187 49.166700 49.166700 49.166700 17.093600 17.728500 14.624300
188 50.000000 50.000000 50.000000 17.758300 18.417800 15.193000
189 50.833300 50.833300 50.833300 18.439300 19.124100 15.775600
190 51.666700 51.666700 51.666700 19.138100 19.848900 16.373400
191 52.500000 52.500000 52.500000 19.854400 20.591800 16.986300
192 53.333300 53.333300 53.333300 20.587300 21.351900 17.613300
193 54.166700 54.166700 54.166700 21.339200 22.131800 18.256600
194 55.000000 55.000000 55.000000 22.108400 22.929500 18.914700
195 55.833300 55.833300 55.833300 22.895300 23.745700 19.587900
196 56.666700 56.666700 56.666700 23.702000 24.582300 20.278100
197 57.500000 57.500000 57.500000 24.526700 25.437700 20.983700
198 58.333300 58.333300 58.333300 25.370000 26.312200 21.705100
199 59.166700 59.166700 59.166700 26.233200 27.207500 22.443600
200 60.000000 60.000000 60.000000 27.115600 28.122700 23.198600
201 60.833300 60.833300 60.833300 28.017400 29.058000 23.970100
202 61.666700 61.666700 61.666700 28.938600 30.013400 24.758200
203 62.500000 62.500000 62.500000 29.879600 30.989400 25.563300
204 63.333300 63.333300 63.333300 30.841500 31.987000 26.386200
205 64.166700 64.166700 64.166700 31.824700 33.006700 27.227400
206 65.000000 65.000000 65.000000 32.827100 34.046300 28.085000
207 65.833300 65.833300 65.833300 33.850300 35.107500 28.960400
208 66.666700 66.666700 66.666700 34.895700 36.191800 29.854800
209 67.500000 67.500000 67.500000 35.961100 37.296700 30.766300
210 68.333300 68.333300 68.333300 37.048700 38.424700 31.696700
211 69.166700 69.166700 69.166700 38.157700 39.574900 32.645500
212 70.000000 70.000000 70.000000 39.288900 40.748100 33.613400
213 70.833300 70.833300 70.833300 40.442400 41.944400 34.600200
214 71.666700 71.666700 71.666700 41.618100 43.163800 35.606000
215 72.500000 72.500000 72.500000 42.816000 44.406200 36.630900
216 73.333300 73.333300 73.333300 44.037300 45.672800 37.675800
217 74.166700 74.166700 74.166700 45.280300 46.962000 38.739200
218 75.000000 75.000000 75.000000 46.548500 48.277300 39.824200
219 75.833300 75.833300 75.833300 47.838900 49.615600 40.928200
220 76.666700 76.666700 76.666700 49.153000 50.978500 42.052500
221 77.500000 77.500000 77.500000 50.490700 52.366000 43.197000
222 78.333300 78.333300 78.333300 51.852200 53.778000 44.361800
223 79.166700 79.166700 79.166700 53.239000 55.216300 45.548200
224 80.000000 80.000000 80.000000 54.650000 56.679700 46.755400
225 80.833300 80.833300 80.833300 56.086100 58.169100 47.984000
226 81.666700 81.666700 81.666700 57.546000 59.683300 49.233100
227 82.500000 82.500000 82.500000 59.031000 61.223500 50.503600
228 83.333300 83.333300 83.333300 60.542700 62.791200 51.796800
229 84.166700 84.166700 84.166700 62.079400 64.385100 53.111600
230 85.000000 85.000000 85.000000 63.641400 66.005100 54.448000
231 85.833300 85.833300 85.833300 65.230100 67.652800 55.807100
232 86.666700 86.666700 86.666700 66.844600 69.327300 57.188400
233 87.500000 87.500000 87.500000 68.485700 71.029300 58.592500
234 88.333300 88.333300 88.333300 70.152000 72.757500 60.018100
235 89.166700 89.166700 89.166700 71.846700 74.515100 61.467900
236 90.000000 90.000000 90.000000 73.568900 76.301300 62.941400
237 90.833300 90.833300 90.833300 75.316900 78.114200 64.436900
238 91.666700 91.666700 91.666700 77.093400 79.956700 65.956800
239 92.500000 92.500000 92.500000 78.898100 81.828400 67.500700
240 93.333300 93.333300 93.333300 80.729300 83.727700 69.067400
241 94.166700 94.166700 94.166700 82.590200 85.657600 70.659400
242 95.000000 95.000000 95.000000 84.477600 87.615200 72.274200
243 95.833300 95.833300 95.833300 86.395200 89.604000 73.914800
244 96.666700 96.666700 96.666700 88.341100 91.622100 75.579600
245 97.500000 97.500000 97.500000 90.315700 93.670100 77.269000
246 98.333300 98.333300 98.333300 92.320100 95.748900 78.983800
247 30.000000 0.0000000 0.0000000 4.0543900 1.9969000 2e-070000
248 32.500000 0.0000000 0.0000000 4.7522600 2.3406100 2e-070000
249 54.145800 28.219900 0.0000000 15.364500 10.417100 0.3758280
250 54.549300 59.886000 0.0000000 19.612300 24.060900 1.8993500
251 58.195500 82.496700 0.0000000 27.915800 45.239300 4.1531400
252 27.500000 0.0000000 0.0000000 3.4287300 1.6887400 2e-070000
253 92.500000 0.0000000 0.0000000 53.207800 26.206300 2.7e-0600
254 95.000000 0.0000000 0.0000000 56.970600 28.059500 2.9e-0600
255 97.500000 0.0000000 0.0000000 60.907700 29.998700 3.1e-0600
256 0.0000000 18.771900 43.217200 2.2874500 2.6549200 10.254500
257 0.0000000 25.286000 74.620400 7.2809900 6.4158200 36.399100
258 0.0000000 37.455000 100.00000 15.330200 13.655200 76.367800
259 0.0000000 45.933700 100.00000 16.297900 16.927300 76.736500
260 0.0000000 58.562300 100.00000 18.316700 23.753400 77.505600
261 69.096700 60.822600 0.0000000 30.842000 30.131600 1.9705400
262 69.485500 75.995900 0.0000000 34.904900 42.849500 3.3839600
263 75.634300 84.581500 10.754000 43.826900 55.131600 5.3514100
264 77.297700 100.00000 0.0000000 51.636300 76.870500 6.7840500
265 92.560000 100.00000 0.0000000 71.102700 86.458200 6.7840500
266 55.448700 56.072700 100.00000 33.053000 29.688500 77.331200
267 71.694600 71.109500 100.00000 49.221900 47.097200 78.576800
268 13.684900 0.0000000 35.205200 2.2580700 1.2043000 6.5114200
269 32.413500 0.0000000 66.614600 9.6353200 5.1326600 27.347700
270 67.468900 0.0000000 75.090800 30.804200 15.690700 36.658400
271 33.333300 33.333300 33.333300 7.4163900 7.6918400 6.3450400
272 43.447500 78.712600 38.439800 19.848300 37.885000 11.517600
273 25.000000 0.0000000 0.0000000 2.8710800 1.4140800 1e-070000
274 36.712900 0.0000000 17.353700 6.4243100 3.1896100 1.7996100
275 45.431700 0.0000000 25.796100 10.293400 5.1198900 3.5413600
276 44.870600 28.894500 63.283400 14.765500 10.596100 24.563900
277 48.557600 51.648400 69.827200 20.243400 20.606200 32.008600
278 0.0000000 0.0000000 27.500000 0.7165120 0.4093930 3.9920300
279 0.0000000 0.0000000 95.000000 11.905300 6.8023300 66.330200
280 0.0000000 0.0000000 97.500000 12.728100 7.2724300 70.914200
281 0.0000000 0.0000000 100.00000 13.587800 7.7636400 75.704000
282 0.0000000 17.445700 100.00000 14.014500 9.2065600 75.866600
283 32.469300 45.140100 100.00000 20.938300 18.915900 76.697300
284 0.0000000 0.0000000 12.500000 0.2014790 0.1151190 1.1225400
285 11.666700 11.666700 11.666700 1.3081300 1.3567100 1.1191600
286 0.0000000 18.631200 15.224200 0.7388110 1.7536000 1.6567500
287 64.340900 50.075100 62.690300 29.134500 24.190200 24.885900
288 68.935000 76.712000 68.146800 39.801600 46.274000 32.360700
289 74.400800 100.00000 77.365400 55.666600 79.414100 46.257200
290 30.522200 37.034700 25.053600 6.4985900 8.1642500 4.0044400
291 38.855000 35.640500 100.00000 22.034500 16.462100 76.302500
292 19.754200 0.0000000 29.345100 2.7159600 1.4016800 4.5225000
293 59.835400 0.0000000 30.453700 19.040400 9.4467000 4.8616700
294 61.597600 16.946100 31.908800 20.829200 11.513100 5.4888200
295 78.772100 56.096400 36.755300 41.012400 32.650400 8.7495200
296 100.00000 58.994000 37.761100 71.185700 49.066500 9.3690100
297 100.00000 68.439000 67.195100 76.902500 58.112000 30.544600
298 46.279300 0.0000000 74.897800 16.600400 8.6916200 36.425800
299 59.191300 0.0000000 100.00000 31.296300 16.485600 75.704000
300 73.901400 0.0000000 100.00000 43.855900 22.671500 75.704000
301 86.402200 0.0000000 100.00000 58.318900 29.794900 75.704000
302 81.861800 36.618100 100.00000 54.291200 32.612000 76.337100
303 86.128100 57.268900 100.00000 62.448000 44.790200 77.413500
304 91.128800 81.693800 100.00000 75.440000 68.954000 79.756400
305 80.657800 33.217400 0.0000000 38.977900 23.126400 0.5181510
306 100.00000 46.097100 0.0000000 67.753300 41.261300 1.0407200
307 100.00000 56.070900 0.0000000 69.292300 46.465100 1.6270700
308 100.00000 75.521100 0.0000000 73.766900 61.594800 3.3318200
309 100.00000 85.075100 0.0000000 76.801500 71.855300 4.4879400
310 100.00000 100.00000 0.0000000 82.828200 92.233300 6.7840500
311 0.0000000 41.951500 63.294100 6.5603900 9.9873100 25.026400
312 0.0000000 76.457500 71.824300 14.913200 33.855900 36.288900
313 0.0000000 53.288400 54.109000 6.7946600 14.545100 18.159400
314 0.0000000 79.465200 65.030600 14.556900 36.206300 29.585900
315 0.0000000 91.977300 100.00000 27.949500 56.324100 81.175600
316 100.00000 100.00000 100.00000 96.416000 99.996900 82.488000
317 16.491300 31.767400 0.0000000 2.6723700 4.9082600 0.4737450
318 33.160500 38.845100 0.0000000 6.8308200 8.8007500 0.7169920
319 40.488500 41.431300 0.0000000 9.6696700 11.005300 0.8233330
320 48.329000 63.105700 0.0000000 16.736400 24.556400 2.1515200
321 53.756900 100.00000 0.0000000 31.946900 67.172900 6.7840500
322 82.572800 100.00000 55.083800 60.831700 81.645900 24.204500
323 83.234000 100.00000 77.167500 65.553200 84.279900 46.007000
324 88.938300 100.00000 92.280200 76.996200 90.232200 68.357900
325 100.00000 0.0000000 11.020900 65.193500 32.123100 0.9572810
326 100.00000 0.0000000 0.0000000 65.021600 32.024900 3.3e-0600
327 100.00000 48.639500 40.282700 69.654800 43.329700 9.8209900
328 100.00000 100.00000 52.323600 85.604600 93.819600 22.252600
329 100.00000 100.00000 78.124400 90.087300 96.380900 47.227800
330 100.00000 100.00000 86.069500 92.085100 97.522400 58.358700
331 20.000000 20.000000 20.000000 2.8815200 2.9885400 2.4652600
332 16.666700 16.666700 16.666700 2.1531200 2.2330900 1.8420900
333 12.500000 12.500000 12.500000 1.4296500 1.4827500 1.2231300
334 18.926700 17.123600 5.4824100 2.2722000 2.3229400 0.6172010
335 27.668700 53.996500 0.0000000 7.3812000 14.937200 1.4905600
336 38.452900 75.630400 0.0000000 15.502200 32.988200 3.3437400
337 0.0000000 39.988200 73.735300 8.2923700 10.364100 35.808200
338 0.0000000 65.013000 100.00000 19.653400 28.272900 78.014900
339 0.0000000 71.444800 100.00000 21.215700 33.555600 78.610100
340 17.763200 82.744500 100.00000 26.174800 45.691800 79.888600
341 54.930600 0.0000000 49.674500 17.331800 8.7307700 13.738400
342 70.132600 0.0000000 65.827000 31.388200 15.835600 26.572400
343 73.668800 35.612600 64.871000 36.206100 22.726300 26.249700
344 100.00000 48.031900 73.539300 74.265800 45.722300 35.958000
345 100.00000 79.447800 28.617800 75.714800 66.008400 8.0872600
346 100.00000 93.125000 37.537800 81.181800 82.913200 13.090000
347 100.00000 100.00000 37.065200 84.129100 92.976600 14.031600
348 36.511000 35.523700 46.494300 9.7166000 9.4604400 12.432100
349 100.00000 38.649800 57.761800 70.377200 40.316900 20.173400
350 74.373700 0.0000000 22.463400 31.242900 15.427000 2.7601700
351 100.00000 0.0000000 28.891800 65.809100 32.474800 4.3874300
352 100.00000 0.0000000 45.849400 67.081300 33.201700 11.475300
353 100.00000 0.0000000 54.044200 68.013200 33.734200 16.667200
354 100.00000 0.0000000 90.668000 75.586800 38.061500 58.863500
355 100.00000 0.0000000 100.00000 78.609400 39.788500 75.704000
356 100.00000 38.588500 100.00000 80.465200 46.063500 76.411000
357 27.993700 0.0000000 39.226200 5.0132500 2.5847600 8.1691100
358 26.964400 0.0000000 100.00000 16.891300 9.3907100 75.704000
359 0.0000000 69.095400 43.379000 8.8520100 24.809800 12.832100
