dispcalGUI/ti1/d3-e4-s37-g109-m0-f1906-caRGB.ti1
CTI1   

ORIGINATOR "Argyll targen"
KEYWORD "OFPS_PATCHES"
OFPS_PATCHES "1683"
CREATED "Sat Oct 19 13:25:48 2013"
KEYWORD "COMP_GREY_STEPS"
COMP_GREY_STEPS "109"
KEYWORD "BLACK_COLOR_PATCHES"
BLACK_COLOR_PATCHES "4"
KEYWORD "APPROX_WHITE_POINT"
APPROX_WHITE_POINT "95.045781 100.000003 108.905751"
DESCRIPTOR "Argyll Calibration Target chart information 1"
KEYWORD "ACCURATE_EXPECTED_VALUES"
ACCURATE_EXPECTED_VALUES "true"
KEYWORD "WHITE_COLOR_PATCHES"
WHITE_COLOR_PATCHES "4"
KEYWORD "SINGLE_DIM_STEPS"
SINGLE_DIM_STEPS "37"
KEYWORD "COLOR_REP"
COLOR_REP "RGB"

NUMBER_OF_FIELDS 7
BEGIN_DATA_FORMAT
SAMPLE_ID RGB_R RGB_G RGB_B XYZ_X XYZ_Y XYZ_Z
END_DATA_FORMAT

NUMBER_OF_SETS 1906
BEGIN_DATA
1 100.000000 100.000000 100.000000 95.0458000 100.000000 108.906000
2 30.5556000 30.5556000 30.5556000 7.00702000 7.37226000 8.02882000
3 57.7718000 62.7312000 49.8220000 27.9751000 33.0211000 24.7619000
4 64.0664000 68.1345000 47.3697000 33.2802000 39.6052000 23.2233000
5 18.2087000 27.1615000 24.5878000 3.27821000 4.61632000 4.99794000
6 29.8503000 27.9094000 24.2177000 5.99170000 6.20496000 4.99954000
7 37.4513000 50.6392000 22.4869000 11.5132000 17.7603000 5.61821000
8 72.8984000 100.000000 35.9863000 49.3196000 78.3684000 18.8900000
9 90.9800000 100.000000 38.7574000 67.7396000 87.8255000 21.5931000
10 38.8889000 0.00000000 0.00000000 7.22543000 3.72560000 0.33877000
11 41.6667000 0.00000000 0.00000000 8.40929000 4.33602000 0.39427600
12 44.4444000 0.00000000 0.00000000 9.69172000 4.99727000 0.45440400
13 74.6620000 49.3401000 29.3683000 35.5243000 29.4144000 9.61512000
14 100.000000 59.7114000 47.6013000 67.3159000 51.3905000 24.3525000
15 100.000000 69.7720000 49.2195000 70.0346000 59.7457000 26.7593000
16 100.000000 77.1806000 61.0243000 74.5173000 67.7670000 40.1600000
17 97.2222000 0.00000000 0.00000000 54.2027000 27.9481000 2.54134000
18 100.000000 0.00000000 0.00000000 57.6670000 29.7344000 2.70376000
19 100.000000 0.00000000 17.4743000 58.0730000 29.8968000 4.84219000
20 100.000000 23.9852000 50.3226000 62.6274000 34.1131000 24.9042000
21 100.000000 52.0792000 54.4657000 67.0336000 46.6551000 30.4427000
22 57.7637000 34.6005000 33.0190000 20.6924000 15.6314000 10.1609000
23 81.0023000 53.1122000 46.2139000 44.3437000 35.6880000 21.6133000
24 85.5869000 61.0176000 49.8837000 51.2910000 43.9153000 25.7816000
25 47.2222000 0.00000000 0.00000000 11.0740000 5.71000000 0.51921300
26 50.0000000 0.00000000 0.00000000 12.5573000 6.47483000 0.58875900
27 52.7778000 0.00000000 0.00000000 14.1428000 7.29237000 0.66309800
28 55.5556000 0.00000000 0.00000000 15.8317000 8.16318000 0.74228100
29 58.3333000 0.00000000 0.00000000 17.6249000 9.08781000 0.82635800
30 61.1111000 0.00000000 0.00000000 19.5235000 10.0668000 0.91537700
31 63.8889000 0.00000000 0.00000000 21.5286000 11.1006000 1.00938000
32 66.6667000 0.00000000 0.00000000 23.6409000 12.1898000 1.10842000
33 69.4444000 0.00000000 0.00000000 25.8615000 13.3348000 1.21254000
34 72.2222000 0.00000000 0.00000000 28.1912000 14.5360000 1.32177000
35 75.0000000 0.00000000 0.00000000 30.6309000 15.7940000 1.43615000
36 77.7778000 0.00000000 0.00000000 33.1814000 17.1091000 1.55574000
37 80.5556000 0.00000000 0.00000000 35.8435000 18.4817000 1.68055000
38 83.3333000 0.00000000 0.00000000 38.6180000 19.9123000 1.81064000
39 86.1111000 0.00000000 0.00000000 41.5057000 21.4013000 1.94603000
40 88.8889000 0.00000000 0.00000000 44.5073000 22.9490000 2.08676000
41 91.6667000 0.00000000 0.00000000 47.6236000 24.5558000 2.23287000
42 94.4444000 0.00000000 0.00000000 50.8551000 26.2221000 2.38438000
43 100.000000 0.00000000 73.9097000 67.3481000 33.6071000 53.6918000
44 100.000000 0.00000000 86.5983000 71.3837000 35.2215000 74.9462000
45 100.000000 79.2066000 100.000000 87.6029000 74.8366000 106.071000
46 0.00000000 0.00000000 16.6667000 0.36589400 0.14636900 1.92707000
47 12.0370000 12.0370000 12.0370000 0.90322200 0.95030200 1.03493000
48 0.00000000 16.4855000 9.85694000 0.46741200 1.23667000 0.74120400
49 0.00000000 13.8889000 0.00000000 0.24156100 0.81668600 0.09200890
50 0.00000000 16.6667000 0.00000000 0.36071400 1.21953000 0.13739400
51 0.00000000 19.4444000 0.00000000 0.50628300 1.71168000 0.19284000
52 0.00000000 22.2222000 0.00000000 0.67909500 2.29593000 0.25866300
53 0.00000000 25.0000000 0.00000000 0.87988600 2.97478000 0.33514300
54 0.00000000 27.7778000 0.00000000 1.10932000 3.75047000 0.42253300
55 0.00000000 30.5556000 0.00000000 1.36801000 4.62506000 0.52106500
56 0.00000000 33.3333000 0.00000000 1.65651000 5.60045000 0.63095400
57 0.00000000 36.1111000 0.00000000 1.97535000 6.67840000 0.75239700
58 0.00000000 38.8889000 0.00000000 2.32501000 7.86056000 0.88558100
59 0.00000000 41.6667000 0.00000000 2.70595000 9.14848000 1.03068000
60 0.00000000 44.4444000 0.00000000 3.11861000 10.5436000 1.18786000
61 0.00000000 47.2222000 0.00000000 3.56340000 12.0474000 1.35728000
62 0.00000000 50.0000000 0.00000000 4.04071000 13.6611000 1.53908000
63 0.00000000 52.7778000 0.00000000 4.55090000 15.3860000 1.73341000
64 0.00000000 55.5556000 0.00000000 5.09434000 17.2233000 1.94040000
65 0.00000000 58.3333000 0.00000000 5.67137000 19.1742000 2.16019000
66 0.00000000 61.1111000 0.00000000 6.28231000 21.2397000 2.39289000
67 0.00000000 63.8889000 0.00000000 6.92749000 23.4209000 2.63863000
68 0.00000000 66.6667000 0.00000000 7.60720000 25.7190000 2.89753000
69 0.00000000 69.4444000 0.00000000 8.32174000 28.1347000 3.16970000
70 0.00000000 72.2222000 0.00000000 9.07140000 30.6692000 3.45524000
71 0.00000000 75.0000000 0.00000000 9.85645000 33.3234000 3.75426000
72 0.00000000 77.7778000 0.00000000 10.6772000 36.0981000 4.06686000
73 0.00000000 80.5556000 0.00000000 11.5338000 38.9942000 4.39314000
74 0.00000000 83.3333000 0.00000000 12.4266000 42.0126000 4.73320000
75 0.00000000 86.1111000 0.00000000 13.3558000 45.1541000 5.08712000
76 0.00000000 88.8889000 0.00000000 14.3216000 48.4196000 5.45501000
77 0.00000000 91.6667000 0.00000000 15.3244000 51.8097000 5.83695000
78 26.1962000 100.000000 44.5219000 24.7622000 65.5689000 23.9348000
79 41.4444000 100.000000 79.7401000 38.3076000 71.5978000 67.7119000
80 57.4626000 100.000000 78.9392000 46.7970000 76.0042000 66.7988000
81 13.8889000 13.8889000 13.8889000 1.23729000 1.30178000 1.41772000
82 7.40741000 7.40741000 7.40741000 0.31051400 0.32670000 0.35579500
83 0.00000000 0.00000000 2.77778000 0.00711264 0.00284527 0.03746050
84 0.00000000 0.00000000 8.33333000 0.07967550 0.03187260 0.41963100
85 0.00000000 0.00000000 13.8889000 0.24503000 0.09801920 1.29051000
86 10.1346000 0.00000000 17.4737000 0.78138000 0.35596700 2.15585000
87 0.00000000 0.00000000 19.4444000 0.51355400 0.20543700 2.70476000
88 0.00000000 0.00000000 22.2222000 0.68884800 0.27556000 3.62799000
89 0.00000000 10.8761000 28.5901000 1.33997000 0.95657900 6.36797000
90 0.00000000 0.00000000 27.7778000 1.12525000 0.45013400 5.92641000
91 0.00000000 0.00000000 33.3333000 1.68030000 0.67217000 8.84971000
92 0.00000000 10.2395000 35.6985000 2.07727000 1.19928000 10.3367000
93 0.00000000 0.00000000 36.1111000 2.00372000 0.80154600 10.5531000
94 0.00000000 0.00000000 41.6667000 2.74481000 1.09801000 14.4562000
95 0.00000000 0.00000000 44.4444000 3.16340000 1.26545000 16.6608000
96 0.00000000 0.00000000 47.2222000 3.61458000 1.44594000 19.0370000
97 0.00000000 10.2615000 49.5487000 4.14196000 2.02696000 21.2081000
98 0.00000000 0.00000000 50.0000000 4.09874000 1.63962000 21.5870000
99 0.00000000 0.00000000 52.7778000 4.61626000 1.84664000 24.3126000
100 0.00000000 0.00000000 55.5556000 5.16750000 2.06715000 27.2159000
101 0.00000000 0.00000000 58.3333000 5.75282000 2.30130000 30.2986000
102 0.00000000 0.00000000 61.1111000 6.37253000 2.54920000 33.5625000
103 0.00000000 0.00000000 63.8889000 7.02698000 2.81100000 37.0093000
104 0.00000000 0.00000000 66.6667000 7.71645000 3.08681000 40.6406000
105 0.00000000 0.00000000 69.4444000 8.44125000 3.37675000 44.4579000
106 0.00000000 0.00000000 72.2222000 9.20168000 3.68095000 48.4629000
107 0.00000000 0.00000000 75.0000000 9.99800000 3.99950000 52.6569000
108 0.00000000 0.00000000 77.7778000 10.8305000 4.33252000 57.0414000
109 0.00000000 0.00000000 80.5556000 11.6994000 4.68012000 61.6178000
110 0.00000000 0.00000000 83.3333000 12.6050000 5.04239000 66.3875000
111 0.00000000 0.00000000 86.1111000 13.5476000 5.41944000 71.3516000
112 0.00000000 0.00000000 88.8889000 14.5273000 5.81136000 76.5116000
113 0.00000000 0.00000000 91.6667000 15.5445000 6.21824000 81.8687000
114 0.00000000 0.00000000 94.4444000 16.5992000 6.64019000 87.4240000
115 0.00000000 0.00000000 97.2222000 17.6919000 7.07729000 93.1787000
116 26.5774000 91.4117000 100.000000 37.1817000 60.6359000 105.082000
117 26.9662000 100.000000 100.000000 40.6086000 71.9310000 106.353000
118 0.00000000 8.65352000 10.5725000 0.21981100 0.34231000 0.74074100
119 0.00000000 11.1111000 0.00000000 0.14787700 0.49995200 0.05632530
120 9.53076000 0.00000000 9.95922000 0.44586000 0.21626600 0.63639000
121 0.00000000 2.77778000 0.00000000 0.00701194 0.02370650 0.00267080
122 0.92592600 0.92592600 0.92592600 0.00320619 0.00337331 0.00367373
123 0.00000000 5.55556000 0.00000000 0.03220100 0.10886700 0.01226510
124 0.00000000 8.33333000 0.00000000 0.07854750 0.26555900 0.02991820
125 1.85185000 1.85185000 1.85185000 0.01472380 0.01549130 0.01687090
126 3.70370000 3.70370000 3.70370000 0.06761620 0.07114070 0.07747630
127 5.55556000 0.00000000 0.00000000 0.10007100 0.05159890 0.00469191
128 8.33333000 0.00000000 0.00000000 0.24410200 0.12586500 0.01144490
129 4.62963000 4.62963000 4.62963000 0.11045300 0.11621000 0.12656000
130 0.00000000 12.4905000 0.00000000 0.19128000 0.64669200 0.07285720
131 5.55556000 5.55556000 5.55556000 0.16493500 0.17353300 0.18898700
132 9.25926000 9.25926000 9.25926000 0.50723400 0.53367300 0.58120000
133 14.8148000 14.8148000 14.8148000 1.42598000 1.50031000 1.63392000
134 19.8345000 12.4569000 18.0797000 2.27137000 1.66542000 2.45424000
135 16.6667000 16.6667000 16.6667000 1.84760000 1.94391000 2.11703000
136 17.5926000 17.5926000 17.5926000 2.08089000 2.18935000 2.38433000
137 18.5185000 18.5185000 18.5185000 2.32937000 2.45079000 2.66905000
138 19.4444000 19.4444000 19.4444000 2.59322000 2.72839000 2.97137000
139 20.3704000 20.3704000 20.3704000 2.87257000 3.02230000 3.29146000
140 21.2963000 21.2963000 21.2963000 3.16757000 3.33268000 3.62948000
141 22.2222000 22.2222000 22.2222000 3.47837000 3.65968000 3.98560000
142 23.1481000 23.1481000 23.1481000 3.80509000 4.00343000 4.35997000
143 24.0741000 24.0741000 24.0741000 4.14787000 4.36408000 4.75273000
144 25.0000000 25.0000000 25.0000000 4.50683000 4.74175000 5.16404000
145 25.9259000 25.9259000 25.9259000 4.88210000 5.13657000 5.59402000
146 26.8519000 26.8519000 26.8519000 5.27378000 5.54868000 6.04283000
147 27.7778000 27.7778000 27.7778000 5.68201000 5.97818000 6.51058000
148 28.7037000 28.7037000 28.7037000 6.10689000 6.42520000 6.99742000
149 29.6296000 29.6296000 29.6296000 6.54852000 6.88986000 7.50345000
150 31.4815000 31.4815000 31.4815000 7.48249000 7.87252000 8.57362000
151 32.4074000 32.4074000 32.4074000 7.97503000 8.39073000 9.13799000
152 33.3333000 33.3333000 33.3333000 8.48475000 8.92701000 9.72203000
153 34.2593000 34.2593000 34.2593000 9.01172000 9.48146000 10.3258000
154 35.1852000 35.1852000 35.1852000 9.55606000 10.0542000 10.9496000
155 36.1111000 36.1111000 36.1111000 10.1179000 10.6452000 11.5933000
156 37.0370000 37.0370000 37.0370000 10.6972000 11.2548000 12.2571000
157 37.9630000 37.9630000 37.9630000 11.2942000 11.8829000 12.9411000
158 38.8889000 38.8889000 38.8889000 11.9088000 12.5296000 13.6454000
159 39.8148000 39.8148000 39.8148000 12.5413000 13.1950000 14.3702000
160 40.7407000 40.7407000 40.7407000 13.1917000 13.8793000 15.1154000
161 41.6667000 41.6667000 41.6667000 13.8601000 14.5825000 15.8812000
162 42.5926000 42.5926000 42.5926000 14.5465000 15.3047000 16.6677000
163 43.5185000 43.5185000 43.5185000 15.2510000 16.0459000 17.4750000
164 44.4444000 44.4444000 44.4444000 15.9737000 16.8064000 18.3031000
165 45.3704000 45.3704000 45.3704000 16.7148000 17.5860000 19.1522000
166 46.2963000 46.2963000 46.2963000 17.4741000 18.3850000 20.0223000
167 47.2222000 47.2222000 47.2222000 18.2520000 19.2033000 20.9135000
168 48.1481000 48.1481000 48.1481000 19.0483000 20.0412000 21.8260000
169 49.0741000 49.0741000 49.0741000 19.8632000 20.8986000 22.7597000
170 50.0000000 50.0000000 50.0000000 20.6967000 21.7756000 23.7148000
171 50.9259000 50.9259000 50.9259000 21.5490000 22.6723000 24.6914000
172 51.8519000 51.8519000 51.8519000 22.4201000 23.5887000 25.6895000
173 52.7778000 52.7778000 52.7778000 23.3100000 24.5250000 26.7092000
174 53.7037000 53.7037000 53.7037000 24.2188000 25.4812000 27.7505000
175 54.6296000 54.6296000 54.6296000 25.1467000 26.4574000 28.8136000
176 55.5556000 55.5556000 55.5556000 26.0935000 27.4536000 29.8986000
177 56.4815000 56.4815000 56.4815000 27.0595000 28.4700000 31.0054000
178 57.4074000 57.4074000 57.4074000 28.0447000 29.5065000 32.1343000
179 58.3333000 58.3333000 58.3333000 29.0491000 30.5633000 33.2852000
180 59.2593000 59.2593000 59.2593000 30.0728000 31.6403000 34.4582000
181 60.1852000 60.1852000 60.1852000 31.1159000 32.7378000 35.6533000
182 61.1111000 61.1111000 61.1111000 32.1784000 33.8557000 36.8708000
183 62.0370000 62.0370000 62.0370000 33.2604000 34.9941000 38.1105000
184 62.9630000 62.9630000 62.9630000 34.3619000 36.1530000 39.3727000
185 63.8889000 63.8889000 63.8889000 35.4830000 37.3326000 40.6573000
186 64.8148000 64.8148000 64.8148000 36.6238000 38.5328000 41.9644000
187 65.7407000 65.7407000 65.7407000 37.7843000 39.7538000 43.2942000
188 66.6667000 66.6667000 66.6667000 38.9645000 40.9956000 44.6465000
189 67.5926000 67.5926000 67.5926000 40.1646000 42.2582000 46.0216000
190 68.5185000 68.5185000 68.5185000 41.3846000 43.5417000 47.4195000
191 69.4444000 69.4444000 69.4444000 42.6245000 44.8463000 48.8402000
192 70.3704000 70.3704000 70.3704000 43.8844000 46.1718000 50.2838000
193 71.2963000 71.2963000 71.2963000 45.1643000 47.5184000 51.7503000
194 72.2222000 72.2222000 72.2222000 46.4643000 48.8862000 53.2399000
195 73.1481000 73.1481000 73.1481000 47.7844000 50.2752000 54.7525000
196 74.0741000 74.0741000 74.0741000 49.1248000 51.6854000 56.2883000
197 75.0000000 75.0000000 75.0000000 50.4853000 53.1169000 57.8473000
198 75.9259000 75.9259000 75.9259000 51.8662000 54.5697000 59.4296000
199 76.8519000 76.8519000 76.8519000 53.2674000 56.0440000 61.0351000
200 77.7778000 77.7778000 77.7778000 54.6890000 57.5397000 62.6640000
201 78.7037000 78.7037000 78.7037000 56.1311000 59.0569000 64.3164000
202 79.6296000 79.6296000 79.6296000 57.5936000 60.5957000 65.9922000
203 80.5556000 80.5556000 80.5556000 59.0767000 62.1561000 67.6915000
204 81.4815000 81.4815000 81.4815000 60.5804000 63.7381000 69.4145000
205 82.4074000 82.4074000 82.4074000 62.1047000 65.3418000 71.1610000
206 83.3333000 83.3333000 83.3333000 63.6496000 66.9674000 72.9313000
207 84.2593000 84.2593000 84.2593000 65.2153000 68.6147000 74.7253000
208 85.1852000 85.1852000 85.1852000 66.8018000 70.2838000 76.5431000
209 86.1111000 86.1111000 86.1111000 68.4091000 71.9749000 78.3848000
210 87.0370000 87.0370000 87.0370000 70.0372000 73.6879000 80.2504000
211 87.9630000 87.9630000 87.9630000 71.6863000 75.4229000 82.1399000
212 88.8889000 88.8889000 88.8889000 73.3563000 77.1799000 84.0534000
213 89.8148000 89.8148000 89.8148000 75.0473000 78.9591000 85.9910000
214 90.7407000 90.7407000 90.7407000 76.7593000 80.7603000 87.9526000
215 91.6667000 91.6667000 91.6667000 78.4924000 82.5838000 89.9385000
216 92.5926000 92.5926000 92.5926000 80.2466000 84.4294000 91.9485000
217 93.5185000 93.5185000 93.5185000 82.0220000 86.2974000 93.9828000
218 94.4444000 94.4444000 94.4444000 83.8186000 88.1876000 96.0414000
219 95.3704000 95.3704000 95.3704000 85.6364000 90.1002000 98.1243000
220 96.2963000 96.2963000 96.2963000 87.4756000 92.0352000 100.232000
221 97.2222000 97.2222000 97.2222000 89.3360000 93.9926000 102.363000
222 73.5841000 0.00000000 42.9016000 32.3004000 16.3165000 16.7925000
223 74.3461000 0.00000000 71.1491000 38.9503000 19.0544000 48.3021000
224 75.4882000 34.6149000 72.2550000 42.0818000 25.7905000 50.6536000
225 100.000000 37.3927000 100.000000 78.6224000 44.4748000 102.650000
226 32.2086000 39.2199000 46.9232000 10.7068000 11.8957000 19.8990000
227 34.0915000 58.7487000 55.2993000 16.2847000 24.3109000 29.3884000
228 37.4773000 72.4412000 55.5259000 20.9546000 36.3735000 30.9746000
229 69.2379000 76.0193000 66.2098000 43.4467000 50.6157000 45.1026000
230 78.0195000 100.000000 75.4277000 62.0886000 84.0120000 61.9538000
231 87.9795000 100.000000 76.9503000 72.6470000 89.4036000 64.8234000
232 93.9194000 100.000000 84.3982000 81.7536000 93.8237000 77.6906000
233 28.9087000 0.00000000 44.3745000 6.91613000 3.20171000 16.7797000
234 31.9354000 0.00000000 60.0542000 10.8177000 4.86895000 32.5188000
235 58.3463000 0.00000000 100.000000 36.4562000 16.6219000 99.9608000
236 81.2687000 100.000000 100.000000 73.9239000 89.1091000 107.915000
237 0.00000000 14.9478000 17.7005000 0.70159600 1.12699000 2.30791000
238 0.00000000 31.4594000 65.2898000 8.82887000 7.87962000 39.3730000
239 0.00000000 34.5940000 77.8941000 12.6636000 10.4236000 57.9138000
240 0.00000000 41.9661000 100.000000 21.5715000 16.8233000 100.181000
241 0.00000000 48.1423000 100.000000 22.5405000 20.0993000 100.550000
242 0.00000000 25.7064000 43.4954000 3.95224000 4.36956000 16.2448000
243 13.9851000 34.6706000 44.2999000 5.70919000 7.75589000 17.2656000
244 0.00000000 30.2986000 31.8192000 2.85983000 5.14679000 8.50112000
245 44.0435000 39.8996000 31.5928000 13.4538000 13.8129000 9.24758000
246 51.2408000 43.7911000 37.0956000 18.3973000 17.8896000 12.9673000
247 54.7071000 100.000000 44.0040000 36.9558000 71.8655000 24.0854000
248 23.6895000 39.7711000 0.00000000 4.87165000 9.51056000 1.04425000
249 31.9730000 60.2192000 0.00000000 10.7796000 22.9859000 2.53699000
250 66.8479000 77.7361000 0.00000000 34.4471000 48.3184000 5.17713000
251 76.6099000 77.9008000 0.00000000 42.8098000 52.7730000 5.58584000
252 100.000000 85.5009000 68.7127000 79.0624000 77.4868000 51.1461000
253 100.000000 100.000000 80.5644000 87.9254000 97.1516000 71.4044000
254 12.9630000 12.9630000 12.9630000 1.06310000 1.11852000 1.21813000
255 6.48148000 6.48148000 6.48148000 0.23149700 0.24356300 0.26525400
256 15.6693000 42.3190000 0.00000000 3.77874000 9.97111000 1.11239000
257 44.7873000 73.0526000 41.9114000 21.9396000 37.6448000 18.6490000
258 0.00000000 46.0604000 15.7074000 3.69460000 11.5336000 2.97645000
259 0.00000000 69.8253000 18.5417000 8.88502000 28.6603000 5.64432000
260 0.00000000 92.0021000 25.5528000 16.3845000 52.6022000 10.8163000
261 0.00000000 35.0829000 12.6437000 2.05305000 6.34703000 1.75574000
262 0.00000000 41.1516000 22.8939000 3.36840000 9.19582000 4.87641000
263 0.00000000 54.0267000 100.000000 23.6138000 23.7277000 100.959000
264 53.5384000 60.9317000 100.000000 39.6594000 36.1579000 102.196000
265 80.6920000 71.5789000 100.000000 63.6945000 56.1520000 104.209000
266 22.3999000 20.3351000 28.9840000 3.94192000 3.49051000 6.82068000
267 25.3547000 24.8959000 75.6227000 13.8738000 8.47479000 54.0875000
268 37.7429000 42.7675000 100.000000 28.4537000 20.7065000 100.543000
269 39.5868000 56.7282000 100.000000 31.6701000 29.4368000 101.518000
270 72.3284000 73.8609000 100.000000 56.6353000 54.3331000 104.090000
271 25.4773000 23.4969000 48.4152000 7.43671000 5.59286000 20.5368000
272 26.8255000 33.8618000 67.6340000 12.8725000 10.6301000 42.7517000
273 34.6309000 39.3098000 81.4048000 19.9521000 15.7251000 64.2249000
274 0.00000000 16.6999000 29.4400000 1.64097000 1.73638000 6.87243000
275 0.00000000 39.4101000 29.9202000 3.71908000 8.62415000 7.89026000
276 31.8874000 51.0520000 33.4318000 10.5908000 17.3855000 10.7374000
277 39.7046000 53.8594000 47.0247000 15.9029000 21.4203000 21.0294000
278 50.7032000 55.9605000 66.8772000 25.8955000 27.2857000 43.5021000
279 56.0129000 85.7294000 84.4445000 42.3233000 58.2183000 74.1432000
280 0.00000000 25.2638000 70.2920000 9.56993000 6.51232000 46.0030000
281 0.00000000 61.1922000 100.000000 25.1233000 28.8313000 101.534000
282 0.00000000 68.1326000 100.000000 26.8026000 34.5087000 102.174000
283 0.00000000 75.4156000 100.000000 28.7996000 41.2604000 102.934000
284 0.00000000 37.7009000 50.1778000 6.30253000 8.99459000 22.5834000
285 0.00000000 66.8232000 56.4506000 12.9989000 27.9931000 31.1021000
286 29.2640000 71.2313000 69.6107000 21.1518000 35.1394000 48.2254000
287 54.9401000 100.000000 90.4373000 49.0944000 76.7379000 87.2657000
288 18.7016000 57.1662000 32.8287000 8.49385000 19.7352000 10.6917000
289 31.3998000 61.9126000 78.8971000 22.1551000 28.6555000 61.5364000
290 35.7605000 63.8763000 100.000000 31.7556000 34.0385000 102.053000
291 29.7604000 39.5323000 64.9244000 13.7022000 13.1302000 39.4476000
292 42.3939000 52.2372000 70.8716000 22.0120000 23.0770000 48.5963000
293 100.000000 57.6996000 90.0250000 78.1425000 54.4294000 83.4915000
294 100.000000 61.3872000 100.000000 82.8345000 58.7153000 104.255000
295 15.7407000 15.7407000 15.7407000 1.62935000 1.71428000 1.86695000
296 11.1111000 11.1111000 11.1111000 0.75743400 0.79691500 0.86788600
297 35.0252000 0.00000000 17.3305000 6.13884000 3.11924000 2.36905000
298 54.0541000 0.00000000 21.5709000 15.5511000 7.94393000 4.09712000
299 64.4135000 0.00000000 21.3987000 22.5532000 11.5556000 4.36657000
300 76.1163000 0.00000000 26.2746000 32.6382000 16.7139000 6.72752000
301 100.000000 40.1600000 29.2403000 61.4221000 38.6750000 10.2886000
302 100.000000 81.7226000 35.0089000 71.4431000 70.7305000 17.0957000
303 100.000000 89.2987000 43.0285000 75.0802000 79.8248000 23.7300000
304 100.000000 100.000000 51.0901000 80.5210000 94.1896000 32.4072000
305 46.2366000 47.4955000 63.6668000 21.1543000 20.4420000 38.5973000
306 70.0135000 55.5948000 77.2969000 42.1159000 35.1002000 59.4466000
307 24.8419000 0.00000000 16.3484000 3.04724000 1.53069000 1.97351000
308 26.4895000 21.8414000 13.3984000 3.98574000 3.90217000 1.58702000
309 37.3449000 19.5093000 39.6962000 9.58693000 6.11931000 13.4994000
310 37.7735000 29.9804000 56.4626000 13.4444000 10.0725000 29.0202000
311 50.3756000 35.6198000 77.8687000 25.5408000 17.4061000 58.5168000
312 59.2302000 40.3401000 77.6047000 31.5240000 22.2294000 58.5770000
313 67.6719000 100.000000 90.7985000 58.2106000 81.4231000 88.3866000
314 0.00000000 32.2892000 19.8928000 2.08449000 5.43787000 3.43211000
315 0.00000000 48.7712000 41.3637000 6.52665000 14.0141000 15.6832000
316 0.00000000 50.8854000 52.7338000 8.80755000 16.0421000 25.8678000
317 0.00000000 88.7196000 54.8463000 19.2852000 50.2265000 31.8898000
318 0.00000000 100.000000 66.2880000 26.1765000 65.7844000 47.2026000
319 0.00000000 100.000000 78.5579000 29.6270000 67.1646000 65.3752000
320 0.00000000 76.2021000 76.8848000 20.7661000 38.7332000 59.4990000
321 72.9750000 81.3365000 100.000000 59.4452000 62.2313000 104.974000
322 82.4654000 88.0995000 100.000000 70.6050000 74.4676000 106.253000
323 98.1481000 98.1481000 98.1481000 91.2178000 95.9725000 104.520000
324 99.0741000 99.0741000 99.0741000 93.1211000 97.9750000 106.700000
325 15.4954000 24.6336000 16.9487000 2.18643000 3.52403000 2.36872000
326 39.1352000 28.0353000 18.4313000 8.91505000 7.78767000 3.17918000
327 41.6399000 63.8231000 44.1486000 18.4265000 28.9448000 19.4443000
328 40.7370000 100.000000 53.0794000 31.2328000 68.7320000 32.0624000
329 0.00000000 64.7619000 37.3480000 9.29513000 24.9937000 14.0829000
