dispcalGUI/ti1/d3-e4-s37-g109-m0-f1906-cRec709_Gamma22.ti1
CTI1   

ORIGINATOR "Argyll targen"
KEYWORD "OFPS_PATCHES"
OFPS_PATCHES "1683"
CREATED "Sat Oct 19 13:24:18 2013"
KEYWORD "COMP_GREY_STEPS"
COMP_GREY_STEPS "109"
KEYWORD "BLACK_COLOR_PATCHES"
BLACK_COLOR_PATCHES "4"
KEYWORD "APPROX_WHITE_POINT"
APPROX_WHITE_POINT "95.045781 100.000003 108.905751"
DESCRIPTOR "Argyll Calibration Target chart information 1"
KEYWORD "ACCURATE_EXPECTED_VALUES"
ACCURATE_EXPECTED_VALUES "true"
KEYWORD "WHITE_COLOR_PATCHES"
WHITE_COLOR_PATCHES "4"
KEYWORD "SINGLE_DIM_STEPS"
SINGLE_DIM_STEPS "37"
KEYWORD "COLOR_REP"
COLOR_REP "RGB"

NUMBER_OF_FIELDS 7
BEGIN_DATA_FORMAT
SAMPLE_ID RGB_R RGB_G RGB_B XYZ_X XYZ_Y XYZ_Z
END_DATA_FORMAT

NUMBER_OF_SETS 1906
BEGIN_DATA
1 100.0000000 100.0000000 100.0000000 95.04580000 100.0000000 108.9060000
2 53.01170000 63.67720000 87.39200000 36.88490000 37.13930000 75.56940000
3 59.67520000 72.58770000 100.0000000 48.97570000 49.40500000 101.5670000
4 69.38010000 31.17770000 16.34540000 21.54800000 15.16080000 3.553010000
5 82.01770000 39.00550000 35.85650000 33.06820000 23.52450000 12.71440000
6 87.30430000 50.82410000 60.20070000 44.57720000 34.28090000 35.25940000
7 91.24310000 80.37730000 73.00550000 64.86430000 65.23150000 56.53570000
8 75.61270000 27.37960000 9.719070000 24.47800000 15.68120000 2.298660000
9 85.68900000 29.02070000 9.091900000 31.80850000 19.88180000 2.646560000
10 90.20540000 31.05180000 44.51570000 38.64920000 23.62790000 18.48110000
11 68.25140000 21.74560000 37.82070000 21.17720000 12.52410000 12.45170000
12 74.24450000 26.76640000 45.75950000 26.62690000 16.27840000 18.69290000
13 77.63270000 34.28100000 65.12600000 34.05510000 21.78490000 39.25320000
14 84.85560000 88.16850000 68.76680000 63.76790000 72.20420000 52.10140000
15 83.32940000 93.86450000 83.28210000 70.79400000 81.28740000 75.23330000
16 90.27670000 100.0000000 85.88330000 81.60420000 93.66350000 81.48030000
17 99.07410000 99.07410000 99.07410000 93.12110000 97.97500000 106.7000000
18 44.89670000 79.61440000 0.000000000 28.74500000 46.97320000 7.552070000
19 51.67360000 100.0000000 0.000000000 45.41150000 76.49690000 12.37250000
20 9.018280000 24.59410000 25.32650000 2.723910000 3.730730000 5.192710000
21 9.107910000 28.96240000 81.32360000 14.01130000 9.378870000 61.11920000
22 0.000000000 56.35060000 73.77180000 19.37400000 23.95660000 52.06600000
23 0.000000000 64.23760000 75.38980000 23.20740000 30.90100000 55.57280000
24 12.81800000 66.32240000 92.02830000 29.97900000 35.23480000 84.03510000
25 36.76770000 68.38160000 92.13330000 35.14220000 39.38880000 84.76270000
26 51.06660000 69.79080000 90.88850000 40.24830000 43.12840000 82.88670000
27 52.01840000 79.00110000 100.0000000 49.13950000 54.86010000 102.6120000
28 76.25530000 77.69910000 100.0000000 61.29790000 59.99360000 102.9620000
29 22.22220000 0.000000000 0.000000000 1.509200000 0.778034000 0.070652300
30 63.88890000 0.000000000 0.000000000 15.39540000 7.936770000 0.720728000
31 66.66670000 0.000000000 0.000000000 16.90590000 8.715510000 0.791444000
32 69.98820000 0.000000000 12.28260000 18.99320000 9.770850000 1.825100000
33 69.44440000 0.000000000 0.000000000 18.49390000 9.534160000 0.865784000
34 72.22220000 0.000000000 0.000000000 20.15990000 10.39300000 0.943778000
35 75.00000000 0.000000000 0.000000000 21.90460000 11.29250000 1.025450000
36 77.77780000 0.000000000 0.000000000 23.72850000 12.23270000 1.110840000
37 80.55560000 0.000000000 0.000000000 25.63220000 13.21420000 1.199960000
38 83.33330000 0.000000000 0.000000000 27.61630000 14.23700000 1.292850000
39 86.11110000 0.000000000 0.000000000 29.68130000 15.30160000 1.389520000
40 88.88890000 0.000000000 0.000000000 31.82780000 16.40820000 1.490010000
41 91.66670000 0.000000000 0.000000000 34.05630000 17.55700000 1.594330000
42 94.44440000 0.000000000 0.000000000 36.36720000 18.74840000 1.702510000
43 86.63290000 73.17610000 0.000000000 48.07050000 51.49320000 7.406220000
44 85.60660000 100.0000000 0.000000000 65.05750000 86.62500000 13.29220000
45 8.794310000 11.79060000 8.102470000 0.593023000 0.779469000 0.495698000
46 11.11110000 0.000000000 0.000000000 0.328636000 0.169421000 0.015384900
47 1.851850000 1.851850000 1.851850000 0.014723800 0.015491300 0.016870900
48 0.000000000 8.333330000 0.000000000 0.151359000 0.302741000 0.050459300
49 0.000000000 13.88890000 0.000000000 0.465482000 0.931033000 0.155180000
50 0.000000000 16.66670000 0.000000000 0.695088000 1.390280000 0.231725000
51 0.000000000 19.44440000 0.000000000 0.975597000 1.951340000 0.325239000
52 0.000000000 22.22220000 0.000000000 1.308600000 2.617400000 0.436254000
53 6.397530000 20.55150000 10.12990000 1.316910000 2.301300000 0.990052000
54 0.000000000 27.77780000 0.000000000 2.137640000 4.275590000 0.712633000
55 0.000000000 30.55560000 0.000000000 2.636120000 5.272630000 0.878815000
56 0.000000000 33.33330000 0.000000000 3.192060000 6.384590000 1.064150000
57 0.000000000 36.11110000 0.000000000 3.806450000 7.613460000 1.268970000
58 0.000000000 38.88890000 0.000000000 4.480240000 8.961140000 1.493600000
59 0.000000000 41.66670000 0.000000000 5.214310000 10.42940000 1.738320000
60 0.000000000 44.44440000 0.000000000 6.009500000 12.01990000 2.003410000
61 0.000000000 47.22220000 0.000000000 6.866600000 13.73420000 2.289150000
62 0.000000000 50.00000000 0.000000000 7.786350000 15.57390000 2.595770000
63 0.000000000 52.77780000 0.000000000 8.769480000 17.54030000 2.923520000
64 0.000000000 55.55560000 0.000000000 9.816680000 19.63480000 3.272630000
65 0.000000000 58.33330000 0.000000000 10.92860000 21.85880000 3.643320000
66 0.000000000 61.11110000 0.000000000 12.10590000 24.21350000 4.035790000
67 0.000000000 63.88890000 0.000000000 13.34910000 26.70020000 4.450250000
68 0.000000000 66.66670000 0.000000000 14.65890000 29.32000000 4.886900000
69 0.000000000 69.44440000 0.000000000 16.03580000 32.07400000 5.345930000
70 0.000000000 72.22220000 0.000000000 17.48040000 34.96340000 5.827510000
71 0.000000000 75.00000000 0.000000000 18.99320000 37.98910000 6.331830000
72 0.000000000 77.77780000 0.000000000 20.57460000 41.15230000 6.859060000
73 0.000000000 80.55560000 0.000000000 22.22530000 44.45390000 7.409350000
74 0.000000000 83.33330000 0.000000000 23.94570000 47.89500000 7.982890000
75 0.000000000 86.11110000 0.000000000 25.73630000 51.47640000 8.579810000
76 0.000000000 88.88890000 0.000000000 27.59750000 55.19900000 9.200290000
77 0.000000000 91.66670000 0.000000000 29.52970000 59.06380000 9.844450000
78 0.000000000 94.44440000 0.000000000 31.53350000 63.07170000 10.51250000
79 0.000000000 97.22220000 0.000000000 33.60920000 67.22340000 11.20450000
80 0.000000000 100.0000000 0.000000000 35.75730000 71.51990000 11.92060000
81 0.000000000 92.44180000 61.28660000 36.23130000 62.62780000 42.41340000
82 100.0000000 100.0000000 80.85650000 88.30730000 97.30450000 73.41990000
83 10.18520000 10.18520000 10.18520000 0.625518000 0.658122000 0.716733000
84 0.000000000 0.000000000 8.333330000 0.076405000 0.030564000 0.402363000
85 0.000000000 0.000000000 13.88890000 0.234972000 0.093994700 1.237400000
86 0.000000000 0.000000000 16.66670000 0.350875000 0.140359000 1.847770000
87 0.000000000 0.000000000 19.44440000 0.492474000 0.197002000 2.593460000
88 0.000000000 0.000000000 22.22220000 0.660572000 0.264246000 3.478690000
89 0.000000000 0.000000000 27.77780000 1.079060000 0.431652000 5.682540000
90 10.45310000 10.59370000 30.41610000 1.861300000 1.188330000 7.036500000
91 0.000000000 0.000000000 30.55560000 1.330690000 0.532311000 7.007670000
92 0.000000000 0.000000000 33.33330000 1.611330000 0.644572000 8.485540000
93 0.000000000 0.000000000 36.11110000 1.921470000 0.768636000 10.11880000
94 0.000000000 0.000000000 38.88890000 2.261590000 0.904694000 11.90990000
95 0.000000000 0.000000000 41.66670000 2.632140000 1.052920000 13.86140000
96 0.000000000 0.000000000 44.44440000 3.033550000 1.213500000 15.97520000
97 0.000000000 0.000000000 47.22220000 3.466200000 1.386570000 18.25370000
98 0.000000000 0.000000000 50.00000000 3.930490000 1.572300000 20.69870000
99 0.000000000 0.000000000 52.77780000 4.426770000 1.770820000 23.31220000
100 0.000000000 0.000000000 55.55560000 4.955380000 1.982280000 26.09600000
101 0.000000000 0.000000000 58.33330000 5.516670000 2.206810000 29.05180000
102 0.000000000 0.000000000 61.11110000 6.110950000 2.444540000 32.18140000
103 0.000000000 0.000000000 63.88890000 6.738530000 2.695580000 35.48630000
104 0.000000000 0.000000000 66.66670000 7.399700000 2.960070000 38.96820000
105 0.000000000 0.000000000 69.44440000 8.094750000 3.238110000 42.62840000
106 0.000000000 0.000000000 72.22220000 8.823960000 3.529810000 46.46860000
107 0.000000000 0.000000000 75.00000000 9.587590000 3.835280000 50.49000000
108 0.000000000 0.000000000 77.77780000 10.38590000 4.154630000 54.69410000
109 0.000000000 0.000000000 80.55560000 11.21920000 4.487960000 59.08220000
110 0.000000000 0.000000000 83.33330000 12.08760000 4.835350000 63.65560000
111 0.000000000 0.000000000 86.11110000 12.99150000 5.196920000 68.41550000
112 0.000000000 0.000000000 88.88890000 13.93100000 5.572750000 73.36310000
113 0.000000000 0.000000000 91.66670000 14.90640000 5.962930000 78.49970000
114 0.000000000 0.000000000 94.44440000 15.91790000 6.367550000 83.82640000
115 0.000000000 0.000000000 97.22220000 16.96570000 6.786700000 89.34430000
116 0.000000000 54.75950000 100.0000000 27.56000000 26.24180000 98.22500000
117 0.000000000 90.48920000 100.0000000 46.75190000 64.62860000 104.6230000
118 0.000000000 0.000000000 11.11110000 0.143843000 0.057541000 0.757505000
119 8.333330000 0.000000000 0.000000000 0.174561000 0.089991300 0.008171990
120 0.000000000 0.000000000 5.555560000 0.031322600 0.012529900 0.164951000
121 0.000000000 5.555560000 0.000000000 0.062050600 0.124110000 0.020686100
122 0.925926000 0.925926000 0.925926000 0.003206190 0.003373310 0.003673730
123 2.777780000 2.777780000 2.777780000 0.035915600 0.037787700 0.041153000
124 3.703700000 3.703700000 3.703700000 0.067616200 0.071140700 0.077476300
125 4.629630000 4.629630000 4.629630000 0.110453000 0.116210000 0.126560000
126 5.555560000 0.000000000 0.000000000 0.071562200 0.036892400 0.003350150
127 5.555560000 5.555560000 5.555560000 0.164935000 0.173533000 0.188987000
128 6.481480000 6.481480000 6.481480000 0.231497000 0.243563000 0.265254000
129 7.407410000 7.407410000 7.407410000 0.310514000 0.326700000 0.355795000
130 8.333330000 8.333330000 8.333330000 0.402325000 0.423296000 0.460994000
131 0.000000000 2.777780000 0.000000000 0.013511900 0.027025700 0.004504510
132 9.259260000 9.259260000 9.259260000 0.507234000 0.533673000 0.581200000
133 12.96300000 12.96300000 12.96300000 1.063100000 1.118520000 1.218130000
134 13.88890000 13.88890000 13.88890000 1.237290000 1.301780000 1.417720000
135 16.66670000 16.66670000 16.66670000 1.847600000 1.943910000 2.117030000
136 17.59260000 17.59260000 17.59260000 2.080890000 2.189350000 2.384330000
137 19.44440000 19.44440000 19.44440000 2.593220000 2.728390000 2.971370000
138 20.37040000 20.37040000 20.37040000 2.872570000 3.022300000 3.291460000
139 21.29630000 21.29630000 21.29630000 3.167570000 3.332680000 3.629480000
140 22.22220000 22.22220000 22.22220000 3.478370000 3.659680000 3.985600000
141 23.14810000 23.14810000 23.14810000 3.805090000 4.003430000 4.359970000
142 24.07410000 24.07410000 24.07410000 4.147870000 4.364080000 4.752730000
143 25.00000000 25.00000000 25.00000000 4.506830000 4.741750000 5.164040000
144 25.92590000 25.92590000 25.92590000 4.882100000 5.136570000 5.594020000
145 26.85190000 26.85190000 26.85190000 5.273780000 5.548680000 6.042830000
146 27.77780000 27.77780000 27.77780000 5.682010000 5.978180000 6.510580000
147 28.70370000 28.70370000 28.70370000 6.106890000 6.425200000 6.997420000
148 29.62960000 29.62960000 29.62960000 6.548520000 6.889860000 7.503450000
149 30.55560000 30.55560000 30.55560000 7.007020000 7.372260000 8.028820000
150 31.48150000 31.48150000 31.48150000 7.482490000 7.872520000 8.573620000
151 32.40740000 32.40740000 32.40740000 7.975030000 8.390730000 9.137990000
152 33.33330000 33.33330000 33.33330000 8.484750000 8.927010000 9.722030000
153 34.25930000 34.25930000 34.25930000 9.011720000 9.481460000 10.32580000
154 35.18520000 35.18520000 35.18520000 9.556060000 10.05420000 10.94960000
155 36.11110000 36.11110000 36.11110000 10.11790000 10.64520000 11.59330000
156 37.03700000 37.03700000 37.03700000 10.69720000 11.25480000 12.25710000
157 37.96300000 37.96300000 37.96300000 11.29420000 11.88290000 12.94110000
158 38.88890000 38.88890000 38.88890000 11.90880000 12.52960000 13.64540000
159 39.81480000 39.81480000 39.81480000 12.54130000 13.19500000 14.37020000
160 40.74070000 40.74070000 40.74070000 13.19170000 13.87930000 15.11540000
161 41.66670000 41.66670000 41.66670000 13.86010000 14.58250000 15.88120000
162 42.59260000 42.59260000 42.59260000 14.54650000 15.30470000 16.66770000
163 43.51850000 43.51850000 43.51850000 15.25100000 16.04590000 17.47500000
164 44.44440000 44.44440000 44.44440000 15.97370000 16.80640000 18.30310000
165 45.37040000 45.37040000 45.37040000 16.71480000 17.58600000 19.15220000
166 46.29630000 46.29630000 46.29630000 17.47410000 18.38500000 20.02230000
167 47.22220000 47.22220000 47.22220000 18.25200000 19.20330000 20.91350000
168 48.14810000 48.14810000 48.14810000 19.04830000 20.04120000 21.82600000
169 49.07410000 49.07410000 49.07410000 19.86320000 20.89860000 22.75970000
170 50.00000000 50.00000000 50.00000000 20.69670000 21.77560000 23.71480000
171 50.92590000 50.92590000 50.92590000 21.54900000 22.67230000 24.69140000
172 51.85190000 51.85190000 51.85190000 22.42010000 23.58870000 25.68950000
173 52.77780000 52.77780000 52.77780000 23.31000000 24.52500000 26.70920000
174 53.70370000 53.70370000 53.70370000 24.21880000 25.48120000 27.75050000
175 54.62960000 54.62960000 54.62960000 25.14670000 26.45740000 28.81360000
176 55.55560000 55.55560000 55.55560000 26.09350000 27.45360000 29.89860000
177 56.48150000 56.48150000 56.48150000 27.05950000 28.47000000 31.00540000
178 57.40740000 57.40740000 57.40740000 28.04470000 29.50650000 32.13430000
179 58.33330000 58.33330000 58.33330000 29.04910000 30.56330000 33.28520000
180 59.25930000 59.25930000 59.25930000 30.07280000 31.64030000 34.45820000
181 60.18520000 60.18520000 60.18520000 31.11590000 32.73780000 35.65330000
182 61.11110000 61.11110000 61.11110000 32.17840000 33.85570000 36.87080000
183 62.03700000 62.03700000 62.03700000 33.26040000 34.99410000 38.11050000
184 62.96300000 62.96300000 62.96300000 34.36190000 36.15300000 39.37270000
185 63.88890000 63.88890000 63.88890000 35.48300000 37.33260000 40.65730000
186 64.81480000 64.81480000 64.81480000 36.62380000 38.53280000 41.96440000
187 65.74070000 65.74070000 65.74070000 37.78430000 39.75380000 43.29420000
188 66.66670000 66.66670000 66.66670000 38.96450000 40.99560000 44.64650000
189 67.59260000 67.59260000 67.59260000 40.16460000 42.25820000 46.02160000
190 68.51850000 68.51850000 68.51850000 41.38460000 43.54170000 47.41950000
191 69.44440000 69.44440000 69.44440000 42.62450000 44.84630000 48.84020000
192 70.37040000 70.37040000 70.37040000 43.88440000 46.17180000 50.28380000
193 71.29630000 71.29630000 71.29630000 45.16430000 47.51840000 51.75030000
194 72.22220000 72.22220000 72.22220000 46.46430000 48.88620000 53.23990000
195 73.14810000 73.14810000 73.14810000 47.78440000 50.27520000 54.75250000
196 74.07410000 74.07410000 74.07410000 49.12480000 51.68540000 56.28830000
197 75.00000000 75.00000000 75.00000000 50.48530000 53.11690000 57.84730000
198 75.92590000 75.92590000 75.92590000 51.86620000 54.56970000 59.42960000
199 76.85190000 76.85190000 76.85190000 53.26740000 56.04400000 61.03510000
200 77.77780000 77.77780000 77.77780000 54.68900000 57.53970000 62.66400000
201 78.70370000 78.70370000 78.70370000 56.13110000 59.05690000 64.31640000
202 79.62960000 79.62960000 79.62960000 57.59360000 60.59570000 65.99220000
203 80.55560000 80.55560000 80.55560000 59.07670000 62.15610000 67.69150000
204 81.48150000 81.48150000 81.48150000 60.58040000 63.73810000 69.41450000
205 82.40740000 82.40740000 82.40740000 62.10470000 65.34180000 71.16100000
206 83.33330000 83.33330000 83.33330000 63.64960000 66.96740000 72.93130000
207 84.25930000 84.25930000 84.25930000 65.21530000 68.61470000 74.72530000
208 85.18520000 85.18520000 85.18520000 66.80180000 70.28380000 76.54310000
209 86.11110000 86.11110000 86.11110000 68.40910000 71.97490000 78.38480000
210 87.03700000 87.03700000 87.03700000 70.03720000 73.68790000 80.25040000
211 87.96300000 87.96300000 87.96300000 71.68630000 75.42290000 82.13990000
212 88.88890000 88.88890000 88.88890000 73.35630000 77.17990000 84.05340000
213 89.81480000 89.81480000 89.81480000 75.04730000 78.95910000 85.99100000
214 90.74070000 90.74070000 90.74070000 76.75930000 80.76030000 87.95260000
215 91.66670000 91.66670000 91.66670000 78.49240000 82.58380000 89.93850000
216 92.59260000 92.59260000 92.59260000 80.24660000 84.42940000 91.94850000
217 93.51850000 93.51850000 93.51850000 82.02200000 86.29740000 93.98280000
218 94.44440000 94.44440000 94.44440000 83.81860000 88.18760000 96.04140000
219 95.37040000 95.37040000 95.37040000 85.63640000 90.10020000 98.12430000
220 96.29630000 96.29630000 96.29630000 87.47560000 92.03520000 100.2320000
221 97.22220000 97.22220000 97.22220000 89.33600000 93.99260000 102.3630000
222 15.74070000 15.74070000 15.74070000 1.629350000 1.714280000 1.866950000
223 10.70850000 35.50560000 46.87540000 7.380960000 8.855990000 19.19700000
224 19.54330000 68.81290000 67.16980000 24.37770000 35.03200000 44.91070000
225 52.73320000 80.32410000 92.43040000 47.36090000 55.45050000 87.78050000
226 98.14810000 98.14810000 98.14810000 91.21780000 95.97250000 104.5200000
227 100.0000000 100.0000000 100.0000000 95.04580000 100.0000000 108.9060000
228 80.93870000 54.04800000 36.92570000 37.15950000 32.64220000 14.92060000
229 91.21350000 66.52900000 35.91700000 50.17840000 47.31330000 16.44130000
230 33.19390000 22.31480000 8.291360000 5.043760000 4.552110000 1.008940000
231 39.87390000 19.70490000 33.32820000 8.074550000 5.468020000 9.073130000
232 48.34200000 39.63050000 72.93150000 22.02400000 17.24630000 49.42550000
233 57.60140000 64.29540000 79.62560000 36.73160000 37.76980000 62.67920000
234 63.71260000 64.84890000 85.47770000 41.87850000 40.59240000 72.62860000
235 0.000000000 25.00000000 0.000000000 1.695520000 3.391290000 0.565243000
236 16.67880000 45.37230000 9.299260000 7.189040000 13.03150000 2.646250000
237 24.60350000 78.98180000 21.39570000 23.77720000 43.78270000 10.38360000
238 36.90980000 81.65570000 91.34990000 42.29800000 54.09250000 85.75370000
239 7.743420000 27.11500000 42.39090000 4.909420000 5.224620000 15.07950000
240 0.000000000 27.89960000 66.25380000 9.457590000 7.236830000 39.15890000
241 0.000000000 25.81310000 85.58070000 14.63530000 8.765390000 68.09860000
242 0.000000000 26.97600000 100.0000000 20.05430000 11.22930000 95.72280000
243 25.87270000 37.53260000 100.0000000 24.30250000 16.59570000 96.53480000
244 40.15260000 33.05710000 78.11000000 19.16140000 13.32040000 56.51360000
245 47.15550000 52.96800000 82.10030000 28.43150000 26.42890000 64.91880000
246 48.89490000 81.36850000 88.29660000 44.99840000 55.34520000 80.26730000
247 9.756900000 21.14870000 25.52860000 2.316720000 2.833160000 5.122320000
248 0.000000000 40.65890000 29.42720000 6.165980000 10.37270000 8.098330000
249 0.000000000 50.02620000 35.57320000 9.654420000 16.33550000 12.38900000
250 0.000000000 89.19740000 34.22110000 29.51570000 56.30410000 18.26120000
251 84.84840000 66.04110000 27.70520000 44.16350000 43.95990000 11.78160000
252 92.85820000 72.39850000 27.18220000 53.64060000 53.62570000 12.91710000
253 30.55560000 0.000000000 0.000000000 3.040210000 1.567320000 0.142326000
254 44.44440000 0.000000000 0.000000000 6.930690000 3.572970000 0.324457000
255 47.22220000 0.000000000 0.000000000 7.919160000 4.082560000 0.370732000
256 0.000000000 0.000000000 100.0000000 18.05000000 7.220460000 95.05460000
257 0.000000000 16.89050000 100.0000000 18.76580000 8.652140000 95.29320000
258 36.53420000 27.84820000 100.0000000 24.70340000 13.84180000 95.98210000
259 16.03630000 22.94680000 43.79390000 5.077490000 4.363220000 15.96810000
260 27.43860000 41.28030000 70.65110000 15.91550000 14.81810000 46.08980000
261 50.94160000 77.96070000 71.13640000 38.57200000 49.60290000 52.27850000
262 70.77700000 78.15180000 77.09430000 50.26250000 55.60470000 61.47720000
263 40.07300000 9.889200000 12.99400000 5.942830000 3.367690000 1.400710000
264 41.11050000 13.10170000 9.807030000 6.357210000 3.872540000 0.985447000
265 55.93960000 20.29050000 10.60490000 12.69550000 8.120520000 1.578950000
266 71.62510000 36.37600000 9.274160000 23.76000000 17.98050000 2.725310000
267 75.02870000 81.79220000 27.43000000 45.95520000 57.69040000 14.21540000
268 91.57550000 93.74060000 25.17530000 65.86990000 79.90880000 16.50880000
269 15.30640000 91.46960000 41.13820000 32.61430000 60.15140000 23.30670000
270 20.57810000 92.01640000 61.91240000 37.34110000 62.73320000 43.10360000
271 0.000000000 49.06840000 43.04870000 10.29880000 16.07410000 17.38320000
272 67.69400000 77.52900000 54.12080000 42.59270000 51.74850000 32.26610000
273 78.11770000 35.30520000 23.56090000 28.33050000 19.89590000 6.285350000
274 84.27030000 50.03830000 26.34480000 37.06370000 30.57580000 8.982910000
275 93.34100000 85.67040000 84.94520000 73.49460000 74.21220000 76.53750000
276 100.0000000 93.37600000 100.0000000 90.04270000 89.99320000 107.2380000
277 40.26340000 26.63750000 53.79220000 12.14260000 8.620810000 25.22000000
278 60.41150000 33.73690000 67.32920000 24.45250000 16.59860000 41.55490000
279 74.64550000 44.01160000 70.68650000 35.97570000 26.30620000 47.29880000
280 78.29020000 50.98070000 100.0000000 50.24980000 35.88470000 98.89070000
281 90.15350000 51.18620000 95.90970000 57.49660000 39.91070000 90.98330000
282 24.57180000 9.170570000 27.86230000 3.155650000 1.778730000 5.871040000
283 23.29670000 0.000000000 28.95770000 2.856780000 1.336180000 6.305320000
284 52.41740000 9.676240000 94.18310000 25.99390000 11.88530000 83.85360000
285 56.79640000 66.16670000 95.91700000 42.77200000 41.55360000 92.09070000
286 15.48140000 8.523500000 25.67080000 1.747840000 1.032420000 4.862430000
287 100.0000000 35.41190000 26.59940000 45.86570000 28.94510000 8.311960000
288 100.0000000 48.89390000 17.13770000 49.02410000 36.23510000 6.366270000
289 100.0000000 76.96760000 22.07620000 61.99580000 61.73560000 12.06210000
290 100.0000000 100.0000000 23.11060000 77.71580000 93.06760000 17.64300000
291 22.02580000 23.06490000 32.40350000 4.414370000 4.209340000 8.516440000
292 29.11270000 69.84210000 74.53770000 28.43000000 37.67200000 55.34950000
293 41.00200000 92.15780000 83.07730000 47.68950000 67.55720000 73.45880000
294 41.68960000 100.0000000 100.0000000 59.82820000 81.84430000 107.2570000
295 97.22220000 0.000000000 0.000000000 38.76110000 19.98250000 1.814580000
296 100.0000000 0.000000000 0.000000000 41.23850000 21.25960000 1.930560000
297 100.0000000 21.73720000 14.89000000 42.75890000 23.86260000 3.788230000
298 100.0000000 82.93500000 62.77620000 71.41630000 71.24600000 43.97110000
299 100.0000000 100.0000000 68.30830000 84.80210000 95.90230000 54.96090000
300 0.000000000 17.02450000 34.26750000 2.440640000 2.141730000 9.260160000
301 11.72890000 22.12010000 36.28940000 3.607970000 3.558850000 10.67820000
302 0.000000000 31.40670000 59.51720000 8.566210000 7.907550000 31.29780000
303 14.79960000 74.01910000 60.38440000 25.02080000 39.60440000 37.52590000
