dispcalGUI/ti1/d3-e4-s0-g25-m3-f0-crossover.ti1
CTI1   

ORIGINATOR "Argyll targen"
CREATED "Wed Feb 24 03:22:43 2010"
KEYWORD "COMP_GREY_STEPS"
COMP_GREY_STEPS "25"
KEYWORD "ERROR_OPTIMISED_PATCHES"
ERROR_OPTIMISED_PATCHES "12"
KEYWORD "APPROX_WHITE_POINT"
APPROX_WHITE_POINT "95.106486 100.000000 108.844025"
DESCRIPTOR "Argyll Calibration Target chart information 1"
KEYWORD "MULTI_DIM_STEPS"
MULTI_DIM_STEPS "3"
KEYWORD "WHITE_COLOR_PATCHES"
WHITE_COLOR_PATCHES "4"
KEYWORD "COLOR_REP"
COLOR_REP "RGB"

NUMBER_OF_FIELDS 7
BEGIN_DATA_FORMAT
SAMPLE_ID RGB_R RGB_G RGB_B XYZ_X XYZ_Y XYZ_Z
END_DATA_FORMAT

NUMBER_OF_SETS 64
BEGIN_DATA
1 100.00 100.00 100.00 95.106 100.00 108.84
2 100.00 100.00 100.00 95.106 100.00 108.84
3 100.00 100.00 100.00 95.106 100.00 108.84
4 100.00 100.00 100.00 95.106 100.00 108.84
5 0.0000 0.0000 0.0000 1.0000 1.0000 1.0000
6 4.1667 4.1667 4.1667 1.3037 1.3195 1.3481
7 8.3333 8.3333 8.3333 1.7179 1.7552 1.8226
8 12.500 12.500 12.500 2.3504 2.4206 2.5475
9 16.667 16.667 16.667 3.2258 3.3416 3.5508
10 20.833 20.833 20.833 4.3653 4.5403 4.8566
11 25.000 25.000 25.000 5.7878 6.0367 6.4867
12 29.167 29.167 29.167 7.5103 7.8489 8.4607
13 33.333 33.333 33.333 9.5488 9.9933 10.797
14 37.500 37.500 37.500 11.918 12.486 13.512
15 41.667 41.667 41.667 14.631 15.340 16.621
16 45.833 45.833 45.833 17.702 18.571 20.140
17 50.000 50.000 50.000 21.143 22.190 24.083
18 54.167 54.167 54.167 24.965 26.211 28.463
19 58.333 58.333 58.333 29.179 30.644 33.293
20 62.500 62.500 62.500 33.797 35.503 38.585
21 66.667 66.667 66.667 38.829 40.796 44.351
22 70.833 70.833 70.833 44.284 46.535 50.603
23 75.000 75.000 75.000 50.173 52.730 57.351
24 79.167 79.167 79.167 56.504 59.390 64.606
25 83.333 83.333 83.333 63.287 66.526 72.379
26 87.500 87.500 87.500 70.530 74.146 80.680
27 91.667 91.667 91.667 78.242 82.259 89.518
28 95.833 95.833 95.833 86.432 90.874 98.903
29 50.000 0.0000 0.0000 9.7393 5.5060 1.4095
30 100.00 0.0000 0.0000 41.830 22.052 2.9132
31 0.0000 50.000 0.0000 8.5782 16.154 3.5261
32 50.000 50.000 0.0000 17.318 20.660 3.9356
33 100.00 50.000 0.0000 49.408 37.206 5.4393
34 0.0000 100.00 0.0000 36.405 71.801 12.802
35 50.000 100.00 0.0000 45.145 76.307 13.211
36 100.00 100.00 0.0000 77.235 92.853 14.715
37 0.0000 0.0000 50.000 4.8252 2.5298 21.147
38 50.000 0.0000 50.000 13.564 7.0358 21.557
39 100.00 0.0000 50.000 45.655 23.582 23.061
40 0.0000 50.000 50.000 12.403 17.684 23.674
41 100.00 50.000 50.000 53.233 38.736 25.587
42 0.0000 100.00 50.000 40.230 73.330 32.949
43 50.000 100.00 50.000 48.970 77.836 33.359
44 100.00 100.00 50.000 81.061 94.383 34.863
45 0.0000 0.0000 100.00 18.871 8.1473 95.129
46 50.000 0.0000 100.00 27.610 12.653 95.538
47 100.00 0.0000 100.00 59.701 29.199 97.042
48 0.0000 50.000 100.00 26.449 23.302 97.655
49 50.000 50.000 100.00 35.189 27.808 98.065
50 100.00 50.000 100.00 67.279 44.354 99.568
51 0.0000 100.00 100.00 54.276 78.948 106.93
52 50.000 100.00 100.00 63.016 83.454 107.34
53 0.0000 12.549 100.00 19.382 9.1699 95.299
54 12.549 0.0000 100.00 19.461 8.4514 95.157
55 0.0000 100.00 12.549 36.663 71.904 14.161
56 12.549 100.00 0.0000 36.995 72.105 12.829
57 100.00 0.0000 12.549 42.088 22.155 4.2728
58 100.00 12.549 0.0000 42.342 23.075 3.0837
59 0.0000 25.098 100.00 20.686 11.777 95.734
60 25.098 0.0000 100.00 20.964 9.2266 95.227
61 0.0000 100.00 25.098 37.321 72.167 17.628
62 25.098 100.00 0.0000 38.499 72.880 12.900
63 100.00 0.0000 25.098 42.746 22.419 7.7392
64 100.00 25.098 0.0000 43.645 25.682 3.5183
END_DATA
CTI1   

ORIGINATOR "Argyll targen"
KEYWORD "DENSITY_EXTREME_VALUES"
DENSITY_EXTREME_VALUES "8"
CREATED "February 24, 2010"
DESCRIPTOR "Argyll Calibration Target chart information 1"

KEYWORD "INDEX"
NUMBER_OF_FIELDS 7
BEGIN_DATA_FORMAT
INDEX RGB_R RGB_G RGB_B XYZ_X XYZ_Y XYZ_Z
END_DATA_FORMAT

NUMBER_OF_SETS 8
BEGIN_DATA
0 100.00 100.00 100.00 95.106 100.00 108.84
1 0.0000 47.361 100.00 25.613 21.629 97.376
2 100.00 0.0000 79.351 52.426 26.290 58.722
3 0.0000 0.0000 58.997 6.4858 3.1940 29.894
4 100.00 66.659 0.0000 56.059 50.505 7.6561
5 0.0000 35.601 0.0000 4.6856 8.3702 2.2286
6 84.444 0.0000 0.0000 28.843 15.356 2.3047
7 0.0000 0.0000 0.0000 1.0000 1.0000 1.0000
END_DATA
CTI1   

ORIGINATOR "Argyll targen"
CREATED "February 24, 2010"
DESCRIPTOR "Argyll Calibration Target chart information 1"
KEYWORD "DEVICE_COMBINATION_VALUES"
DEVICE_COMBINATION_VALUES "9"

KEYWORD "INDEX"
NUMBER_OF_FIELDS 7
BEGIN_DATA_FORMAT
INDEX RGB_R RGB_G RGB_B XYZ_X XYZ_Y XYZ_Z
END_DATA_FORMAT

NUMBER_OF_SETS 9
BEGIN_DATA
0 100.00 100.00 100.00 95.106 100.00 108.84
1 0.0000 100.00 100.00 54.276 78.948 106.93
2 100.00 0.0000 100.00 59.701 29.199 97.042
3 0.0000 0.0000 100.00 18.871 8.1473 95.129
4 100.00 100.00 0.0000 77.235 92.853 14.715
5 0.0000 100.00 0.0000 36.405 71.801 12.802
6 100.00 0.0000 0.0000 41.830 22.052 2.9132
7 0.0000 0.0000 0.0000 1.0000 1.0000 1.0000
8 60.000 60.000 60.000 30.977 32.536 35.353
END_DATA