dispcalGUI/ti1/d3-e4-s25-g73-m0-f679-caRGB.ti1
CTI1   

DESCRIPTOR "Argyll Calibration Target chart information 1"
ORIGINATOR "Argyll targen"
CREATED "Wed Aug 27 18:31:41 2014"
KEYWORD "APPROX_WHITE_POINT"
APPROX_WHITE_POINT "95.045781 100.000003 108.905751"
KEYWORD "COLOR_REP"
COLOR_REP "RGB"
KEYWORD "ACCURATE_EXPECTED_VALUES"
ACCURATE_EXPECTED_VALUES "true"
KEYWORD "DARK_REGION_EMPHASIS"
DARK_REGION_EMPHASIS "1.600000"
KEYWORD "WHITE_COLOR_PATCHES"
WHITE_COLOR_PATCHES "4"
KEYWORD "BLACK_COLOR_PATCHES"
BLACK_COLOR_PATCHES "4"
KEYWORD "SINGLE_DIM_STEPS"
SINGLE_DIM_STEPS "25"
KEYWORD "COMP_GREY_STEPS"
COMP_GREY_STEPS "73"
KEYWORD "OFPS_PATCHES"
OFPS_PATCHES "528"

NUMBER_OF_FIELDS 7
BEGIN_DATA_FORMAT
SAMPLE_ID RGB_R RGB_G RGB_B XYZ_X XYZ_Y XYZ_Z 
END_DATA_FORMAT

NUMBER_OF_SETS 679
BEGIN_DATA
1 100.000 100.000 100.000 95.0458 100.000 108.906 
2 19.1295 26.0423 13.3000 2.70323 4.12615 1.61103 
3 30.2687 42.0167 42.5564 9.79566 12.6157 16.3889 
4 56.7021 55.0117 70.5404 30.2814 28.8880 48.6908 
5 64.6341 72.9288 77.6858 42.1547 47.0416 61.4587 
6 58.5365 22.8845 0.00000 18.4846 11.6067 1.10862 
7 78.6340 31.1047 0.00000 35.4127 22.3359 2.13553 
8 100.000 30.6535 100.000 77.8673 41.9218 102.363 
9 100.000 51.3226 100.000 80.7691 51.7325 103.468 
10 3.96825 0.00000 0.00000 0.0477464 0.0246191 2.23863e-003 
11 6.09756 0.00000 0.00000 0.122806 0.0633216 5.75786e-003 
12 8.33333 0.00000 0.00000 0.244102 0.125865 0.0114449 
13 10.6838 0.00000 0.00000 0.421579 0.217376 0.0197661 
14 13.1579 0.00000 0.00000 0.666539 0.343683 0.0312512 
15 15.7658 0.00000 0.00000 0.992035 0.511516 0.0465124 
16 18.5185 0.00000 0.00000 1.41330 0.728727 0.0662635 
17 21.4286 0.00000 0.00000 1.94821 1.00454 0.0913432 
18 24.5098 0.00000 0.00000 2.61789 1.34985 0.122742 
19 27.7778 0.00000 0.00000 3.44744 1.77758 0.161636 
20 31.2500 0.00000 0.00000 4.46675 2.30316 0.209427 
21 34.9462 0.00000 0.00000 5.71169 2.94508 0.267797 
22 38.8889 0.00000 0.00000 7.22543 3.72560 0.338770 
23 43.1034 0.00000 0.00000 9.06023 4.67166 0.424796 
24 47.6190 0.00000 0.00000 11.2797 5.81605 0.528857 
25 52.4691 0.00000 0.00000 13.9616 7.19891 0.654600 
26 57.6923 0.00000 0.00000 17.2018 8.86962 0.806519 
27 63.3333 0.00000 0.00000 21.1190 10.8894 0.990181 
28 69.4444 0.00000 0.00000 25.8615 13.3348 1.21254 
29 76.0870 0.00000 0.00000 31.6157 16.3018 1.48233 
30 83.3333 0.00000 0.00000 38.6180 19.9123 1.81064 
31 100.000 27.5781 0.00000 58.7588 33.4258 3.11964 
32 100.000 46.5100 0.00000 61.1133 41.3858 4.01642 
33 100.000 61.1875 0.00000 63.9666 51.0325 5.10324 
34 100.000 86.3628 0.00000 71.1088 75.1793 7.82365 
35 100.000 100.000 0.00000 76.2231 92.4704 9.77168 
36 12.4553 20.4100 0.00000 1.15399 2.20880 0.242227 
37 24.1478 28.6292 0.00000 3.71908 5.31432 0.570330 
38 76.5280 28.8118 32.0981 34.7686 21.1932 10.1036 
39 76.5931 29.6179 75.6176 43.5374 24.9321 55.6058 
40 100.000 30.8045 80.4237 70.7169 39.1060 64.6304 
41 0.00000 3.96825 0.00000 0.0153639 0.0519434 5.85201e-003 
42 0.00000 6.09756 0.00000 0.0395167 0.133601 0.0150516 
43 0.00000 21.4286 0.00000 0.626896 2.11946 0.238781 
44 0.00000 24.5098 0.00000 0.842389 2.84801 0.320860 
45 0.00000 27.7778 0.00000 1.10932 3.75047 0.422533 
46 0.00000 31.2500 0.00000 1.43732 4.85939 0.547465 
47 0.00000 34.9462 0.00000 1.83792 6.21376 0.700050 
48 0.00000 47.6190 0.00000 3.62959 12.2712 1.38249 
49 0.00000 52.4691 0.00000 4.49258 15.1888 1.71119 
50 0.00000 57.6923 0.00000 5.53521 18.7138 2.10832 
51 0.00000 63.3333 0.00000 6.79570 22.9754 2.58844 
52 0.00000 69.4444 0.00000 8.32174 28.1347 3.16970 
53 0.00000 76.0870 0.00000 10.1733 34.3947 3.87495 
54 0.00000 83.3333 0.00000 12.4266 42.0126 4.73320 
55 31.7882 100.000 66.3666 30.8341 68.1836 47.5247 
56 53.2587 100.000 71.0583 41.8627 73.7270 54.5062 
57 0.00000 0.00000 1.93798 3.22247e-003 1.28909e-003 0.0169719 
58 0.00000 0.00000 3.96825 0.0155846 6.23429e-003 0.0820799 
59 0.00000 0.00000 6.09756 0.0400842 0.0160349 0.211113 
60 0.00000 0.00000 8.33333 0.0796755 0.0318726 0.419631 
61 0.00000 0.00000 13.1579 0.217560 0.0870305 1.14583 
62 0.00000 0.00000 15.7658 0.323803 0.129531 1.70539 
63 0.00000 0.00000 18.5185 0.461303 0.184535 2.42957 
64 28.7072 0.00000 26.4525 4.71675 2.31525 5.49608 
65 0.00000 0.00000 0.00000 0.00000 0.00000 0.00000 
66 0.00000 0.00000 24.5098 0.854487 0.341820 4.50036 
67 0.00000 0.00000 27.7778 1.12525 0.450134 5.92641 
68 0.00000 0.00000 31.2500 1.45796 0.583227 7.67870 
69 21.2002 0.00000 37.9106 4.13272 1.87316 11.8335 
70 100.000 100.000 100.000 95.0458 100.000 108.906 
71 0.00000 0.00000 43.1034 2.95728 1.18300 15.5752 
72 0.00000 0.00000 47.6190 3.68171 1.47280 19.3906 
73 0.00000 0.00000 52.4691 4.55710 1.82297 24.0011 
74 0.00000 0.00000 57.6923 5.61470 2.24605 29.5712 
75 0.00000 0.00000 63.3333 6.89329 2.75752 36.3052 
76 0.00000 0.00000 69.4444 8.44125 3.37675 44.4579 
77 0.00000 0.00000 76.0870 10.3194 4.12808 54.3498 
78 0.00000 0.00000 83.3333 12.6050 5.04239 66.3875 
79 0.00000 0.00000 91.2698 15.3968 6.15920 81.0912 
80 28.9477 53.1430 100.000 27.2179 25.0972 101.071 
81 57.2145 64.9504 100.000 42.8958 40.5237 102.662 
82 0.00000 1.93798 0.00000 3.17685e-003 0.0107405 1.21004e-003 
83 2.60417 2.60417 2.60417 0.0311632 0.0327876 0.0357075 
84 3.28084 3.28084 3.28084 0.0517916 0.0544912 0.0593441 
85 3.96825 3.96825 3.96825 0.0786949 0.0827968 0.0901705 
86 6.09756 6.09756 6.09756 0.202407 0.212957 0.231923 
87 9.55693 15.6757 31.6353 2.14293 1.83500 8.02396 
88 0.00000 0.00000 0.00000 0.00000 0.00000 0.00000 
89 0.636132 0.636132 0.636132 1.40428e-003 1.47748e-003 1.60906e-003 
90 6.83060 6.83060 6.83060 0.259808 0.273351 0.297695 
91 7.57576 7.57576 7.57576 0.326246 0.343252 0.373821 
92 8.33333 8.33333 8.33333 0.402325 0.423296 0.460994 
93 9.10364 9.10364 9.10364 0.488674 0.514146 0.559935 
94 9.88701 9.88701 9.88701 0.585950 0.616492 0.671396 
95 10.6838 10.6838 10.6838 0.694840 0.731058 0.796164 
96 11.4943 11.4943 11.4943 0.816064 0.858602 0.935066 
97 12.3188 12.3188 12.3188 0.950379 0.999917 1.08897 
98 13.1579 13.1579 13.1579 1.09858 1.15584 1.25878 
99 14.0118 14.0118 14.0118 1.26150 1.32725 1.44545 
100 14.8810 14.8810 14.8810 1.44001 1.51507 1.65000 
101 15.7658 15.7658 15.7658 1.63506 1.72028 1.87349 
102 16.6667 16.6667 16.6667 1.84760 1.94391 2.11703 
103 17.5841 17.5841 17.5841 2.07868 2.18703 2.38180 
104 18.5185 18.5185 18.5185 2.32937 2.45079 2.66905 
105 19.4704 19.4704 19.4704 2.60084 2.73640 2.98010 
106 20.4403 20.4403 20.4403 2.89428 3.04515 3.31634 
107 21.4286 21.4286 21.4286 3.21100 3.37837 3.67924 
108 22.4359 22.4359 22.4359 3.55235 3.73751 4.07037 
109 23.4628 23.4628 23.4628 3.91976 4.12408 4.49136 
110 24.5098 24.5098 24.5098 4.31477 4.53967 4.94397 
111 25.5776 25.5776 25.5776 4.73899 4.98600 5.43004 
112 26.6667 26.6667 26.6667 5.19413 5.46487 5.95156 
113 27.7778 27.7778 27.7778 5.68201 5.97818 6.51058 
114 28.9116 28.9116 28.9116 6.20457 6.52798 7.10934 
115 30.0687 30.0687 30.0687 6.76385 7.11641 7.75018 
116 31.2500 31.2500 31.2500 7.36203 7.74577 8.43559 
117 32.4561 32.4561 32.4561 8.00143 8.41850 9.16823 
118 33.6879 33.6879 33.6879 8.68452 9.13720 9.95093 
119 34.9462 34.9462 34.9462 9.41392 9.90462 10.7867 
120 36.2319 36.2319 36.2319 10.1924 10.7237 11.6787 
121 37.5458 37.5458 37.5458 11.0230 11.5976 12.6304 
122 38.8889 38.8889 38.8889 11.9088 12.5296 13.6454 
123 40.2622 40.2622 40.2622 12.8533 13.5233 14.7276 
124 41.6667 41.6667 41.6667 13.8601 14.5825 15.8812 
125 43.1034 43.1034 43.1034 14.9329 15.7113 17.1105 
126 44.5736 44.5736 44.5736 16.0760 16.9140 18.4203 
127 46.0784 46.0784 46.0784 17.2938 18.1952 19.8157 
128 47.6190 47.6190 47.6190 18.5910 19.5600 21.3020 
129 49.1968 49.1968 49.1968 19.9726 21.0137 22.8851 
130 50.8130 50.8130 50.8130 21.4441 22.5618 24.5711 
131 52.4691 52.4691 52.4691 23.0113 24.2107 26.3668 
132 54.1667 54.1667 54.1667 24.6804 25.9668 28.2794 
133 55.9072 55.9072 55.9072 26.4581 27.8372 30.3163 
134 57.6923 57.6923 57.6923 28.3517 29.8295 32.4860 
135 59.5238 59.5238 59.5238 30.3689 31.9518 34.7974 
136 61.4035 61.4035 61.4035 32.5180 34.2129 37.2599 
137 63.3333 63.3333 63.3333 34.8080 36.6223 39.8838 
138 65.3153 65.3153 65.3153 37.2486 39.1902 42.6804 
139 67.3516 67.3516 67.3516 39.8504 41.9276 45.6615 
140 69.4444 69.4444 69.4444 42.6245 44.8463 48.8402 
141 71.5962 71.5962 71.5962 45.5832 47.9592 52.2303 
142 73.8095 73.8095 73.8095 48.7397 51.2803 55.8472 
143 76.0870 76.0870 76.0870 52.1084 54.8246 59.7071 
144 78.4314 78.4314 78.4314 55.7048 58.6084 63.8279 
145 80.8458 80.8458 80.8458 59.5458 62.6496 68.2290 
146 83.3333 83.3333 83.3333 63.6496 66.9674 72.9313 
147 85.8974 85.8974 85.8974 68.0363 71.5827 77.9577 
148 88.5417 88.5417 88.5417 72.7276 76.5185 83.3330 
149 91.2698 91.2698 91.2698 77.7470 81.7996 89.0844 
150 91.0896 100.000 100.000 84.3455 94.4827 108.404 
151 52.4483 100.000 53.0254 37.1696 71.7943 32.2862 
152 69.9917 100.000 60.7791 51.1646 78.8218 41.4644 
153 86.4080 100.000 67.2815 68.2511 87.4496 50.4982 
154 62.0288 65.2077 22.9310 28.1581 35.1949 7.59314 
155 69.6219 65.8258 35.1067 35.2880 39.1741 13.9554 
156 48.7107 100.000 0.00000 30.4123 68.8493 7.62380 
157 66.3967 100.000 0.00000 41.9870 74.8175 8.16649 
158 82.7682 100.000 0.00000 56.6006 82.3526 8.85166 
159 100.000 100.000 37.7541 78.4328 93.3543 21.4096 
160 35.5048 56.5982 12.0850 11.4018 21.0640 3.24904 
161 50.6147 100.000 33.9228 33.2018 70.0858 16.8703 
162 0.00000 91.2698 0.00000 15.1789 51.3178 5.78153 
163 0.00000 100.000 0.00000 18.5562 62.7360 7.06792 
164 0.00000 100.000 28.1926 19.7187 63.2010 13.1907 
165 0.00000 100.000 50.2029 22.6916 64.3903 28.8481 
166 0.00000 100.000 68.0307 26.6241 65.9634 49.5597 
167 33.4614 100.000 82.8565 36.1946 70.3920 72.8662 
168 81.7284 100.000 89.7238 70.3864 87.7467 86.9037 
169 45.4582 23.9648 19.9015 11.5268 8.17817 3.62945 
170 53.1480 31.9007 33.3006 17.5426 13.1607 10.0768 
171 100.000 29.7619 46.2585 62.4124 35.4812 21.3886 
172 76.5527 0.00000 23.7505 32.8402 16.8410 5.70177 
173 79.3124 0.00000 44.7642 37.8519 19.1458 18.5496 
174 78.3123 0.00000 100.000 52.5076 24.8983 100.713 
175 0.00000 75.8195 79.1988 21.3653 38.6379 63.2036 
176 0.00000 85.3694 100.000 31.9267 51.8328 104.125 
177 30.7655 84.7721 100.000 36.0418 53.3793 104.251 
178 0.00000 72.3467 100.000 27.9285 38.3152 102.602 
179 46.0090 78.0612 100.000 40.0435 49.3100 103.724 
180 48.6067 100.000 100.000 49.1794 76.3503 106.755 
181 37.4518 15.3606 0.00000 6.95264 4.44868 0.426668 
182 61.3415 54.3076 0.00000 24.5318 26.5343 2.76881 
183 78.8304 62.6199 0.00000 40.8055 40.0325 4.12716 
184 100.000 63.9982 47.4380 68.2716 54.7041 24.5812 
185 4.66667 4.66667 4.66667 0.112406 0.118265 0.128797 
186 5.37634 5.37634 5.37634 0.153460 0.161459 0.175839 
187 0.00000 58.9272 49.0809 9.73398 21.1801 22.9327 
188 70.1342 73.2071 64.5492 42.9631 48.0996 42.6546 
189 100.000 80.5523 83.0200 81.7007 73.7259 72.9362 
190 91.2698 0.00000 0.00000 47.1713 24.3226 2.21167 
191 100.000 0.00000 0.00000 57.6670 29.7344 2.70376 
192 100.000 0.00000 20.2098 58.2260 29.9580 5.64821 
193 100.000 30.4196 62.8202 65.7927 37.0230 38.8812 
194 24.0358 0.00000 14.7830 2.78890 1.40553 1.59788 
195 26.6934 46.3601 70.2476 15.2377 16.6607 47.0480 
196 31.8554 56.9535 72.2139 19.2391 24.2733 50.7184 
197 0.00000 17.1795 56.3282 5.71244 3.43449 28.2021 
198 16.1436 20.4190 68.6258 9.83281 5.73473 43.5772 
199 88.4646 75.3992 67.8092 62.0239 59.6278 48.0513 
200 100.000 79.1168 68.3678 76.9087 70.4761 49.8823 
201 100.000 90.6614 71.5526 81.6393 83.9091 55.8810 
202 20.4526 57.8773 29.8705 8.65285 20.2808 9.15855 
203 44.9310 77.2306 56.6178 25.8265 42.8154 32.8430 
204 74.0267 83.6885 74.9827 52.2997 61.7516 58.8033 
205 73.7574 100.000 77.0223 58.6825 82.2007 64.2823 
206 0.00000 30.5334 18.0456 1.80162 4.79203 2.81544 
207 11.2023 33.2367 24.6393 2.97832 6.15187 5.20172 
208 32.4472 37.0848 24.8011 7.82311 9.93333 5.64406 
209 76.9935 38.5441 53.2651 39.4405 26.3244 27.1989 
210 39.9510 0.00000 19.9315 8.20881 4.16996 3.21544 
211 60.0763 0.00000 50.0241 22.9069 11.3370 22.4915 
212 50.5641 0.00000 35.1461 14.7588 7.39176 10.5462 
213 73.4027 0.00000 73.9428 38.9052 18.9402 52.4080 
214 100.000 0.00000 81.6074 69.7050 34.5500 66.1048 
215 1.28205 1.28205 1.28205 6.55848e-003 6.90033e-003 7.51486e-003 
216 1.93798 1.93798 1.93798 0.0162720 0.0171202 0.0186449 
217 0.00000 14.1924 16.0225 0.588835 0.990664 1.86355 
218 0.00000 21.4478 17.8660 1.05444 2.29417 2.48452 
219 0.00000 11.4323 20.8461 0.755946 0.771711 3.21214 
220 0.00000 24.7183 33.1827 2.52187 3.56707 9.08888 
221 22.6237 26.9259 49.1894 7.18510 6.21580 21.3223 
222 29.7550 35.8340 66.2367 13.5598 11.6772 40.9941 
223 76.6148 45.9378 77.5369 46.2107 32.1931 59.4361 
224 100.000 52.9826 81.8113 74.3611 50.0941 68.2020 
225 100.000 69.9861 84.5591 79.1485 63.5609 74.4821 
226 100.000 71.8067 100.000 85.4466 67.5465 105.250 
227 100.000 87.4101 100.000 90.2925 83.9297 107.095 
228 0.00000 0.00000 34.9462 1.86431 0.745780 9.81885 
229 0.00000 0.00000 38.8889 2.35840 0.943430 12.4211 
230 0.00000 21.7689 77.6195 11.4311 6.50733 57.0336 
231 0.00000 34.2027 77.3330 12.4477 10.2049 56.9942 
232 0.00000 52.3107 79.9162 15.9590 19.6870 62.2473 
233 0.00000 100.000 84.1647 31.4394 67.8897 74.9207 
234 0.00000 100.000 100.000 37.3788 70.2656 106.202 
235 27.8555 100.000 100.000 40.8475 72.0541 106.365 
236 0.00000 8.33333 0.00000 0.0785475 0.265559 0.0299182 
237 0.00000 10.6838 0.00000 0.135656 0.458637 0.0516706 
238 23.0004 12.8249 0.00000 2.47910 1.85913 0.183945 
239 37.6417 13.8357 57.7386 12.5898 6.52771 30.0299 
240 47.8277 30.7788 65.6917 20.2492 13.5603 40.4083 
241 100.000 28.4260 27.5065 59.9353 34.1206 8.94815 
242 100.000 45.8839 25.3637 61.9334 41.4122 8.83025 
243 100.000 48.6766 46.4118 64.9558 44.0048 22.4806 
244 100.000 51.3141 64.8893 69.2162 47.1063 42.6289 
245 0.00000 0.00000 10.6838 0.137604 0.0550459 0.724728 
246 14.5707 0.00000 13.8415 1.07734 0.527387 1.31995 
247 0.00000 15.7658 0.00000 0.319218 1.07924 0.121588 
248 0.00000 18.5185 0.00000 0.454772 1.53753 0.173220 
249 25.5748 63.3456 0.00000 9.67321 24.4674 2.72432 
250 38.0997 73.7294 15.5143 16.7124 35.7808 5.58576 
251 55.8009 79.4763 44.9309 30.4225 47.3933 22.0788 
252 81.4478 86.0120 50.9457 54.3155 65.6834 29.2911 
253 57.8966 35.5548 13.9934 19.4942 15.4927 2.85191 
254 72.9436 46.7159 45.2384 35.5831 27.9381 19.9989 
255 100.000 66.5237 66.2509 72.8494 58.3769 45.6729 
256 32.7926 0.00000 100.000 23.7887 10.0902 99.3669 
257 54.5866 0.00000 100.000 34.0534 15.3829 99.8482 
258 0.00000 0.00000 100.000 18.8226 7.52962 99.1341 
259 0.00000 24.1040 100.000 19.6347 10.2749 99.4434 
260 0.00000 37.5878 100.000 20.9800 14.8234 99.9558 
261 0.00000 48.7371 100.000 22.6423 20.4433 100.589 
262 0.00000 59.2730 100.000 24.6969 27.3896 101.372 
263 23.7370 69.8387 100.000 29.6884 37.2748 102.458 
264 61.2816 76.6447 100.000 48.8043 52.6099 103.993 
265 73.9304 89.0784 100.000 62.8899 71.4793 106.006 
266 0.00000 30.0880 31.0617 2.76110 5.04636 8.08098 
267 0.00000 42.7483 33.3808 4.54842 10.3532 9.96791 
268 0.00000 43.3418 45.4033 6.26642 11.3032 18.5856 
269 25.3034 70.8543 70.4854 20.2278 34.3432 49.3813 
270 100.000 100.000 87.6949 90.3248 98.1115 84.0413 
271 100.000 100.000 100.000 95.0458 100.000 108.906 
272 33.8848 22.2128 27.7591 7.13915 5.49518 6.42633 
273 38.0264 25.9871 39.2442 10.2418 7.74801 13.3595 
274 54.2843 30.4747 44.2875 19.5448 13.6118 17.7552 
275 54.1841 37.9285 55.4042 22.3221 17.2213 28.5939 
276 69.4904 57.1682 58.4338 37.0989 34.0062 33.6942 
277 0.00000 64.1738 36.8071 9.08523 24.4871 13.6701 
278 26.7912 72.4625 39.3025 14.7357 33.5014 16.3433 
279 0.00000 40.3478 71.2069 11.4407 12.0918 47.9375 
280 48.2685 48.5879 77.0994 26.0386 23.0688 57.9429 
281 14.2436 37.5618 47.9156 6.67991 9.18487 20.5149 
282 33.7347 46.9870 58.9948 14.7070 17.0001 32.6496 
283 0.00000 13.1579 0.00000 0.214480 0.725128 0.0816939 
284 16.3982 16.6738 0.00000 1.44272 1.77840 0.188237 
285 22.0667 47.0509 0.00000 5.61311 13.0230 1.44390 
286 28.2576 81.1783 0.00000 15.3105 41.5060 4.63601 
287 46.6596 82.1030 0.00000 22.8125 46.2220 5.08658 
288 63.4012 81.4517 0.00000 32.9867 50.8697 5.49385 
289 89.8953 89.1361 21.4339 60.6688 72.4951 10.9785 
290 100.000 89.0188 26.3928 73.0402 78.7120 13.4723 
291 53.7091 0.00000 16.3505 15.0483 7.71868 2.53670 
292 100.000 0.00000 33.8182 59.4015 30.4283 11.8390 
293 100.000 0.00000 46.2648 61.1223 31.1167 20.9023 
294 100.000 0.00000 63.2502 64.5404 32.4840 38.9042 
295 100.000 0.00000 100.000 76.4896 37.2640 101.838 
296 0.00000 0.00000 21.4286 0.635899 0.254379 3.34912 
297 0.00000 13.0740 35.4934 2.14059 1.48670 10.2407 
298 0.00000 24.6800 51.7811 5.28202 4.66249 23.6402 
299 0.00000 33.5409 52.8125 6.30223 7.52675 24.9875 
300 0.00000 42.0619 54.3214 7.68112 11.3079 26.9562 
301 0.00000 59.4182 63.7767 12.9058 22.7673 39.1160 
302 44.4666 68.1833 66.7383 25.4300 35.1202 44.2360 
303 16.8561 42.4172 36.9685 6.07335 10.9513 12.2378 
304 42.7053 51.1539 37.3896 15.2889 19.8066 13.4267 
305 48.7982 51.3679 100.000 35.0136 28.1637 101.325 
306 26.0280 0.00000 56.2950 8.30778 3.66873 28.1590 
307 32.0669 0.00000 76.8901 15.2881 6.66215 55.8411 
308 56.8807 0.00000 80.8035 28.4528 13.3094 62.8175 
309 81.4839 29.1471 100.000 56.8140 30.6521 101.327 
310 27.6576 100.000 0.00000 21.9709 64.4967 7.22802 
311 32.9998 100.000 26.5670 24.6117 65.7404 12.6771 
312 76.4928 100.000 24.6607 51.4100 79.5760 13.1292 
313 88.9486 100.000 49.9570 67.2202 87.3554 30.7040 
314 0.00000 38.8889 0.00000 2.32501 7.86056 0.885581 
315 0.00000 43.1034 0.00000 2.91541 9.85663 1.11046 
316 0.00000 46.7074 24.3855 4.32350 12.0985 5.77525 
317 48.9341 39.2952 0.00000 14.3548 14.2174 1.46756 
318 80.1597 51.2535 0.00000 39.7241 32.7082 3.28765 
319 83.1851 51.0680 23.5782 43.4848 34.4595 7.54861 
320 100.000 61.9082 27.8257 65.2604 52.0400 11.1147 
321 60.9148 79.2265 84.2219 43.4078 52.7505 73.0984 
322 65.8820 100.000 100.000 60.4121 82.1421 107.282 
323 79.2167 100.000 100.000 71.9252 88.0785 107.822 
324 15.8221 18.3280 81.6207 13.4867 6.83579 63.6401 
325 47.2921 37.5571 100.000 32.0862 20.5389 100.475 
326 66.1276 44.2838 100.000 45.1391 29.9637 101.401 
327 70.9804 61.8432 100.000 52.4078 43.3249 102.863 
328 86.2925 73.0307 100.000 69.8171 60.4595 104.630 
329 77.2976 78.4435 100.000 62.4344 61.1883 104.813 
330 37.7773 35.1131 27.0585 9.69841 10.1995 6.61939 
331 59.6268 59.9965 40.1046 27.0525 30.9434 16.4562 
332 79.4605 66.9018 42.4764 45.3105 44.9981 19.6321 
333 100.000 78.1885 50.4077 72.6411 67.9222 28.7940 
334 100.000 100.000 66.3474 83.8585 95.5248 49.9854 
335 35.3292 47.4377 0.00000 9.44952 15.1852 1.64523 
336 54.2259 61.4116 0.00000 21.3607 29.2097 3.12262 
337 77.4220 77.8805 0.00000 43.5567 53.1405 5.61881 
338 0.00000 82.0442 30.6948 13.4093 41.1572 11.9555 
339 36.0797 87.3953 30.4700 21.3039 50.3593 12.8062 
340 94.0860 94.0860 94.0860 83.1206 87.4532 95.2416 
341 26.1733 14.1561 69.7532 11.8005 5.82106 45.1315 
342 39.2355 24.7510 79.5109 19.5969 11.2567 60.5474 
343 63.7296 29.2603 87.3877 36.6476 20.8424 75.1761 
344 90.2027 61.7732 86.7568 66.1718 50.9598 77.1390 
345 92.7630 14.8370 51.9230 53.6179 27.9322 25.8534 
346 95.9489 16.0075 67.8972 61.0170 31.4789 44.9031 
347 12.5416 8.81239 0.00000 0.688628 0.609568 0.0619539 
348 23.4366 20.0795 2.17775 2.91992 3.06197 0.340130 
349 53.2959 68.6599 34.5313 24.3823 35.6176 13.3333 
350 63.8731 70.5453 37.4659 32.3043 41.0887 15.7335 
351 0.00000 61.7431 21.5661 7.07100 21.9838 5.84423 
352 14.0861 82.9699 22.2784 13.7747 42.2871 8.37243 
353 50.1530 88.1568 22.3209 27.4010 54.3436 9.61292 
354 74.2437 88.5286 25.3050 45.0666 63.8016 11.6388 
355 74.5355 91.0784 44.6148 48.5142 67.9371 23.9732 
356 90.0654 100.000 83.4055 76.9984 91.4103 75.7299 
357 12.4943 32.1244 36.7433 4.20376 6.30287 11.5732 
358 26.0402 34.0158 40.1135 7.24773 8.40791 14.0975 
359 67.1983 33.0839 41.2021 28.3648 18.9845 15.8527 
360 73.5822 59.2494 51.0373 39.5290 36.7028 26.1968 
361 87.9894 66.7670 52.2562 55.6718 50.0523 28.7351 
362 94.5027 81.6719 58.6505 68.6342 68.7790 37.5778 
363 74.3206 73.5868 52.0032 43.9452 49.2267 28.5430 
364 81.9634 74.3400 60.0851 53.0419 54.3374 37.7635 
365 39.1621 75.6304 35.8559 19.3498 38.5150 14.5577 
366 50.9672 89.9940 40.5381 30.3978 57.5405 19.8285 
367 71.9709 100.000 43.9159 49.6133 78.3936 24.6078 
368 13.1727 7.24363 17.6904 1.14305 0.706528 2.25033 
369 22.0863 7.31792 23.9663 2.95454 1.59853 4.40393 
370 26.1042 16.1038 26.6555 4.36924 3.09241 5.68093 
371 56.4516 20.6449 29.8611 18.2955 10.9360 7.93698 
372 90.2754 23.7658 33.7309 48.5603 27.0949 11.5423 
373 90.2315 51.8190 55.3494 55.4956 40.5465 30.8159 
374 93.7299 61.8332 71.3613 65.4216 51.1684 52.0019 
375 30.3964 18.2380 16.0532 4.97949 3.78861 2.13907 
376 34.2942 46.9734 78.9818 20.2048 19.2152 60.5999 
377 45.0716 53.7316 90.9080 29.9917 27.2635 82.6576 
378 83.8827 78.3187 90.3267 65.0703 62.8747 85.2261 
379 13.1929 79.8470 43.6289 15.0194 39.8045 20.3359 
380 14.8378 93.7205 55.5427 22.1226 56.9107 33.3712 
381 19.7437 95.5761 72.2016 27.6216 61.3114 54.9072 
382 15.2128 46.8188 32.1824 5.96925 12.9173 9.56647 
383 18.1437 55.3688 49.2299 10.3691 19.3775 22.8520 
384 16.0391 25.9881 21.0628 2.60071 4.01566 3.63796 
385 29.9853 25.7788 33.3580 6.70314 5.95879 9.41387 
386 47.1651 25.4301 49.0159 15.8815 10.3528 21.5294 
387 47.5199 39.7272 78.1163 24.5992 18.4016 59.0434 
388 0.00000 78.3332 67.8411 18.8641 39.8751 46.3627 
389 66.1722 87.7863 74.8209 47.1364 63.0789 58.7786 
390 75.1001 88.6447 86.0665 58.4883 69.3812 78.1328 
391 19.1788 20.5163 28.7715 3.31187 3.19947 6.69126 
392 75.3599 19.3854 39.2811 33.8690 18.6259 14.3411 
393 75.7126 50.8537 57.1518 40.9682 32.5052 32.0291 
394 48.1934 36.0300 43.6250 16.5832 13.8316 17.2844 
395 48.9070 41.6326 59.6456 20.7039 17.7164 33.4075 
396 28.0781 30.6760 42.8160 7.82390 7.65107 16.0388 
397 27.9890 48.7887 54.6229 12.3125 16.7429 27.8438 
398 27.8377 70.6032 60.2912 18.2800 33.4381 36.0297 
399 39.3324 76.4803 91.2424 33.0839 44.7618 85.3042 
400 58.4102 78.1071 91.9860 44.1167 51.8152 87.4307 
401 0.00000 18.7632 33.0482 2.11694 2.24215 8.86237 
402 14.9984 26.5082 41.1941 4.56661 4.91296 14.5210 
403 39.3576 35.4010 45.6327 12.6617 11.5591 18.7243 
404 42.5691 60.7537 44.7366 18.2262 26.7966 19.6782 
405 48.2807 84.1946 50.9863 28.6166 50.6804 27.9211 
406 17.1388 70.9623 15.4428 10.2284 30.2433 5.00945 
407 39.1726 92.2879 16.8262 23.2692 56.5201 8.23639 
408 16.3882 94.3353 17.3795 17.8041 55.9023 8.38083 
409 14.5690 93.8569 37.9922 19.2156 55.8975 17.9871 
410 37.7705 90.9998 46.7355 25.3897 55.8918 24.6699 
411 87.8420 93.9239 86.7477 73.2980 82.5236 80.7075 
412 96.9945 96.9945 96.9945 88.8765 93.5092 101.837 
413 49.7050 14.4687 14.6193 12.9335 7.39438 2.12631 
414 89.9710 45.0573 13.7755 49.1622 34.5302 4.63467 
415 90.8971 62.9856 15.7802 53.7870 46.9334 6.45795 
416 100.000 75.5872 27.8425 68.8249 64.0867 12.4798 
417 70.7891 39.0783 10.1512 29.4486 21.9034 2.80751 
418 74.1166 39.8168 22.1054 32.9727 23.9391 5.91809 
419 78.7461 42.3261 35.6526 38.8459 27.8303 12.9262 
420 89.6163 52.1363 34.7316 51.5816 39.0775 13.4986 
421 41.6350 12.6288 17.8160 9.01492 5.16082 2.69973 
422 63.9056 14.5555 41.4136 24.5171 13.0958 15.3758 
423 78.7601 15.6026 52.9859 39.0784 20.5054 26.2421 
424 88.0361 31.5939 52.7546 49.6578 29.2902 26.8929 
425 43.2061 27.4137 0.00000 10.1854 8.33938 0.837473 
426 43.4104 27.7385 13.4818 10.5381 8.57577 2.06148 
427 52.2070 40.9092 16.1636 16.7497 16.0436 3.43883 
428 51.7654 57.7732 50.1749 23.2357 27.4121 24.5037 
429 53.4963 66.7993 57.8045 27.8490 35.5998 33.2912 
430 8.74928 19.0633 12.0777 0.936623 1.85095 1.14645 
431 13.7553 20.1566 21.1153 1.89850 2.47778 3.48556 
432 27.0638 23.3581 41.4186 6.72236 5.32430 14.7089 
433 50.1148 5.30711 27.1261 13.7179 7.03324 6.22779 
434 65.8960 12.9982 26.6341 24.2787 12.9983 6.56299 
435 77.3950 17.6040 86.4567 46.8976 23.7673 73.6767 
