dispcalGUI/ti1/d3-e4-s37-g109-m0-f1906-csRGB.ti1
CTI1   

ORIGINATOR "Argyll targen"
KEYWORD "OFPS_PATCHES"
OFPS_PATCHES "1683"
CREATED "Wed Dec 18 02:53:36 2013"
KEYWORD "COMP_GREY_STEPS"
COMP_GREY_STEPS "109"
KEYWORD "BLACK_COLOR_PATCHES"
BLACK_COLOR_PATCHES "4"
KEYWORD "APPROX_WHITE_POINT"
APPROX_WHITE_POINT "95.045781 100.000003 108.905751"
DESCRIPTOR "Argyll Calibration Target chart information 1"
KEYWORD "DARK_REGION_EMPHASIS"
DARK_REGION_EMPHASIS "1.6"
KEYWORD "ACCURATE_EXPECTED_VALUES"
ACCURATE_EXPECTED_VALUES "true"
KEYWORD "WHITE_COLOR_PATCHES"
WHITE_COLOR_PATCHES "4"
KEYWORD "SINGLE_DIM_STEPS"
SINGLE_DIM_STEPS "37"
KEYWORD "COLOR_REP"
COLOR_REP "RGB"

NUMBER_OF_FIELDS 7
BEGIN_DATA_FORMAT
SAMPLE_ID RGB_R RGB_G RGB_B XYZ_X XYZ_Y XYZ_Z
END_DATA_FORMAT

NUMBER_OF_SETS 1906
BEGIN_DATA
1 100.000000 100.000000 100.000000 95.0458000 100.000000 108.906000
2 0.00000000 0.00000000 16.6667000 0.42690900 0.17077500 2.24818000
3 0.00000000 0.00000000 28.9116000 1.22673000 0.49072500 6.46020000
4 69.1767000 52.9595000 31.8457000 28.1571000 27.2146000 11.5949000
5 73.0911000 61.3454000 46.8864000 35.6658000 35.7547000 22.6523000
6 36.8074000 18.8819000 0.00000000 5.66444000 4.49820000 0.56976600
7 41.0601000 49.0410000 0.00000000 13.1304000 17.6660000 2.71800000
8 60.8263000 55.9227000 0.00000000 23.2997000 26.5050000 3.88825000
9 63.9596000 67.5076000 0.00000000 29.9024000 37.3567000 5.63492000
10 0.00000000 9.88701000 0.00000000 0.35216600 0.70438500 0.11740300
11 0.00000000 0.00000000 0.00000000 0.00000000 0.00000000 0.00000000
12 0.00000000 1.28205000 0.00000000 0.03523460 0.07047430 0.01174630
13 0.00000000 2.60417000 0.00000000 0.07213290 0.14427600 0.02404720
14 0.00000000 6.83060000 0.00000000 0.20686700 0.41376400 0.06896400
15 0.00000000 0.00000000 11.4943000 0.22569700 0.09028450 1.18856000
16 2.60417000 0.00000000 0.00000000 0.08319000 0.04288690 0.00389450
17 5.37634000 0.00000000 0.00000000 0.17682200 0.09115680 0.00827783
18 6.83060000 0.00000000 0.00000000 0.23857700 0.12299300 0.01116890
19 8.33333000 0.00000000 0.00000000 0.31462900 0.16220100 0.01472920
20 9.36330000 9.36330000 9.36330000 0.86159600 0.90650600 0.98723700
21 14.8810000 0.00000000 0.00000000 0.79742800 0.41109800 0.03733120
22 17.5201000 0.00000000 7.24483000 1.18109000 0.59581800 0.64584000
23 20.4403000 0.00000000 0.00000000 1.42224000 0.73320500 0.06658140
24 18.5185000 0.00000000 0.00000000 1.18238000 0.60955000 0.05535240
25 28.1509000 13.7812000 0.00000000 3.26139000 2.57949000 0.32604000
26 34.2279000 9.87732000 0.00000000 4.30816000 2.74301000 0.30244600
27 33.6879000 0.00000000 0.00000000 3.82879000 1.97385000 0.17924300
28 36.2319000 0.00000000 0.00000000 4.45269000 2.29549000 0.20845100
29 38.8889000 0.00000000 0.00000000 5.16359000 2.66198000 0.24173100
30 41.6667000 0.00000000 0.00000000 5.97340000 3.07946000 0.27964200
31 44.5736000 0.00000000 0.00000000 6.89567000 3.55492000 0.32281700
32 47.6190000 0.00000000 0.00000000 7.94502000 4.09589000 0.37194300
33 50.8130000 0.00000000 0.00000000 9.14000000 4.71194000 0.42788500
34 54.1667000 0.00000000 0.00000000 10.5018000 5.41398000 0.49163600
35 57.6923000 0.00000000 0.00000000 12.0527000 6.21353000 0.56424300
36 61.4035000 0.00000000 0.00000000 13.8224000 7.12585000 0.64708900
37 65.3153000 0.00000000 0.00000000 15.8420000 8.16699000 0.74163400
38 69.4444000 0.00000000 0.00000000 18.1500000 9.35687000 0.84968500
39 73.8095000 0.00000000 0.00000000 20.7913000 10.7185000 0.97333500
40 78.4314000 0.00000000 0.00000000 23.8183000 12.2791000 1.11504000
41 83.3333000 0.00000000 0.00000000 27.2947000 14.0712000 1.27779000
42 100.000000 20.0277000 25.3588000 43.3700000 24.0118000 7.29978000
43 100.000000 25.5377000 50.6302000 47.1051000 26.6419000 23.4679000
44 100.000000 46.8233000 79.3540000 58.5850000 38.8300000 60.5063000
45 11.4943000 0.00000000 0.00000000 0.51564500 0.26583000 0.02413970
46 0.00000000 11.4943000 0.00000000 0.44710900 0.89428300 0.14905500
47 0.00000000 0.00000000 1.28205000 0.01778610 0.00711491 0.09366500
48 0.00000000 0.00000000 2.60417000 0.03641210 0.01456580 0.19175300
49 0.00000000 3.96825000 0.00000000 0.10965700 0.21933000 0.03655680
50 10.9524000 10.9524000 10.9524000 1.09857000 1.15583000 1.25876000
51 0.00000000 25.0904000 15.8185000 2.22084000 3.82001000 2.65786000
52 63.7398000 100.000000 20.2143000 51.3759000 79.5013000 15.8342000
53 21.5327000 30.2666000 0.00000000 4.23704000 6.14305000 0.96246600
54 41.4543000 87.4813000 0.00000000 32.3155000 55.8630000 9.07984000
55 100.000000 90.0025000 19.8399000 69.9845000 77.8141000 14.4175000
56 31.8765000 28.2753000 0.00000000 5.74132000 6.40953000 0.93463700
57 31.4730000 46.6307000 0.00000000 9.91551000 14.8887000 2.35133000
58 30.0122000 55.1973000 0.00000000 12.5105000 20.5351000 3.30446000
59 37.3384000 67.7684000 0.00000000 19.6471000 32.2580000 5.19116000
60 0.00000000 24.5098000 0.00000000 1.75002000 3.50029000 0.58341100
61 0.00000000 22.4359000 0.00000000 1.47369000 2.94760000 0.49129100
62 0.00000000 31.2500000 0.00000000 2.84579000 5.69200000 0.94871400
63 0.00000000 33.6879000 0.00000000 3.31989000 6.64026000 1.10676000
64 0.00000000 36.2319000 0.00000000 3.86087000 7.72230000 1.28711000
65 0.00000000 38.8889000 0.00000000 4.47728000 8.95522000 1.49261000
66 0.00000000 41.6667000 0.00000000 5.17945000 10.3597000 1.72670000
67 0.00000000 44.5736000 0.00000000 5.97914000 11.9592000 1.99329000
68 0.00000000 47.6190000 0.00000000 6.88902000 13.7791000 2.29662000
69 0.00000000 50.8130000 0.00000000 7.92517000 15.8515000 2.64205000
70 0.00000000 54.1667000 0.00000000 9.10595000 18.2132000 3.03569000
71 0.00000000 57.6923000 0.00000000 10.4508000 20.9030000 3.48401000
72 0.00000000 61.4035000 0.00000000 11.9852000 23.9722000 3.99556000
73 0.00000000 65.3153000 0.00000000 13.7363000 27.4747000 4.57934000
74 0.00000000 69.4444000 0.00000000 15.7376000 31.4776000 5.24652000
75 0.00000000 73.8095000 0.00000000 18.0278000 36.0583000 6.01002000
76 0.00000000 78.4314000 0.00000000 20.6525000 41.3081000 6.88503000
77 0.00000000 83.3333000 0.00000000 23.6669000 47.3373000 7.88993000
78 0.00000000 88.5417000 0.00000000 27.1348000 54.2736000 9.04604000
79 0.00000000 94.0860000 0.00000000 31.1340000 62.2726000 10.3793000
80 23.5893000 100.000000 0.00000000 37.6298000 72.4852000 12.0082000
81 76.8786000 100.000000 25.9974000 59.5242000 83.6579000 18.2109000
82 0.00000000 15.3371000 0.00000000 0.72920900 1.45852000 0.24309900
83 10.4167000 10.4167000 10.4167000 1.01549000 1.06842000 1.16357000
84 0.00000000 0.00000000 3.96825000 0.05535390 0.02214300 0.29150400
85 0.00000000 0.00000000 5.37634000 0.07739450 0.03095980 0.40757400
86 3.96825000 0.00000000 0.00000000 0.12646600 0.06519700 0.00592045
87 0.00000000 0.00000000 6.83060000 0.10442500 0.04177250 0.54991900
88 0.00000000 0.00000000 8.33333000 0.13771300 0.05508860 0.72522000
89 7.32601000 7.32601000 7.32601000 0.60422000 0.63571400 0.69232900
90 0.00000000 0.00000000 9.88701000 0.17777100 0.07111290 0.93617300
91 0.00000000 0.00000000 14.8810000 0.34903300 0.13962200 1.83807000
92 0.00000000 0.00000000 18.5185000 0.51752400 0.20702300 2.72538000
93 0.00000000 0.00000000 20.4403000 0.62251100 0.24902000 3.27826000
94 0.00000000 0.00000000 22.4359000 0.74390800 0.29758200 3.91756000
95 0.00000000 0.00000000 24.5098000 0.88339500 0.35338000 4.65212000
96 0.00000000 0.00000000 26.6667000 1.04342000 0.41739500 5.49485000
97 0.00000000 0.00000000 31.2500000 1.43653000 0.57465000 7.56504000
98 0.00000000 0.00000000 33.6879000 1.67585000 0.67038400 8.82534000
99 0.00000000 0.00000000 36.2319000 1.94893000 0.77962400 10.2634000
100 0.00000000 0.00000000 38.8889000 2.26009000 0.90409600 11.9021000
101 0.00000000 0.00000000 41.6667000 2.61454000 1.04588000 13.7687000
102 0.00000000 0.00000000 44.5736000 3.01822000 1.20737000 15.8945000
103 0.00000000 0.00000000 47.6190000 3.47752000 1.39110000 18.3133000
104 0.00000000 10.5877000 50.0104000 4.25708000 2.32991000 20.4858000
105 0.00000000 0.00000000 50.8130000 4.00056000 1.60033000 21.0677000
106 0.00000000 0.00000000 57.6923000 5.27546000 2.11032000 27.7815000
107 0.00000000 10.2594000 60.6074000 6.25165000 3.09759000 31.0826000
108 0.00000000 0.00000000 61.4035000 6.05004000 2.42017000 31.8606000
109 0.00000000 0.00000000 65.3153000 6.93399000 2.77378000 36.5157000
110 0.00000000 0.00000000 69.4444000 7.94423000 3.17790000 41.8358000
111 0.00000000 0.00000000 73.8095000 9.10031000 3.64036000 47.9239000
112 0.00000000 0.00000000 78.4314000 10.4252000 4.17036000 54.9012000
113 0.00000000 0.00000000 83.3333000 11.9469000 4.77905000 62.9143000
114 0.00000000 0.00000000 88.5417000 13.6974000 5.47932000 72.1331000
115 0.00000000 17.9367000 100.000000 19.0168000 9.15415000 95.3769000
116 88.1599000 40.0548000 100.000000 53.8048000 32.7268000 98.0938000
117 100.000000 45.6306000 100.000000 65.5748000 41.0537000 99.0809000
118 100.000000 56.1483000 100.000000 69.1369000 48.1785000 100.268000
119 100.000000 93.6926000 100.000000 90.1279000 90.1636000 107.266000
120 8.84544000 8.84544000 8.84544000 0.79099600 0.83222600 0.90634200
121 0.42301200 0.42301200 0.42301200 0.03138030 0.03301600 0.03595640
122 0.85034000 0.85034000 0.85034000 0.06308090 0.06636900 0.07227960
123 1.28205000 1.28205000 1.28205000 0.09365630 0.09853810 0.10731400
124 1.71821000 1.71821000 1.71821000 0.12601200 0.13258000 0.14438800
125 2.15889000 2.15889000 2.15889000 0.15870300 0.16697600 0.18184600
126 2.60417000 2.60417000 2.60417000 0.19173500 0.20172900 0.21969500
127 3.05410000 3.05410000 3.05410000 0.22511200 0.23684600 0.25793900
128 3.50877000 3.50877000 3.50877000 0.25754400 0.27096800 0.29510000
129 3.96825000 3.96825000 3.96825000 0.29147700 0.30667000 0.33398100
130 4.43262000 4.43262000 4.43262000 0.32737600 0.34444000 0.37511500
131 4.90196000 4.90196000 4.90196000 0.36530600 0.38434800 0.41857700
132 5.37634000 5.37634000 5.37634000 0.40753600 0.42877900 0.46696400
133 5.85586000 5.85586000 5.85586000 0.45167200 0.47521500 0.51753700
134 6.34058000 6.34058000 6.34058000 0.49897600 0.52498500 0.57173900
135 6.83060000 6.83060000 6.83060000 0.54986800 0.57853000 0.63005200
136 8.30362000 0.00000000 6.50490000 0.41106600 0.20059700 0.53074600
137 0.00000000 5.37634000 0.00000000 0.15332000 0.30666200 0.05111280
138 0.00000000 8.33333000 0.00000000 0.27281100 0.54566200 0.09094810
139 0.00000000 13.1579000 0.00000000 0.55919000 1.11846000 0.18642000
140 0.00000000 16.6667000 0.00000000 0.84571300 1.69155000 0.28193900
141 12.0424000 12.0424000 12.0424000 1.28254000 1.34939000 1.46956000
142 8.33333000 8.33333000 8.33333000 0.72515300 0.76295100 0.83089800
143 12.5969000 12.5969000 12.5969000 1.38126000 1.45326000 1.58269000
144 13.1579000 13.1579000 13.1579000 1.48637000 1.56385000 1.70312000
145 14.2998000 14.2998000 14.2998000 1.71429000 1.80364000 1.96427000
146 14.8810000 14.8810000 14.8810000 1.83790000 1.93370000 2.10591000
147 15.4691000 15.4691000 15.4691000 1.96767000 2.07023000 2.25460000
148 16.0643000 16.0643000 16.0643000 2.10448000 2.21418000 2.41136000
149 16.6667000 16.6667000 16.6667000 2.24797000 2.36515000 2.57578000
150 17.2764000 17.2764000 17.2764000 2.39959000 2.52467000 2.74951000
151 17.8937000 17.8937000 17.8937000 2.55825000 2.69160000 2.93130000
152 18.5185000 18.5185000 18.5185000 2.72512000 2.86717000 3.12251000
153 20.4866000 16.7833000 21.2127000 2.95295000 2.71677000 3.86994000
154 19.1511000 19.1511000 19.1511000 2.90120000 3.05243000 3.32427000
155 19.7917000 19.7917000 19.7917000 3.08534000 3.24617000 3.53526000
156 20.4403000 20.4403000 20.4403000 3.27795000 3.44881000 3.75596000
157 21.0970000 21.0970000 21.0970000 3.48114000 3.66259000 3.98877000
158 21.7622000 21.7622000 21.7622000 3.69364000 3.88617000 4.23226000
159 22.4359000 22.4359000 22.4359000 3.91719000 4.12137000 4.48841000
160 23.1183000 23.1183000 23.1183000 4.15005000 4.36637000 4.75523000
161 23.8095000 23.8095000 23.8095000 4.39484000 4.62392000 5.03571000
162 24.5098000 24.5098000 24.5098000 4.65168000 4.89415000 5.33001000
163 25.2193000 25.2193000 25.2193000 4.91919000 5.17560000 5.63653000
164 25.9382000 25.9382000 25.9382000 5.19991000 5.47095000 5.95818000
165 26.6667000 26.6667000 26.6667000 5.49434000 5.78073000 6.29555000
166 27.4049000 27.4049000 27.4049000 5.80154000 6.10394000 6.64754000
167 28.1532000 28.1532000 28.1532000 6.12347000 6.44266000 7.01643000
168 28.9116000 28.9116000 28.9116000 6.45960000 6.79631000 7.40157000
169 29.6804000 29.6804000 29.6804000 6.81141000 7.16645000 7.80468000
170 30.4598000 30.4598000 30.4598000 7.17946000 7.55369000 8.22640000
171 31.2500000 31.2500000 31.2500000 7.56434000 7.95863000 8.66740000
172 32.0513000 32.0513000 32.0513000 7.96519000 8.38037000 9.12671000
173 32.8638000 32.8638000 32.8638000 8.38552000 8.82262000 9.60834000
174 34.5238000 34.5238000 34.5238000 9.28310000 9.76697000 10.6368000
175 35.3717000 35.3717000 35.3717000 9.76237000 10.2712000 11.1860000
176 36.2319000 36.2319000 36.2319000 10.2625000 10.7974000 11.7590000
177 37.1046000 37.1046000 37.1046000 10.7856000 11.3478000 12.3584000
178 37.9902000 37.9902000 37.9902000 11.3310000 11.9217000 12.9834000
179 38.8889000 38.8889000 38.8889000 11.9010000 12.5213000 13.6364000
180 39.8010000 39.8010000 39.8010000 12.4964000 13.1478000 14.3187000
181 40.7268000 40.7268000 40.7268000 13.1183000 13.8021000 15.0313000
182 41.6667000 41.6667000 41.6667000 13.7674000 14.4850000 15.7750000
183 42.6209000 42.6209000 42.6209000 14.4458000 15.1988000 16.5524000
184 43.5897000 43.5897000 43.5897000 15.1530000 15.9429000 17.3627000
185 44.5736000 44.5736000 44.5736000 15.8930000 16.7214000 18.2106000
186 49.7312000 49.7312000 49.7312000 20.1078000 21.1559000 23.0400000
187 48.6667000 48.6667000 48.6667000 19.1905000 20.1908000 21.9889000
188 78.7055000 54.5393000 64.6816000 40.0341000 33.5769000 39.9407000
189 91.2369000 100.000000 94.3484000 85.0632000 95.1117000 96.7769000
190 100.000000 100.000000 100.000000 95.0458000 100.000000 108.906000
191 74.8146000 19.1546000 0.00000000 22.5209000 13.2311000 1.36718000
192 75.0389000 46.8602000 0.00000000 28.2282000 24.4329000 3.22860000
193 83.3332000 59.7250000 0.00000000 38.5705000 36.6245000 5.03686000
194 85.4011000 77.6601000 0.00000000 49.0448000 55.2734000 8.08454000
195 100.000000 79.9121000 0.00000000 62.7764000 64.3387000 9.11076000
196 100.000000 100.000000 38.8708000 79.2537000 93.6828000 25.7417000
197 32.9326000 47.3097000 19.6518000 11.0253000 15.7027000 5.47994000
198 37.5945000 55.0599000 69.6933000 22.2535000 24.5567000 45.5405000
199 41.5563000 64.1361000 78.6368000 29.6204000 33.6466000 59.9009000
200 22.8036000 44.6781000 42.2498000 10.4553000 13.9999000 16.2668000
201 53.0303000 53.0303000 53.0303000 23.1121000 24.3168000 26.4824000
202 54.1667000 54.1667000 54.1667000 24.2043000 25.4660000 27.7339000
203 57.6923000 57.6923000 57.6923000 27.7789000 29.2269000 31.8298000
204 58.9080000 58.9080000 58.9080000 29.0800000 30.5958000 33.3206000
205 66.6667000 66.6667000 66.6667000 38.2069000 40.1984000 43.7783000
206 68.0428000 68.0428000 68.0428000 39.9789000 42.0628000 45.8088000
207 69.4444000 69.4444000 69.4444000 41.8319000 44.0124000 47.9320000
208 70.8723000 70.8723000 70.8723000 43.7690000 46.0505000 50.1516000
209 72.3270000 72.3270000 72.3270000 45.7978000 48.1850000 52.4762000
210 73.8095000 73.8095000 73.8095000 47.9194000 50.4172000 54.9073000
211 75.3205000 75.3205000 75.3205000 50.1398000 52.7533000 57.4514000
212 78.4314000 78.4314000 78.4314000 54.8961000 57.7576000 62.9013000
213 80.0330000 80.0330000 80.0330000 57.4443000 60.4385000 65.8211000
214 81.6667000 81.6667000 81.6667000 60.1128000 63.2462000 68.8788000
215 83.3333000 83.3333000 83.3333000 62.9085000 66.1875000 72.0820000
216 85.0340000 85.0340000 85.0340000 65.8380000 69.2698000 75.4388000
217 86.7698000 86.7698000 86.7698000 68.9077000 72.4995000 78.9561000
218 88.5417000 88.5417000 88.5417000 72.1264000 75.8860000 82.6442000
219 90.3509000 90.3509000 90.3509000 75.5015000 79.4370000 86.5115000
220 92.1986000 92.1986000 92.1986000 79.0418000 83.1618000 90.5680000
221 94.0860000 94.0860000 94.0860000 82.7566000 87.0703000 94.8245000
222 0.00000000 26.6667000 0.00000000 2.06703000 4.13437000 0.68909600
223 0.00000000 28.9116000 0.00000000 2.43018000 4.86071000 0.81015800
224 21.3944000 32.9260000 19.0278000 5.26246000 7.35169000 3.99509000
225 25.8243000 74.1865000 78.8382000 31.0180000 41.8431000 61.7261000
226 45.0531000 100.000000 81.4174000 54.1501000 79.6923000 71.9581000
227 41.9352000 87.6775000 74.4040000 41.8606000 59.9128000 57.9215000
228 49.9668000 100.000000 92.8660000 59.8298000 82.1676000 92.6855000
229 57.3468000 100.000000 100.000000 65.7026000 84.8727000 107.532000
230 13.7255000 13.7255000 13.7255000 1.59730000 1.68056000 1.83022000
231 7.82689000 7.82689000 7.82689000 0.66359100 0.69818000 0.76035900
232 9.88701000 0.00000000 0.00000000 0.40614900 0.20938200 0.01901370
233 11.4943000 11.4943000 11.4943000 1.18845000 1.25040000 1.36176000
234 0.00000000 14.7380000 16.1171000 1.08162000 1.52031000 2.34305000
235 0.00000000 52.9030000 54.2995000 13.2706000 19.1489000 27.2189000
236 0.00000000 64.3131000 62.5846000 19.5837000 29.0744000 37.6519000
237 0.00000000 75.7363000 64.0699000 25.7416000 40.8544000 41.3592000
238 62.2042000 74.7744000 79.7536000 43.6050000 48.7816000 63.8536000
239 0.00000000 0.00000000 13.1579000 0.28227500 0.11291700 1.48651000
240 9.88701000 9.88701000 9.88701000 0.93608600 0.98487900 1.07259000
241 43.0569000 0.00000000 13.7172000 6.70770000 3.42302000 1.89568000
242 83.4215000 0.00000000 12.9932000 27.6359000 14.2152000 2.73569000
243 69.8537000 54.4524000 0.00000000 27.5995000 27.9028000 3.93148000
244 100.000000 68.9399000 0.00000000 56.7227000 52.2303000 7.09259000
245 26.6667000 0.00000000 0.00000000 2.38388000 1.22896000 0.11160000
246 33.5875000 0.00000000 16.6107000 4.22964000 2.13149000 2.41303000
247 47.0285000 0.00000000 70.5000000 15.9499000 7.27374000 43.6255000
248 51.5373000 0.00000000 100.000000 27.4751000 12.0794000 95.4959000
249 27.4229000 0.00000000 48.9007000 6.20288000 2.77244000 19.5100000
250 50.8130000 50.8130000 50.8130000 21.0657000 22.1638000 24.1376000
251 51.9126000 51.9126000 51.9126000 22.0666000 23.2168000 25.2844000
252 62.6844000 62.6844000 62.6844000 33.3405000 35.0784000 38.2024000
253 63.9881000 63.9881000 63.9881000 34.8907000 36.7093000 39.9786000
254 65.3153000 65.3153000 65.3153000 36.5123000 38.4155000 41.8367000
255 67.6397000 70.9754000 100.000000 51.6883000 49.0878000 101.363000
256 70.5852000 31.5385000 49.3606000 25.4769000 17.0047000 21.6354000
257 100.000000 42.4629000 50.7080000 50.6131000 33.6373000 24.7023000
258 100.000000 52.5415000 61.8828000 55.9146000 40.7663000 37.1813000
259 100.000000 66.2064000 68.0761000 62.9934000 52.6109000 46.6753000
260 100.000000 76.5691000 73.0725000 69.7069000 63.9619000 55.3163000
261 27.2882000 22.7735000 18.4724000 4.52757000 4.52599000 3.33545000
262 66.7800000 24.0443000 60.3224000 24.1428000 14.2768000 31.9791000
263 66.8303000 42.3604000 100.000000 40.0815000 26.5424000 97.6232000
264 96.0145000 96.0145000 96.0145000 86.6550000 91.1719000 99.2914000
265 97.9853000 97.9853000 97.9853000 90.7476000 95.4778000 103.981000
266 0.00000000 18.8027000 65.5411000 8.04158000 4.90419000 37.1468000
267 0.00000000 15.3374000 74.1723000 9.92973000 5.13902000 48.6946000
268 0.00000000 26.6091000 85.2871000 14.6452000 9.15158000 66.9726000
269 0.00000000 78.1576000 90.6561000 34.9395000 46.7654000 82.9180000
270 0.00000000 89.8220000 100.000000 46.0800000 63.2846000 104.399000
271 0.00000000 26.1623000 35.3821000 3.84515000 4.72247000 10.4327000
272 0.00000000 55.0384000 48.9651000 13.1212000 20.3352000 22.5906000
273 39.7091000 56.5992000 53.5278000 19.8975000 24.6197000 27.1827000
274 26.6827000 29.5435000 41.3635000 7.50002000 7.33835000 14.5154000
275 25.1134000 32.6554000 40.5051000 7.69338000 8.30481000 14.1063000
276 67.4026000 43.3795000 71.4353000 31.0883000 23.4269000 47.2289000
277 100.000000 68.2652000 82.1017000 67.9414000 56.1830000 67.8225000
278 100.000000 82.0766000 89.2049000 78.0403000 72.5784000 82.9154000
279 100.000000 86.4337000 100.000000 84.9862000 79.8795000 105.552000
280 0.00000000 14.8810000 0.00000000 0.69143900 1.38298000 0.23050800
281 0.00000000 18.5185000 0.00000000 1.02522000 2.05060000 0.34178300
282 0.00000000 20.4403000 0.00000000 1.23320000 2.46659000 0.41111800
283 100.000000 88.2853000 47.3729000 71.6353000 76.5550000 29.0283000
284 100.000000 100.000000 53.6957000 81.5056000 94.5836000 37.6006000
285 28.9116000 0.00000000 0.00000000 2.80269000 1.44487000 0.13120700
286 31.2500000 0.00000000 0.00000000 3.28202000 1.69198000 0.15364600
287 58.6565000 88.5522000 0.00000000 39.6410000 60.7317000 9.63359000
288 100.000000 90.4737000 0.00000000 69.7305000 78.2479000 11.4291000
289 100.000000 100.000000 0.00000000 76.9958000 92.7795000 13.8511000
290 74.1385000 65.4802000 0.00000000 34.8121000 38.4539000 5.58801000
291 85.5045000 100.000000 48.7685000 68.3413000 87.8951000 32.5530000
292 87.3313000 100.000000 79.9559000 76.9792000 91.5137000 70.6658000
293 100.000000 100.000000 92.2027000 92.0080000 98.7848000 92.9083000
294 18.7434000 0.00000000 20.8347000 1.85464000 0.88155400 3.45632000
295 38.5989000 0.00000000 39.7440000 7.44938000 3.56709000 12.6981000
296 61.5736000 0.00000000 58.2790000 19.3006000 9.32702000 29.0564000
297 71.6739000 0.00000000 57.7827000 24.7662000 12.1563000 28.7895000
298 85.3798000 0.00000000 71.3378000 37.2629000 18.2359000 45.7665000
299 39.1222000 28.9134000 27.0566000 8.73334000 7.98658000 6.71044000
300 51.9991000 27.0365000 38.0397000 13.8914000 10.0659000 12.5210000
301 42.2480000 34.5511000 28.3889000 10.8327000 10.6415000 7.68175000
302 46.2937000 54.0547000 38.9122000 18.8056000 22.8912000 15.2891000
303 59.0730000 59.4949000 74.7537000 33.2379000 32.6529000 53.6255000
304 0.00000000 47.5201000 54.8500000 11.5819000 15.6068000 27.1625000
305 0.00000000 55.6605000 70.5899000 17.9012000 22.6222000 46.6074000
306 0.00000000 54.7659000 87.4626000 22.6501000 23.9846000 73.2723000
307 75.3516000 86.0229000 100.000000 65.2478000 69.2959000 104.549000
308 89.2974000 100.000000 100.000000 85.7085000 95.1864000 108.469000
309 100.000000 20.9825000 0.00000000 42.5347000 23.8523000 2.36268000
310 100.000000 36.4148000 0.00000000 45.1402000 29.0636000 3.23129000
311 100.000000 48.4046000 0.00000000 48.3748000 35.5333000 4.30962000
312 33.7175000 17.0488000 25.0251000 5.63704000 4.10796000 5.31947000
313 34.0769000 23.0498000 73.3962000 14.4599000 8.72137000 48.0272000
314 33.2369000 23.7245000 100.000000 23.4153000 12.4237000 95.7762000
315 49.2345000 38.2349000 100.000000 30.9082000 20.2640000 96.8947000
316 86.7582000 0.00000000 48.9521000 33.5795000 16.8849000 20.8355000
317 100.000000 0.00000000 55.0769000 46.0050000 23.1664000 27.0322000
318 42.0744000 100.000000 0.00000000 41.8556000 74.6637000 12.2061000
319 56.8070000 100.000000 0.00000000 47.4090000 77.5267000 12.4660000
320 69.6723000 100.000000 0.00000000 54.0398000 80.9451000 12.7765000
321 79.8582000 100.000000 0.00000000 60.5593000 84.3060000 13.0817000
322 46.1648000 42.5688000 9.78286000 13.0283000 14.7436000 3.07574000
323 47.4135000 45.8365000 0.00000000 14.2188000 16.7535000 2.48452000
324 15.3966000 0.00000000 33.3519000 2.48823000 1.09316000 8.68405000
325 35.7725000 0.00000000 76.8041000 14.2826000 6.21420000 52.5852000
326 37.1448000 11.2158000 100.000000 23.1697000 10.4974000 95.4174000
327 18.6933000 0.00000000 57.1841000 6.37755000 2.69017000 27.3051000
328 27.2367000 41.5433000 100.000000 25.6837000 18.7973000 96.8869000
