dispcalGUI/ti1/d3-e4-s29-g85-m0-f994-csRGB.ti1
CTI1   

ORIGINATOR "Argyll targen"
KEYWORD "OFPS_PATCHES"
OFPS_PATCHES "819"
CREATED "Wed Dec 18 02:50:25 2013"
KEYWORD "COMP_GREY_STEPS"
COMP_GREY_STEPS "85"
KEYWORD "BLACK_COLOR_PATCHES"
BLACK_COLOR_PATCHES "4"
KEYWORD "APPROX_WHITE_POINT"
APPROX_WHITE_POINT "95.045781 100.000003 108.905751"
DESCRIPTOR "Argyll Calibration Target chart information 1"
KEYWORD "DARK_REGION_EMPHASIS"
DARK_REGION_EMPHASIS "1.6"
KEYWORD "ACCURATE_EXPECTED_VALUES"
ACCURATE_EXPECTED_VALUES "true"
KEYWORD "WHITE_COLOR_PATCHES"
WHITE_COLOR_PATCHES "4"
KEYWORD "SINGLE_DIM_STEPS"
SINGLE_DIM_STEPS "29"
KEYWORD "COLOR_REP"
COLOR_REP "RGB"

NUMBER_OF_FIELDS 7
BEGIN_DATA_FORMAT
SAMPLE_ID RGB_R RGB_G RGB_B XYZ_X XYZ_Y XYZ_Z
END_DATA_FORMAT

NUMBER_OF_SETS 994
BEGIN_DATA
1 100.000000 100.000000 100.000000 95.0458000 100.000000 108.906000
2 76.8338000 42.2230000 49.6352000 31.8756000 23.9029000 22.8676000
3 100.000000 51.2681000 64.3533000 56.0285000 40.1050000 39.9605000
4 100.000000 64.2807000 76.2737000 64.2916000 51.6982000 57.9264000
5 100.000000 80.0669000 84.4396000 75.1773000 69.4496000 73.9532000
6 100.000000 90.1002000 89.8894000 83.6385000 83.3869000 85.9798000
7 0.00000000 0.00000000 28.2609000 1.17173000 0.46872300 6.17055000
8 18.7148000 43.6374000 32.9383000 8.51962000 12.6905000 10.3863000
9 43.0647000 54.8510000 55.1182000 20.5397000 23.9307000 28.5625000
10 46.3894000 77.1613000 61.9587000 33.5923000 46.1646000 39.4868000
11 0.00000000 15.5511000 11.3474000 0.96801800 1.58272000 1.41233000
12 0.00000000 11.0294000 0.00000000 0.41802200 0.83610600 0.13935800
13 0.00000000 8.99281000 0.00000000 0.30498500 0.61001500 0.10167400
14 0.00000000 0.00000000 7.04225000 0.10887400 0.04355260 0.57335300
15 0.00000000 0.00000000 8.99281000 0.15395400 0.06158550 0.81074900
16 10.5023000 0.00000000 8.13388000 0.57932700 0.28330500 0.72099100
17 15.3846000 0.00000000 0.00000000 0.84557900 0.43592100 0.03958540
18 17.7165000 0.00000000 0.00000000 1.08993000 0.56189000 0.05102450
19 19.1184000 9.51073000 8.84345000 1.73665000 1.37041000 0.96012900
20 18.8208000 7.64417000 0.00000000 1.45987000 1.11113000 0.13754500
21 67.7113000 19.1345000 0.00000000 18.2482000 11.0253000 1.16654000
22 100.000000 23.9044000 0.00000000 42.9048000 24.5926000 2.48607000
23 100.000000 22.0384000 19.9683000 43.2579000 24.3452000 5.54318000
24 37.7358000 0.00000000 0.00000000 4.84755000 2.49905000 0.22693600
25 41.2621000 0.00000000 0.00000000 5.85100000 3.01636000 0.27391200
26 45.0000000 0.00000000 0.00000000 7.03713000 3.62785000 0.32944000
27 48.9691000 0.00000000 0.00000000 8.43855000 4.35032000 0.39504700
28 53.1915000 0.00000000 0.00000000 10.0943000 5.20390000 0.47255900
29 57.6923000 0.00000000 0.00000000 12.0527000 6.21353000 0.56424300
30 62.5000000 0.00000000 0.00000000 14.3720000 7.40921000 0.67282000
31 67.6471000 0.00000000 0.00000000 17.1225000 8.82714000 0.80158100
32 73.1707000 0.00000000 0.00000000 20.3915000 10.5124000 0.95461600
33 79.1139000 0.00000000 0.00000000 24.2862000 12.5202000 1.13695000
34 85.5263000 0.00000000 0.00000000 28.9398000 14.9193000 1.35480000
35 92.4658000 0.00000000 0.00000000 34.5205000 17.7964000 1.61606000
36 100.000000 83.9352000 0.00000000 65.2919000 69.3701000 9.94937000
37 100.000000 100.000000 0.00000000 76.9958000 92.7795000 13.8511000
38 20.9463000 25.3425000 48.6460000 6.99968000 5.96205000 19.8675000
39 40.4128000 25.8552000 87.1239000 20.7505000 12.0582000 70.4611000
40 69.3058000 75.9561000 100.000000 55.3403000 54.9809000 102.308000
41 83.9209000 84.7716000 100.000000 70.3772000 70.7141000 104.553000
42 0.00000000 31.2500000 0.00000000 2.84579000 5.69200000 0.94871400
43 0.00000000 34.4037000 0.00000000 3.46747000 6.93545000 1.15597000
44 0.00000000 37.7358000 0.00000000 4.20324000 8.40710000 1.40125000
45 0.00000000 50.9454000 20.3749000 8.58896000 16.1890000 5.91577000
46 0.00000000 83.3731000 27.2349000 24.7804000 47.8232000 13.6293000
47 0.00000000 41.2621000 0.00000000 5.07332000 10.1474000 1.69132000
48 80.3956000 42.0283000 0.00000000 30.4537000 23.5318000 2.93739000
49 100.000000 41.5672000 0.00000000 46.3918000 31.5671000 3.64856000
50 100.000000 61.5171000 39.9082000 55.6593000 46.2843000 18.5116000
51 100.000000 72.3891000 57.8393000 63.8061000 57.9095000 35.6230000
52 100.000000 83.2990000 68.1217000 72.4954000 71.5982000 49.8988000
53 25.6238000 37.3214000 22.1557000 7.03597000 9.64114000 5.29577000
54 28.5823000 62.9524000 76.5671000 25.2790000 30.6891000 56.3694000
55 34.4013000 70.1728000 76.4529000 29.9508000 38.2164000 57.4037000
56 57.5282000 75.4304000 79.8426000 41.7534000 48.3674000 64.0131000
57 94.9074000 94.9074000 94.9074000 84.4046000 88.8041000 96.7128000
58 97.4178000 97.4178000 97.4178000 89.5584000 94.2266000 102.618000
59 33.2453000 45.5755000 75.6756000 19.6182000 18.3109000 52.9391000
60 47.4954000 54.3313000 100.000000 35.1166000 29.6270000 98.4802000
61 68.1787000 65.9629000 100.000000 49.5125000 44.2837000 100.551000
62 27.4628000 23.1352000 39.3663000 6.41041000 5.35806000 12.8517000
63 47.7955000 21.5161000 45.6210000 12.5404000 8.11743000 17.5319000
64 65.8323000 63.8371000 49.6754000 32.9882000 35.9525000 25.1695000
65 73.5751000 64.8655000 73.4465000 43.1723000 41.3004000 52.8748000
66 13.1579000 13.1579000 13.1579000 1.48637000 1.56385000 1.70312000
67 5.78704000 5.78704000 5.78704000 0.44554600 0.46877000 0.51051700
68 3.96825000 3.96825000 3.96825000 0.29147700 0.30667000 0.33398100
69 0.00000000 0.00000000 3.37838000 0.04731920 0.01892890 0.24919200
70 3.37838000 0.00000000 0.00000000 0.10810900 0.05573350 0.00506108
71 0.00000000 0.00000000 11.0294000 0.21101400 0.08441110 1.11124000
72 0.00000000 0.00000000 15.3846000 0.37010800 0.14805300 1.94906000
73 0.00000000 0.00000000 17.7165000 0.47706000 0.19083600 2.51228000
74 0.00000000 8.48725000 18.9485000 0.82024900 0.77636900 2.93774000
75 0.00000000 0.00000000 20.1613000 0.60676200 0.24272000 3.19532000
76 0.00000000 0.00000000 22.7273000 0.76251500 0.30502600 4.01554000
77 0.00000000 0.00000000 100.000000 18.0500000 7.22046000 95.0546000
78 19.0438000 16.4120000 100.000000 20.1181000 9.50760000 95.3871000
79 19.1574000 32.2653000 100.000000 22.3473000 13.9458000 96.1263000
80 0.00000000 12.1898000 43.9522000 3.42140000 2.15651000 15.5889000
81 11.8731000 7.57662000 43.3708000 3.62898000 1.89604000 15.0984000
82 0.00000000 0.00000000 45.0000000 3.08014000 1.23213000 16.2206000
83 0.00000000 0.00000000 48.9691000 3.69354000 1.47751000 19.4509000
84 0.00000000 0.00000000 53.1915000 4.41825000 1.76741000 23.2673000
85 0.00000000 0.00000000 57.6923000 5.27546000 2.11032000 27.7815000
86 0.00000000 0.00000000 62.5000000 6.29061000 2.51641000 33.1275000
87 0.00000000 0.00000000 67.6471000 7.49448000 2.99798000 39.4673000
88 0.00000000 0.00000000 73.1707000 8.92530000 3.57035000 47.0023000
89 0.00000000 0.00000000 79.1139000 10.6300000 4.25228000 55.9796000
90 0.00000000 0.00000000 85.5263000 12.6669000 5.06708000 66.7061000
91 0.00000000 0.00000000 92.4658000 15.1096000 6.04422000 79.5698000
92 72.7552000 20.9409000 100.000000 39.4753000 20.1830000 96.4277000
93 73.2909000 39.4941000 100.000000 43.1415000 27.0226000 97.5547000
94 0.00000000 0.00000000 13.1579000 0.28227500 0.11291700 1.48651000
95 6.41026000 6.41026000 6.41026000 0.50621200 0.53259900 0.58003000
96 5.17241000 0.00000000 0.00000000 0.16894500 0.08709620 0.00790909
97 0.00000000 1.65563000 0.00000000 0.04566060 0.09132790 0.01522210
98 0.00000000 7.04225000 0.00000000 0.21568200 0.43139600 0.07190280
99 8.99281000 0.00000000 0.00000000 0.35173500 0.18133000 0.01646630
100 0.00000000 0.00000000 1.65563000 0.02304910 0.00922023 0.12138100
101 0.54466200 0.54466200 0.54466200 0.04040480 0.04251080 0.04629670
102 0.00000000 3.37838000 0.00000000 0.09374000 0.18749400 0.03125050
103 1.09649000 1.09649000 1.09649000 0.08102630 0.08524970 0.09284190
104 0.00000000 0.00000000 5.17241000 0.07394700 0.02958070 0.38941800
105 1.65563000 1.65563000 1.65563000 0.12136900 0.12769600 0.13906800
106 0.00000000 5.17241000 0.00000000 0.14649000 0.29300200 0.04883600
107 7.04225000 0.00000000 0.00000000 0.24874300 0.12823500 0.01164480
108 2.79642000 2.79642000 2.79642000 0.20599700 0.21673400 0.23603600
109 3.37838000 3.37838000 3.37838000 0.24916800 0.26215600 0.28550300
110 8.99281000 8.99281000 8.99281000 0.81067400 0.85293000 0.92889000
111 14.6310000 14.6310000 14.6310000 1.78407000 1.87706000 2.04423000
112 9.66184000 9.66184000 9.66184000 0.90412900 0.95125600 1.03597000
113 0.00000000 13.1579000 0.00000000 0.55919000 1.11846000 0.18642000
114 0.00000000 8.34235000 10.6740000 0.47348700 0.62658200 1.14576000
115 2.22222000 2.22222000 2.22222000 0.16340100 0.17191800 0.18722900
116 7.68322000 7.68322000 7.68322000 0.64653800 0.68023900 0.74081900
117 13.8889000 13.8889000 13.8889000 1.63039000 1.71537000 1.86813000
118 15.3846000 15.3846000 15.3846000 1.94888000 2.05046000 2.23307000
119 16.9271000 16.9271000 16.9271000 2.31148000 2.43197000 2.64855000
120 17.7165000 17.7165000 17.7165000 2.51205000 2.64299000 2.87837000
121 18.5185000 18.5185000 18.5185000 2.72512000 2.86717000 3.12251000
122 19.3333000 19.3333000 19.3333000 2.95256000 3.10646000 3.38312000
123 20.1613000 20.1613000 20.1613000 3.19502000 3.36156000 3.66093000
124 21.0027000 21.0027000 21.0027000 3.45175000 3.63167000 3.95509000
125 21.8579000 21.8579000 21.8579000 3.72488000 3.91904000 4.26806000
126 22.7273000 22.7273000 22.7273000 4.01517000 4.22446000 4.60068000
127 23.6111000 23.6111000 23.6111000 4.32336000 4.54871000 4.95381000
128 24.5098000 24.5098000 24.5098000 4.65168000 4.89415000 5.33001000
129 25.4237000 25.4237000 25.4237000 4.99805000 5.25857000 5.72688000
130 26.3533000 26.3533000 26.3533000 5.36619000 5.64590000 6.14871000
131 27.2989000 27.2989000 27.2989000 5.75696000 6.05704000 6.59647000
132 28.2609000 28.2609000 28.2609000 6.16998000 6.49159000 7.06971000
133 30.2360000 30.2360000 30.2360000 7.07322000 7.44191000 8.10466000
134 31.2500000 31.2500000 31.2500000 7.56434000 7.95863000 8.66740000
135 32.2823000 32.2823000 32.2823000 8.08353000 8.50488000 9.26230000
136 33.3333000 33.3333000 33.3333000 8.63367000 9.08370000 9.89267000
137 34.4037000 34.4037000 34.4037000 9.21681000 9.69723000 10.5608000
138 35.4938000 35.4938000 35.4938000 9.83158000 10.3440000 11.2653000
139 36.6044000 36.6044000 36.6044000 10.4835000 11.0300000 12.0123000
140 37.7358000 37.7358000 37.7358000 11.1726000 11.7549000 12.8018000
141 38.8889000 38.8889000 38.8889000 11.9010000 12.5213000 13.6364000
142 40.0641000 40.0641000 40.0641000 12.6708000 13.3313000 14.5185000
143 41.2621000 41.2621000 41.2621000 13.4853000 14.1882000 15.4518000
144 42.4837000 42.4837000 42.4837000 14.3467000 15.0945000 16.4388000
145 43.7294000 43.7294000 43.7294000 15.2566000 16.0518000 17.4814000
146 45.0000000 45.0000000 45.0000000 16.2191000 17.0645000 18.5842000
147 46.2963000 46.2963000 46.2963000 17.2369000 18.1353000 19.7504000
148 47.6190000 47.6190000 47.6190000 18.3116000 19.2660000 20.9818000
149 48.9691000 48.9691000 48.9691000 19.4490000 20.4628000 22.2852000
150 50.3472000 50.3472000 50.3472000 20.6510000 21.7274000 23.6624000
151 51.7544000 51.7544000 51.7544000 21.9210000 23.0636000 25.1176000
152 53.1915000 53.1915000 53.1915000 23.2651000 24.4778000 26.6577000
153 54.6595000 54.6595000 54.6595000 24.6859000 25.9726000 28.2857000
154 56.1594000 56.1594000 56.1594000 26.1892000 27.5543000 30.0083000
155 57.6923000 57.6923000 57.6923000 27.7789000 29.2269000 31.8298000
156 59.2593000 59.2593000 59.2593000 29.4607000 30.9963000 33.7568000
157 60.8614000 60.8614000 60.8614000 31.2404000 32.8688000 35.7960000
158 62.5000000 62.5000000 62.5000000 33.1244000 34.8510000 37.9548000
159 64.1762000 64.1762000 64.1762000 35.1182000 36.9487000 40.2393000
160 65.8915000 65.8915000 65.8915000 37.2291000 39.1697000 42.6581000
161 67.6471000 67.6471000 67.6471000 39.4636000 41.5207000 45.2184000
162 69.4444000 69.4444000 69.4444000 41.8319000 44.0124000 47.9320000
163 71.2851000 71.2851000 71.2851000 44.3402000 46.6514000 50.8060000
164 73.1707000 73.1707000 73.1707000 46.9979000 49.4476000 53.8513000
165 75.1029000 75.1029000 75.1029000 49.8155000 52.4121000 57.0798000
166 77.0833000 77.0833000 77.0833000 52.8041000 55.5565000 60.5042000
167 79.1139000 79.1139000 79.1139000 55.9744000 58.8920000 64.1368000
168 81.1966000 81.1966000 81.1966000 59.3380000 62.4310000 67.9909000
169 83.3333000 83.3333000 83.3333000 62.9085000 66.1875000 72.0820000
170 85.5263000 85.5263000 85.5263000 66.6999000 70.1766000 76.4264000
171 87.7778000 87.7778000 87.7778000 70.7284000 74.4151000 81.0423000
172 90.0901000 90.0901000 90.0901000 75.0097000 78.9196000 85.9480000
173 92.4658000 92.4658000 92.4658000 79.5624000 83.7096000 91.1645000
174 0.00000000 28.2609000 0.00000000 2.32122000 4.64278000 0.77383400
175 0.00000000 73.1707000 0.00000000 17.6811000 35.3649000 5.89444000
176 0.00000000 79.1139000 0.00000000 21.0582000 42.1195000 7.02026000
177 0.00000000 85.5263000 0.00000000 25.0933000 50.1902000 8.36545000
178 0.00000000 85.6545000 67.6163000 32.6653000 53.3554000 47.8215000
179 0.00000000 100.000000 84.7451000 48.1650000 76.4833000 77.2618000
180 55.0693000 59.6542000 76.6386000 32.0323000 32.0671000 56.3883000
181 60.6581000 69.5063000 88.8949000 43.0453000 44.0052000 78.6719000
182 66.0912000 84.6834000 100.000000 58.8512000 64.6866000 103.997000
183 27.4388000 64.8494000 42.4472000 18.7634000 29.4314000 18.9475000
184 25.6754000 100.000000 59.5163000 43.6170000 74.9194000 41.7698000
185 23.9288000 100.000000 73.2772000 46.6371000 76.0945000 59.1656000
186 22.1598000 100.000000 91.8376000 52.2947000 78.3269000 90.3486000
187 73.8670000 100.000000 91.6326000 71.3875000 88.1785000 90.8507000
188 48.6164000 56.9054000 0.00000000 18.4494000 24.5673000 3.76982000
189 60.0090000 69.6651000 0.00000000 28.9896000 38.4745000 5.89878000
190 74.0404000 72.5420000 0.00000000 38.2803000 45.4834000 6.76208000
191 32.7365000 0.00000000 35.3097000 5.45678000 2.59978000 9.89640000
192 46.9958000 0.00000000 48.4859000 11.3384000 5.42770000 19.4010000
193 52.1162000 28.2588000 71.6152000 20.4846000 13.0234000 46.0279000
194 85.5917000 49.3448000 100.000000 54.4784000 37.0439000 98.8916000
195 100.000000 62.7129000 100.000000 71.8442000 53.5933000 101.171000
196 29.2398000 29.2398000 29.2398000 6.60876000 6.95324000 7.57248000
197 78.3735000 66.5209000 30.8756000 39.4846000 41.4298000 13.2623000
198 100.000000 70.9906000 39.8185000 60.1417000 55.2679000 19.9497000
199 44.6844000 28.9091000 18.3509000 9.87088000 8.63719000 3.81514000
200 48.9151000 57.9044000 18.0649000 19.4482000 25.6098000 6.51051000
201 71.5947000 58.7322000 14.4472000 30.6244000 31.8852000 6.27771000
202 79.3450000 58.0754000 24.1514000 35.9071000 34.1544000 9.19852000
203 53.2325000 83.2025000 0.00000000 33.6943000 52.3824000 8.33536000
204 70.2906000 100.000000 0.00000000 54.4027000 81.1321000 12.7934000
205 62.3715000 0.00000000 14.5237000 14.6411000 7.50928000 2.43071000
206 77.9523000 15.8215000 22.4502000 25.0088000 13.9504000 5.27910000
207 34.4037000 0.00000000 0.00000000 3.99899000 2.06160000 0.18721100
208 32.8677000 83.3723000 0.00000000 27.3308000 49.2629000 8.06856000
209 51.7020000 100.000000 0.00000000 45.2475000 76.4124000 12.3648000
210 53.6362000 100.000000 81.7753000 57.4863000 81.3993000 72.7008000
211 31.4306000 49.6769000 39.9351000 13.2581000 17.7636000 15.2586000
212 76.5436000 57.9500000 49.5756000 36.8991000 34.2521000 24.5486000
213 81.2954000 64.3391000 62.8499000 45.4709000 42.4308000 39.1755000
214 41.0370000 33.4595000 35.9655000 10.9763000 10.2967000 11.4690000
215 53.9135000 34.9390000 40.2094000 16.3998000 13.4893000 14.4503000
216 53.4156000 50.8359000 57.7296000 23.4031000 23.2321000 30.9429000
217 71.5740000 56.8137000 84.8712000 41.9669000 35.2002000 69.8378000
218 62.4258000 23.4125000 41.7859000 18.5649000 11.6426000 15.0570000
219 86.1394000 27.1643000 41.7316000 34.1779000 20.5009000 15.9058000
220 100.000000 29.9788000 58.5578000 49.3040000 28.6705000 31.5056000
221 100.000000 44.9406000 86.8146000 60.4244000 38.6705000 72.9532000
222 100.000000 50.9170000 100.000000 67.2490000 44.4022000 99.6390000
223 64.0115000 0.00000000 26.6222000 16.1905000 8.22657000 6.18563000
224 80.8269000 0.00000000 28.9082000 26.7092000 13.6277000 7.65167000
225 100.000000 50.3740000 36.7321000 51.0220000 37.6190000 15.0850000
226 100.000000 52.0732000 53.1945000 54.0151000 39.7441000 27.9870000
227 21.7184000 7.97032000 19.8975000 2.44435000 1.57191000 3.27713000
228 21.6888000 0.00000000 22.2182000 2.32220000 1.11284000 3.91884000
229 22.0500000 0.00000000 45.8460000 4.84881000 2.12946000 16.9575000
230 23.3010000 0.00000000 62.9222000 8.21334000 3.49675000 33.7091000
231 22.0745000 60.7223000 100.000000 31.3908000 31.4591000 99.0302000
232 29.5406000 70.6761000 100.000000 37.3426000 41.4623000 100.647000
233 46.9125000 82.9437000 100.000000 49.1620000 58.0270000 103.222000
234 52.1940000 92.3665000 100.000000 57.5969000 71.9375000 105.462000
235 71.9245000 93.8084000 100.000000 68.6008000 79.1943000 106.283000
236 0.00000000 34.7239000 27.2771000 4.62588000 7.50579000 6.92669000
237 0.00000000 43.1884000 27.3881000 6.68976000 11.6197000 7.65821000
238 0.00000000 67.0722000 35.1227000 16.3949000 29.8691000 14.4773000
239 0.00000000 100.000000 49.4720000 39.5331000 73.0303000 31.8044000
240 0.00000000 100.000000 67.5434000 43.2264000 74.5077000 51.2541000
241 86.6125000 100.000000 100.000000 83.5829000 94.0906000 108.369000
242 12.4378000 12.4378000 12.4378000 1.35294000 1.42346000 1.55023000
243 4.56621000 4.56621000 4.56621000 0.33831900 0.35595300 0.38765400
244 5.17241000 5.17241000 5.17241000 0.38938200 0.40967800 0.44616300
245 11.0294000 0.00000000 0.00000000 0.48210000 0.24853700 0.02256930
246 100.000000 0.00000000 0.00000000 41.2385000 21.2596000 1.93056000
247 100.000000 38.6418000 20.6872000 46.2933000 30.3510000 6.75716000
248 22.7273000 0.00000000 0.00000000 1.74210000 0.89810500 0.08155570
249 20.1613000 0.00000000 0.00000000 1.38626000 0.71465600 0.06489700
250 28.8852000 0.00000000 81.4919000 14.1588000 5.98700000 59.9609000
251 27.7470000 0.00000000 100.000000 20.6304000 8.55074000 95.1754000
252 39.2869000 22.5587000 100.000000 24.8146000 12.9185000 95.7980000
253 0.00000000 0.00000000 34.4037000 1.75035000 0.70018500 9.21767000
254 0.00000000 0.00000000 37.7358000 2.12176000 0.84876000 11.1736000
255 0.00000000 0.00000000 41.2621000 2.56097000 1.02446000 13.4866000
256 56.3848000 0.00000000 64.7862000 18.2730000 8.63368000 36.4006000
257 58.0131000 38.6263000 63.3656000 23.0988000 17.7126000 36.1911000
258 75.8289000 49.7319000 67.8038000 37.1824000 29.5297000 43.2264000
259 79.0747000 52.6028000 81.9159000 44.2970000 34.1924000 64.5164000
260 84.3636000 64.1069000 100.000000 59.2914000 48.0495000 100.762000
261 86.2973000 76.4950000 100.000000 67.1089000 61.5027000 102.947000
262 0.00000000 51.2519000 59.5501000 13.7300000 18.4125000 32.4746000
263 0.00000000 64.0486000 65.0788000 20.0321000 29.0609000 40.6080000
264 0.00000000 67.7028000 87.4638000 28.1974000 35.0795000 75.1236000
265 0.00000000 67.5556000 100.000000 32.8522000 36.8271000 99.9893000
266 24.6081000 78.2491000 100.000000 40.6294000 49.3627000 101.999000
267 28.7932000 89.7425000 100.000000 48.8035000 64.6051000 104.510000
268 40.8329000 9.17277000 17.1058000 6.48477000 3.75760000 2.72939000
269 46.3291000 0.00000000 12.8245000 7.76047000 3.96952000 1.77431000
270 49.9885000 37.2751000 35.9036000 14.8317000 13.5073000 11.8498000
271 50.2576000 40.0920000 47.0515000 17.0884000 15.5055000 19.8563000
272 75.7358000 64.0802000 46.1217000 38.4388000 38.9911000 22.5198000
273 90.3400000 92.3885000 50.9108000 66.6423000 78.2456000 32.6488000
274 45.1661000 63.9751000 41.0601000 22.7476000 30.9131000 18.0532000
275 55.6707000 65.4524000 62.0036000 31.1291000 35.8220000 37.6720000
276 64.1771000 75.4114000 73.9017000 43.2769000 49.3364000 55.0753000
277 74.8515000 83.7191000 84.9315000 57.8362000 63.8795000 74.6416000
278 0.00000000 92.4658000 0.00000000 29.9323000 59.8690000 9.97865000
279 0.00000000 100.000000 0.00000000 35.7573000 71.5199000 11.9206000
280 0.00000000 100.000000 27.5025000 36.8669000 71.9638000 17.7641000
281 0.00000000 100.000000 100.000000 53.8073000 78.7404000 106.975000
282 0.00000000 26.9243000 31.9404000 3.60878000 4.81466000 8.61233000
283 64.6987000 26.9394000 77.5266000 27.7794000 16.2791000 54.9217000
284 86.5402000 28.2445000 100.000000 50.0883000 27.1792000 97.2189000
285 52.1751000 14.6444000 53.0462000 14.7445000 8.09201000 23.8066000
286 55.1007000 13.8374000 76.5239000 21.3753000 10.7847000 52.6676000
287 55.9057000 18.4142000 100.000000 30.3160000 15.0505000 95.9196000
288 100.000000 0.00000000 32.8252000 42.8271000 21.8952000 10.2968000
289 100.000000 0.00000000 44.2981000 44.2168000 22.4511000 17.6151000
290 100.000000 0.00000000 56.0059000 46.1823000 23.2373000 27.9659000
291 16.1499000 16.1499000 16.1499000 2.12384000 2.23455000 2.43355000
292 11.7284000 11.7284000 11.7284000 1.22809000 1.29210000 1.40717000
293 7.04225000 7.04225000 7.04225000 0.57330000 0.60318300 0.65690100
294 13.1579000 0.00000000 0.00000000 0.64490700 0.33246900 0.03019100
295 25.4237000 0.00000000 0.00000000 2.16855000 1.11795000 0.10152000
296 26.0580000 68.0616000 0.00000000 17.3267000 31.2755000 5.12379000
297 30.4422000 100.000000 0.00000000 38.8687000 73.1239000 12.0662000
298 45.4707000 100.000000 28.8509000 44.1743000 75.7180000 18.6906000
299 86.9335000 100.000000 45.5245000 68.9400000 88.2618000 29.9539000
300 27.4512000 21.6743000 26.7281000 4.95287000 4.47926000 6.09829000
301 30.0531000 22.2032000 47.7053000 7.96668000 5.84804000 19.0083000
302 29.5532000 26.4793000 59.4210000 10.5968000 7.83896000 30.4577000
303 30.6441000 32.2271000 88.1036000 19.7286000 13.1053000 72.4875000
304 38.8963000 68.1631000 88.5311000 33.9590000 38.3423000 77.3894000
305 41.7560000 81.2313000 90.9107000 42.8860000 53.6036000 84.3021000
306 52.5382000 100.000000 92.6031000 60.7444000 82.6504000 92.2180000
307 64.2793000 100.000000 100.000000 69.0985000 86.6234000 107.691000
308 26.1499000 42.0990000 50.8127000 11.5878000 13.3718000 22.9398000
309 68.2293000 55.7505000 55.1095000 31.9210000 30.3007000 29.1837000
310 69.5881000 90.7535000 54.8354000 51.6459000 68.6758000 35.2803000
311 100.000000 91.6822000 100.000000 88.6491000 87.2056000 106.773000
312 100.000000 100.000000 100.000000 95.0458000 100.000000 108.906000
313 22.2232000 42.6514000 19.3829000 7.67475000 11.9721000 4.85943000
314 28.5926000 58.8758000 28.8873000 14.8929000 23.7588000 10.2206000
315 35.6195000 81.7089000 39.9293000 29.3283000 48.4576000 20.3325000
316 100.000000 89.6806000 51.5671000 73.2991000 78.7763000 32.9939000
317 100.000000 100.000000 100.000000 95.0458000 100.000000 108.906000
318 52.7581000 0.00000000 41.0984000 12.4559000 6.12806000 13.8380000
319 84.5814000 0.00000000 59.3658000 33.8414000 16.7974000 30.9017000
320 26.5208000 12.7243000 17.9908000 3.37751000 2.46947000 2.87108000
321 37.9137000 9.53148000 26.6725000 6.27238000 3.60721000 5.83742000
322 70.1333000 89.0137000 31.1286000 47.4409000 65.0645000 17.5288000
323 75.7397000 100.000000 31.0458000 59.2008000 83.4420000 20.4153000
324 18.2974000 36.2953000 0.00000000 5.03178000 8.34696000 1.34599000
325 23.7239000 49.9065000 12.1279000 9.76236000 16.3211000 3.92772000
326 77.3528000 75.1251000 25.5264000 42.8011000 49.7966000 12.3713000
327 100.000000 81.0459000 36.3414000 65.4305000 66.5091000 19.6702000
328 28.2609000 0.00000000 0.00000000 2.67703000 1.38009000 0.12532400
