dispcalGUI/ti1/d3-e4-s41-g121-m0-f2527-csRGB.ti1
CTI1   

ORIGINATOR "Argyll targen"
KEYWORD "OFPS_PATCHES"
OFPS_PATCHES "2280"
CREATED "Sat Oct 19 13:19:25 2013"
KEYWORD "COMP_GREY_STEPS"
COMP_GREY_STEPS "121"
KEYWORD "BLACK_COLOR_PATCHES"
BLACK_COLOR_PATCHES "4"
KEYWORD "APPROX_WHITE_POINT"
APPROX_WHITE_POINT "95.045781 100.000003 108.905751"
DESCRIPTOR "Argyll Calibration Target chart information 1"
KEYWORD "ACCURATE_EXPECTED_VALUES"
ACCURATE_EXPECTED_VALUES "true"
KEYWORD "WHITE_COLOR_PATCHES"
WHITE_COLOR_PATCHES "4"
KEYWORD "SINGLE_DIM_STEPS"
SINGLE_DIM_STEPS "41"
KEYWORD "COLOR_REP"
COLOR_REP "RGB"

NUMBER_OF_FIELDS 7
BEGIN_DATA_FORMAT
SAMPLE_ID RGB_R RGB_G RGB_B XYZ_X XYZ_Y XYZ_Z
END_DATA_FORMAT

NUMBER_OF_SETS 2527
BEGIN_DATA
1 100.000000 100.000000 100.000000 95.0458000 100.000000 108.906000
2 99.1667000 99.1667000 99.1667000 93.2538000 98.1146000 106.852000
3 23.2562000 19.3693000 51.7585000 7.09992000 4.83406000 22.3836000
4 45.2275000 32.5429000 65.5957000 17.2052000 12.6517000 38.2264000
5 100.000000 59.9379000 68.6246000 60.3400000 47.0852000 46.4645000
6 100.000000 67.4233000 78.8998000 66.5420000 54.9643000 62.4835000
7 100.000000 37.6396000 40.7634000 47.9152000 30.6201000 16.4688000
8 100.000000 60.4919000 45.1728000 55.9407000 45.6972000 22.1505000
9 43.1339000 22.5727000 0.00000000 7.91971000 6.29604000 0.79794600
10 59.9983000 32.9525000 0.00000000 16.3077000 13.1165000 1.67244000
11 82.7632000 46.6485000 25.5808000 34.4281000 27.4226000 8.51553000
12 100.000000 77.4739000 74.6299000 70.6582000 65.1779000 57.7506000
13 100.000000 100.000000 87.5452000 90.3475000 98.1206000 84.1636000
14 15.8333000 15.8333000 15.8333000 2.05019000 2.15705000 2.34916000
15 11.6667000 11.6667000 11.6667000 1.21710000 1.28054000 1.39458000
16 0.00000000 13.9435000 15.6721000 0.99998600 1.38832000 2.21942000
17 10.8333000 10.8333000 10.8333000 1.08059000 1.13691000 1.23816000
18 14.5376000 0.00000000 6.80943000 0.86923000 0.43610000 0.58354300
19 29.5593000 9.14412000 0.00000000 3.24377000 2.13633000 0.24143000
20 30.0000000 0.00000000 0.00000000 3.02032000 1.55706000 0.14139500
21 32.5000000 0.00000000 0.00000000 3.55633000 1.83340000 0.16648800
22 38.1340000 10.1505000 0.00000000 5.32214000 3.28838000 0.35428400
23 37.5000000 0.00000000 0.00000000 4.78441000 2.46651000 0.22398000
24 40.0000000 0.00000000 0.00000000 5.47946000 2.82482000 0.25651800
25 42.5000000 0.00000000 0.00000000 6.22979000 3.21164000 0.29164500
26 45.0000000 0.00000000 0.00000000 7.03713000 3.62785000 0.32944000
27 47.5000000 0.00000000 0.00000000 7.90215000 4.07379000 0.36993600
28 50.0000000 0.00000000 0.00000000 8.82693000 4.55054000 0.41322900
29 52.5000000 0.00000000 0.00000000 9.81123000 5.05798000 0.45930800
30 55.0000000 0.00000000 0.00000000 10.8569000 5.59708000 0.50826300
31 57.5000000 0.00000000 0.00000000 11.9652000 6.16841000 0.56014500
32 60.0000000 0.00000000 0.00000000 13.1364000 6.77220000 0.61497500
33 62.5000000 0.00000000 0.00000000 14.3720000 7.40921000 0.67282000
34 65.0000000 0.00000000 0.00000000 15.6729000 8.07982000 0.73371700
35 67.5000000 0.00000000 0.00000000 17.0401000 8.78469000 0.79772600
36 70.0000000 0.00000000 0.00000000 18.4745000 9.52413000 0.86487400
37 72.5000000 0.00000000 0.00000000 19.9765000 10.2985000 0.93519200
38 75.0000000 0.00000000 0.00000000 21.5482000 11.1087000 1.00877000
39 77.5000000 0.00000000 0.00000000 23.1893000 11.9548000 1.08560000
40 80.0000000 0.00000000 0.00000000 24.9008000 12.8371000 1.16572000
41 82.5000000 0.00000000 0.00000000 26.6845000 13.7566000 1.24922000
42 85.0000000 0.00000000 0.00000000 28.5400000 14.7132000 1.33609000
43 87.5000000 0.00000000 0.00000000 30.4689000 15.7076000 1.42639000
44 90.0000000 0.00000000 0.00000000 32.4716000 16.7401000 1.52014000
45 92.5000000 0.00000000 0.00000000 34.5495000 17.8113000 1.61742000
46 95.0000000 0.00000000 0.00000000 36.7025000 18.9212000 1.71821000
47 97.5000000 0.00000000 0.00000000 38.9322000 20.0707000 1.82259000
48 100.000000 0.00000000 0.00000000 41.2385000 21.2596000 1.93056000
49 100.000000 76.9372000 0.00000000 61.0200000 60.8256000 8.52521000
50 100.000000 100.000000 0.00000000 76.9958000 92.7795000 13.8511000
51 9.16667000 9.16667000 9.16667000 0.83388900 0.87735600 0.95549100
52 0.00000000 7.50000000 0.00000000 0.23505400 0.47014200 0.07836090
53 0.00000000 10.0000000 0.00000000 0.35847300 0.71700000 0.11950600
54 0.00000000 15.0000000 0.00000000 0.70098700 1.40208000 0.23369100
55 0.00000000 17.5000000 0.00000000 0.92398300 1.84810000 0.30803200
56 0.00000000 20.0000000 0.00000000 1.18400000 2.36817000 0.39471500
57 0.00000000 22.5000000 0.00000000 1.48183000 2.96387000 0.49400300
58 0.00000000 25.0000000 0.00000000 1.81937000 3.63902000 0.60653300
59 0.00000000 27.5000000 0.00000000 2.19782000 4.39596000 0.73269600
60 0.00000000 30.0000000 0.00000000 2.61887000 5.23813000 0.87306500
61 0.00000000 32.5000000 0.00000000 3.08365000 6.16775000 1.02801000
62 0.00000000 35.0000000 0.00000000 3.59286000 7.18626000 1.19777000
63 0.00000000 37.5000000 0.00000000 4.14850000 8.29761000 1.38300000
64 0.00000000 40.0000000 0.00000000 4.75116000 9.50303000 1.58392000
65 0.00000000 42.5000000 0.00000000 5.40176000 10.8043000 1.80081000
66 0.00000000 45.0000000 0.00000000 6.10179000 12.2045000 2.03418000
67 0.00000000 47.5000000 0.00000000 6.85185000 13.7047000 2.28423000
68 0.00000000 50.0000000 0.00000000 7.65371000 15.3085000 2.55155000
69 0.00000000 52.5000000 0.00000000 8.50718000 17.0156000 2.83608000
70 0.00000000 55.0000000 0.00000000 9.41391000 18.8292000 3.13836000
71 0.00000000 57.5000000 0.00000000 10.3749000 20.7512000 3.45871000
72 0.00000000 60.0000000 0.00000000 11.3904000 22.7825000 3.79726000
73 0.00000000 62.5000000 0.00000000 12.4618000 24.9254000 4.15444000
74 0.00000000 65.0000000 0.00000000 13.5897000 27.1814000 4.53046000
75 0.00000000 67.5000000 0.00000000 14.7753000 29.5527000 4.92569000
76 0.00000000 70.0000000 0.00000000 16.0190000 32.0403000 5.34031000
77 0.00000000 72.5000000 0.00000000 17.3214000 34.6453000 5.77450000
78 0.00000000 75.0000000 0.00000000 18.6841000 37.3710000 6.22881000
79 0.00000000 77.5000000 0.00000000 20.1071000 40.2172000 6.70320000
80 0.00000000 80.0000000 0.00000000 21.5911000 43.1854000 7.19792000
81 0.00000000 82.5000000 0.00000000 23.1377000 46.2789000 7.71352000
82 0.00000000 85.0000000 0.00000000 24.7466000 49.4969000 8.24988000
83 0.00000000 87.5000000 0.00000000 26.4191000 52.8422000 8.80746000
84 0.00000000 90.0000000 0.00000000 28.1557000 56.3155000 9.38637000
85 0.00000000 92.5000000 0.00000000 29.9574000 59.9191000 9.98702000
86 0.00000000 95.0000000 0.00000000 31.8242000 63.6532000 10.6094000
87 19.8090000 100.000000 100.000000 55.1482000 79.4316000 107.038000
88 8.33333000 8.33333000 8.33333000 0.72515300 0.76295100 0.83089800
89 5.00000000 0.00000000 0.00000000 0.16228600 0.08366310 0.00759734
90 1.66667000 1.66667000 1.66667000 0.12218800 0.12855700 0.14000600
91 0.00000000 0.00000000 2.50000000 0.03494460 0.01397870 0.18402500
92 0.00000000 0.00000000 5.00000000 0.07103220 0.02841470 0.37406900
93 0.00000000 0.00000000 12.5000000 0.25903800 0.10362200 1.36414000
94 0.00000000 0.00000000 15.0000000 0.35385300 0.14155000 1.86345000
95 0.00000000 0.00000000 17.5000000 0.46641900 0.18658000 2.45625000
96 0.00000000 0.00000000 20.0000000 0.59767300 0.23908500 3.14746000
97 0.00000000 0.00000000 22.5000000 0.74801400 0.29922500 3.93918000
98 9.81015000 0.00000000 22.2858000 1.13539000 0.50052400 3.88513000
99 0.00000000 9.43755000 24.4655000 1.20815000 1.00793000 4.74500000
100 0.00000000 0.00000000 25.0000000 0.91840600 0.36738600 4.83649000
101 0.00000000 0.00000000 35.0000000 1.81365000 0.72550600 9.55101000
102 0.00000000 0.00000000 37.5000000 2.09413000 0.83770500 11.0281000
103 0.00000000 0.00000000 40.0000000 2.39835000 0.95940100 12.6301000
104 0.00000000 0.00000000 42.5000000 2.72677000 1.09078000 14.3597000
105 0.00000000 0.00000000 45.0000000 3.08014000 1.23213000 16.2206000
106 0.00000000 0.00000000 47.5000000 3.45876000 1.38359000 18.2145000
107 0.00000000 0.00000000 50.0000000 3.86353000 1.54551000 20.3461000
108 0.00000000 0.00000000 52.5000000 4.29436000 1.71785000 22.6149000
109 0.00000000 0.00000000 55.0000000 4.75207000 1.90095000 25.0252000
110 0.00000000 0.00000000 57.5000000 5.23714000 2.09499000 27.5798000
111 0.00000000 11.0968000 59.8102000 6.13211000 3.12851000 30.2104000
112 0.00000000 0.00000000 60.0000000 5.74978000 2.30006000 30.2794000
113 0.00000000 0.00000000 62.5000000 6.29061000 2.51641000 33.1275000
114 0.00000000 0.00000000 65.0000000 6.85998000 2.74417000 36.1259000
115 0.00000000 0.00000000 67.5000000 7.45843000 2.98356000 39.2775000
116 0.00000000 0.00000000 70.0000000 8.08624000 3.23470000 42.5836000
117 0.00000000 0.00000000 72.5000000 8.74369000 3.49770000 46.0459000
118 0.00000000 0.00000000 75.0000000 9.43160000 3.77288000 49.6685000
119 0.00000000 0.00000000 77.5000000 10.1499000 4.06023000 53.4513000
120 0.00000000 0.00000000 80.0000000 10.8990000 4.35989000 57.3963000
121 0.00000000 0.00000000 82.5000000 11.6797000 4.67219000 61.5076000
122 0.00000000 0.00000000 85.0000000 12.4919000 4.99708000 65.7846000
123 0.00000000 0.00000000 87.5000000 13.3362000 5.33481000 70.2307000
124 0.00000000 0.00000000 90.0000000 14.2127000 5.68546000 74.8469000
125 0.00000000 0.00000000 92.5000000 15.1222000 6.04928000 79.6365000
126 0.00000000 0.00000000 95.0000000 16.0646000 6.42626000 84.5993000
127 0.00000000 0.00000000 97.5000000 17.0405000 6.81666000 89.7386000
128 0.00000000 0.00000000 100.000000 18.0500000 7.22046000 95.0546000
129 100.000000 89.1591000 100.000000 86.8528000 83.6129000 106.174000
130 7.50000000 7.50000000 7.50000000 0.62479200 0.65735900 0.71590100
131 7.50000000 0.00000000 0.00000000 0.27108500 0.13975200 0.01269070
132 0.00000000 5.00000000 0.00000000 0.14071600 0.28145200 0.04691100
133 10.0000000 0.00000000 0.00000000 0.41342300 0.21313200 0.01935420
134 2.50000000 2.50000000 2.50000000 0.18400800 0.19359900 0.21084000
135 3.33333000 3.33333000 3.33333000 0.24582700 0.25864000 0.28167400
136 0.00000000 12.5000000 0.00000000 0.51315700 1.02639000 0.17107300
137 5.00000000 5.00000000 5.00000000 0.37403400 0.39353000 0.42857700
138 0.00000000 0.00000000 7.50000000 0.11865300 0.04746430 0.62485000
139 5.83333000 5.83333000 5.83333000 0.44966700 0.47310600 0.51524000
140 0.83333300 0.83333300 0.83333300 0.06181930 0.06504160 0.07083400
141 0.00000000 2.50000000 0.00000000 0.06922570 0.13846200 0.02307810
142 4.16667000 4.16667000 4.16667000 0.30619600 0.32215600 0.35084700
143 0.00000000 0.00000000 10.0000000 0.18095400 0.07238640 0.95293900
144 6.66667000 6.66667000 6.66667000 0.53284200 0.56061600 0.61054400
145 13.3333000 13.3333000 13.3333000 1.52021000 1.59945000 1.74189000
146 14.1667000 14.1667000 14.1667000 1.68663000 1.77455000 1.93258000
147 12.5000000 12.5000000 12.5000000 1.36401000 1.43511000 1.56292000
148 16.6667000 16.6667000 16.6667000 2.24797000 2.36515000 2.57578000
149 17.5000000 17.5000000 17.5000000 2.45602000 2.58404000 2.81417000
150 18.3333000 18.3333000 18.3333000 2.67567000 2.81514000 3.06585000
151 19.1667000 19.1667000 19.1667000 2.90558000 3.05703000 3.32928000
152 20.0000000 20.0000000 20.0000000 3.14716000 3.31121000 3.60610000
153 20.8333000 20.8333000 20.8333000 3.39897000 3.57614000 3.89462000
154 21.6667000 21.6667000 21.6667000 3.66246000 3.85336000 4.19653000
155 22.5000000 22.5000000 22.5000000 3.93881000 4.14412000 4.51319000
156 23.3333000 23.3333000 23.3333000 4.22590000 4.44617000 4.84214000
157 24.1667000 24.1667000 24.1667000 4.52441000 4.76024000 5.18418000
158 25.0000000 25.0000000 25.0000000 4.83604000 5.08812000 5.54126000
159 25.8333000 25.8333000 25.8333000 5.15895000 5.42786000 5.91125000
160 26.6667000 26.6667000 26.6667000 5.49434000 5.78073000 6.29555000
161 27.5000000 27.5000000 27.5000000 5.84198000 6.14649000 6.69388000
162 28.3333000 28.3333000 28.3333000 6.20223000 6.52552000 7.10667000
163 29.1667000 29.1667000 29.1667000 6.57514000 6.91787000 7.53396000
164 30.0000000 30.0000000 30.0000000 6.96118000 7.32403000 7.97628000
165 30.8333000 30.8333000 30.8333000 7.35972000 7.74334000 8.43295000
166 31.6667000 31.6667000 31.6667000 7.77117000 8.17624000 8.90440000
167 32.5000000 32.5000000 32.5000000 8.19658000 8.62383000 9.39184000
168 33.3333000 33.3333000 33.3333000 8.63367000 9.08370000 9.89267000
169 34.1667000 34.1667000 34.1667000 9.08533000 9.55890000 10.4102000
170 35.0000000 35.0000000 35.0000000 9.55012000 10.0479000 10.9428000
171 35.8333000 35.8333000 35.8333000 10.0289000 10.5516000 11.4913000
172 36.6667000 36.6667000 36.6667000 10.5207000 11.0690000 12.0548000
173 37.5000000 37.5000000 37.5000000 11.0270000 11.6018000 12.6350000
174 38.3333000 38.3333000 38.3333000 11.5465000 12.1484000 13.2303000
175 39.1667000 39.1667000 39.1667000 12.0806000 12.7103000 13.8423000
176 40.0000000 40.0000000 40.0000000 12.6290000 13.2873000 14.4706000
177 40.8333000 40.8333000 40.8333000 13.1910000 13.8786000 15.1146000
178 41.6667000 41.6667000 41.6667000 13.7674000 14.4850000 15.7750000
179 42.5000000 42.5000000 42.5000000 14.3583000 15.1067000 16.4521000
180 43.3333000 43.3333000 43.3333000 14.9643000 15.7443000 17.1464000
181 44.1667000 44.1667000 44.1667000 15.5839000 16.3962000 17.8564000
182 45.0000000 45.0000000 45.0000000 16.2191000 17.0645000 18.5842000
183 45.8333000 45.8333000 45.8333000 16.8690000 17.7483000 19.3290000
184 46.6667000 46.6667000 46.6667000 17.5336000 18.4475000 20.0904000
185 47.5000000 47.5000000 47.5000000 18.2128000 19.1621000 20.8686000
186 48.3333000 48.3333000 48.3333000 18.9086000 19.8942000 21.6659000
187 49.1667000 49.1667000 49.1667000 19.6176000 20.6402000 22.4784000
188 50.0000000 50.0000000 50.0000000 20.3442000 21.4046000 23.3108000
189 50.8333000 50.8333000 50.8333000 21.0839000 22.1828000 24.1584000
190 51.6667000 51.6667000 51.6667000 21.8410000 22.9794000 25.0259000
191 52.5000000 52.5000000 52.5000000 22.6128000 23.7914000 25.9103000
192 53.3333000 53.3333000 53.3333000 23.4007000 24.6204000 26.8131000
193 54.1667000 54.1667000 54.1667000 24.2043000 25.4660000 27.7339000
194 55.0000000 55.0000000 55.0000000 25.0229000 26.3272000 28.6719000
195 55.8333000 55.8333000 55.8333000 25.8588000 27.2067000 29.6296000
196 56.6667000 56.6667000 56.6667000 26.7093000 28.1015000 30.6041000
197 57.5000000 57.5000000 57.5000000 27.5772000 29.0146000 31.5986000
198 58.3333000 58.3333000 58.3333000 28.4608000 29.9443000 32.6111000
199 59.1667000 59.1667000 59.1667000 29.3601000 30.8905000 33.6415000
200 60.0000000 60.0000000 60.0000000 30.2766000 31.8547000 34.6916000
201 60.8333000 60.8333000 60.8333000 31.2087000 32.8354000 35.7597000
202 61.6667000 61.6667000 61.6667000 32.1583000 33.8345000 36.8477000
203 62.5000000 62.5000000 62.5000000 33.1244000 34.8510000 37.9548000
204 63.3333000 63.3333000 63.3333000 34.1068000 35.8846000 39.0804000
205 64.1667000 64.1667000 64.1667000 35.1067000 36.9366000 40.2261000
206 65.0000000 65.0000000 65.0000000 36.1225000 38.0054000 41.3901000
207 65.8333000 65.8333000 65.8333000 37.1559000 39.0927000 42.5742000
208 66.6667000 66.6667000 66.6667000 38.2069000 40.1984000 43.7783000
209 67.5000000 67.5000000 67.5000000 39.2738000 41.3209000 45.0009000
210 68.3333000 68.3333000 68.3333000 40.3583000 42.4620000 46.2435000
211 69.1667000 69.1667000 69.1667000 41.4601000 43.6212000 47.5060000
212 70.0000000 70.0000000 70.0000000 42.5797000 44.7991000 48.7888000
213 70.8333000 70.8333000 70.8333000 43.7158000 45.9945000 50.0907000
214 71.6667000 71.6667000 71.6667000 44.8697000 47.2085000 51.4128000
215 72.5000000 72.5000000 72.5000000 46.0416000 48.4415000 52.7556000
216 73.3333000 73.3333000 73.3333000 47.2312000 49.6931000 54.1187000
217 74.1667000 74.1667000 74.1667000 48.4388000 50.9637000 55.5024000
218 75.0000000 75.0000000 75.0000000 49.6639000 52.2526000 56.9061000
219 75.8333000 75.8333000 75.8333000 50.9061000 53.5596000 58.3295000
220 76.6667000 76.6667000 76.6667000 52.1673000 54.8866000 59.7746000
221 77.5000000 77.5000000 77.5000000 53.4464000 56.2322000 61.2401000
222 78.3333000 78.3333000 78.3333000 54.7429000 57.5963000 62.7257000
223 79.1667000 79.1667000 79.1667000 56.0581000 58.9801000 64.2327000
224 80.0000000 80.0000000 80.0000000 57.3909000 60.3824000 65.7599000
225 80.8333000 80.8333000 80.8333000 58.7428000 61.8048000 67.3089000
226 81.6667000 81.6667000 81.6667000 60.1128000 63.2462000 68.8788000
227 82.5000000 82.5000000 82.5000000 61.5019000 64.7077000 70.4704000
228 83.3333000 83.3333000 83.3333000 62.9085000 66.1875000 72.0820000
229 84.1667000 84.1667000 84.1667000 64.3340000 67.6873000 73.7154000
230 85.0000000 85.0000000 85.0000000 65.7785000 69.2071000 75.3706000
231 85.8333000 85.8333000 85.8333000 67.2419000 70.7468000 77.0473000
232 86.6667000 86.6667000 86.6667000 68.7236000 72.3058000 78.7452000
233 87.5000000 87.5000000 87.5000000 70.2242000 73.8846000 80.4645000
234 88.3333000 88.3333000 88.3333000 71.7436000 75.4833000 82.2056000
235 89.1667000 89.1667000 89.1667000 73.2823000 77.1021000 83.9686000
236 90.0000000 90.0000000 90.0000000 74.8400000 78.7410000 85.7535000
237 90.8333000 90.8333000 90.8333000 76.4166000 80.3998000 87.5600000
238 91.6667000 91.6667000 91.6667000 78.0130000 82.0794000 89.3892000
239 92.5000000 92.5000000 92.5000000 79.6291000 83.7797000 91.2409000
240 93.3333000 93.3333000 93.3333000 81.2641000 85.5000000 93.1144000
241 94.1667000 94.1667000 94.1667000 82.9177000 87.2397000 95.0091000
242 95.0000000 95.0000000 95.0000000 84.5914000 89.0007000 96.9269000
243 95.8333000 95.8333000 95.8333000 86.2841000 90.7816000 98.8664000
244 96.6667000 96.6667000 96.6667000 87.9974000 92.5843000 100.830000
245 27.5000000 0.00000000 0.00000000 2.53472000 1.30672000 0.11866200
246 39.4155000 37.4420000 0.00000000 9.44690000 11.0089000 1.62715000
247 50.6979000 46.5549000 0.00000000 15.6582000 17.8153000 2.61362000
248 62.3170000 100.000000 0.00000000 50.0366000 78.8813000 12.5890000
249 44.7358000 100.000000 0.00000000 42.7066000 75.1025000 12.2459000
250 51.2716000 100.000000 40.4612000 47.5344000 77.3075000 25.2966000
251 56.6297000 100.000000 85.5982000 60.0205000 82.5624000 79.2953000
252 40.4890000 64.2598000 53.4122000 23.3300000 31.1833000 28.1587000
253 42.5593000 70.3706000 61.4774000 28.5227000 38.0667000 37.6410000
254 50.0199000 86.6559000 100.000000 52.7318000 63.4734000 104.085000
255 41.3340000 58.0051000 73.8015000 25.5462000 27.8194000 51.7128000
256 56.6885000 85.5760000 77.6820000 46.9278000 60.3170000 62.6516000
257 97.5000000 97.5000000 97.5000000 89.7303000 94.4075000 102.815000
258 98.3333000 98.3333000 98.3333000 91.4822000 96.2506000 104.822000
259 80.2274000 37.5341000 0.00000000 29.2168000 21.2329000 2.55885000
260 100.000000 44.6603000 0.00000000 47.2423000 33.2681000 3.93207000
261 100.000000 52.9225000 0.00000000 49.8950000 38.5739000 4.81641000
262 50.5484000 0.00000000 15.2334000 9.40150000 4.80474000 2.33850000
263 100.000000 0.00000000 30.6905000 42.6230000 21.8135000 9.22164000
264 100.000000 0.00000000 38.4826000 43.4493000 22.1441000 13.5734000
265 100.000000 0.00000000 47.2683000 44.6612000 22.6288000 19.9552000
266 21.9258000 0.00000000 8.30390000 1.76280000 0.89294700 0.79776200
267 20.0000000 0.00000000 0.00000000 1.36549000 0.70395100 0.06392490
268 17.5000000 0.00000000 0.00000000 1.06562000 0.54935800 0.04988640
269 72.0477000 53.1585000 0.00000000 28.4407000 27.6388000 3.83621000
270 100.000000 60.8071000 0.00000000 52.9684000 44.7212000 5.84102000
271 0.00000000 52.3559000 24.5898000 9.34555000 17.2699000 7.50098000
272 0.00000000 79.3531000 29.0468000 22.4395000 42.9006000 13.5897000
273 0.00000000 100.000000 36.6510000 37.7535000 72.3184000 22.4328000
274 22.4740000 100.000000 68.3268000 45.1253000 75.4643000 52.3538000
275 24.0549000 100.000000 93.0735000 53.0383000 78.6575000 92.7705000
276 84.5147000 100.000000 100.000000 81.9814000 93.2649000 108.294000
277 33.3685000 28.3538000 30.9888000 7.50288000 7.17410000 8.39046000
278 58.7090000 40.5367000 32.3287000 18.9500000 16.8462000 10.3237000
279 59.0177000 37.7220000 42.0275000 19.5316000 15.9970000 16.0164000
280 78.5157000 60.9147000 56.1665000 40.6264000 37.8519000 31.2423000
281 28.9875000 0.00000000 31.1442000 4.24428000 2.02328000 7.64457000
282 46.1024000 0.00000000 47.4910000 10.8689000 5.20391000 18.5541000
283 100.000000 32.4822000 58.5102000 49.7595000 29.5969000 31.6099000
284 100.000000 42.0438000 70.6257000 54.7659000 35.1189000 47.1257000
285 15.0000000 0.00000000 0.00000000 0.80844000 0.41677500 0.03784680
286 12.5000000 0.00000000 0.00000000 0.59181800 0.30510000 0.02770570
287 28.9025000 38.5184000 55.4827000 12.0329000 12.1589000 27.1015000
288 27.6415000 54.1162000 56.5757000 16.7028000 21.5183000 29.7680000
289 25.0000000 0.00000000 0.00000000 2.09826000 1.08172000 0.09822920
290 22.5000000 0.00000000 0.00000000 1.70897000 0.88102600 0.08000480
291 47.8155000 19.2318000 13.7905000 9.42161000 6.45491000 2.35208000
292 46.8075000 70.7003000 36.6375000 26.0293000 37.5031000 16.3225000
293 51.7151000 100.000000 62.8220000 51.6150000 78.9601000 45.8701000
294 57.8773000 100.000000 71.2926000 56.3176000 81.1465000 56.8434000
295 0.00000000 23.9170000 15.9783000 2.06390000 3.49465000 2.64085000
296 0.00000000 29.2761000 61.5187000 8.56761000 7.41569000 32.8232000
297 0.00000000 28.9582000 71.5032000 10.9161000 8.26802000 45.4594000
298 0.00000000 44.0336000 73.8225000 14.9293000 15.2934000 49.8847000
299 62.9191000 47.5029000 100.000000 39.4883000 28.4463000 98.0220000
300 100.000000 49.0779000 100.000000 66.6401000 43.1845000 99.4360000
301 73.9659000 26.0255000 27.5616000 23.9731000 15.1540000 7.50258000
302 100.000000 76.2965000 30.3054000 62.0025000 60.6314000 15.5097000
303 100.000000 84.4578000 38.3792000 67.8291000 70.9271000 21.6392000
304 34.4303000 0.00000000 44.9323000 7.07557000 3.29305000 16.3558000
305 40.4642000 25.7821000 44.9468000 10.6203000 7.99039000 17.0869000
306 65.0151000 50.6287000 69.5400000 31.5128000 26.9996000 45.3189000
307 77.4727000 62.8870000 100.000000 53.8537000 44.4330000 100.351000
308 81.1798000 70.5692000 100.000000 60.0938000 53.1097000 101.697000
309 29.6502000 51.0051000 32.9100000 12.5368000 18.1414000 11.2122000
310 100.000000 64.9551000 40.6203000 57.2849000 49.3905000 19.5010000
311 36.6947000 23.8619000 0.00000000 6.23274000 5.67857000 0.76765400
312 68.2896000 68.6659000 0.00000000 32.8337000 39.7125000 5.93519000
313 76.1901000 79.8012000 0.00000000 43.7917000 54.4522000 8.20282000
314 0.00000000 28.6554000 35.3456000 4.23837000 5.51540000 10.5440000
315 0.00000000 48.2277000 55.3316000 11.8949000 16.0872000 27.7166000
316 0.00000000 61.3222000 72.6365000 20.7308000 27.4147000 50.2238000
317 19.0814000 72.9620000 100.000000 36.8690000 43.0051000 100.970000
318 51.0393000 0.00000000 100.000000 27.2787000 11.9781000 95.4867000
319 64.5799000 0.00000000 100.000000 33.4999000 15.1853000 95.7779000
320 53.6086000 0.00000000 65.9504000 17.3515000 8.12695000 37.7867000
321 100.000000 0.00000000 66.3320000 48.4136000 24.1299000 39.7160000
322 100.000000 0.00000000 76.9079000 51.2155000 25.2507000 54.4715000
323 100.000000 0.00000000 100.000000 59.2885000 28.4801000 96.9852000
324 35.4412000 0.00000000 68.5996000 11.9837000 5.28499000 40.9113000
325 38.5263000 73.3713000 93.1732000 38.2254000 44.3413000 87.1233000
326 0.00000000 24.2298000 40.1861000 4.13294000 4.39100000 13.3251000
327 0.00000000 23.4639000 87.1154000 14.8110000 8.49581000 70.0713000
328 0.00000000 23.2536000 100.000000 19.6291000 10.3790000 95.5811000
329 0.00000000 38.0113000 100.000000 22.3178000 15.7567000 96.4774000
