dispcalGUI/ti1/d3-e4-s0-g16-m4-f0-crossover.ti1
CTI1   

ORIGINATOR "Argyll targen"
CREATED "Sun Oct 19 08:52:37 2008"
KEYWORD "COMP_GREY_STEPS"
COMP_GREY_STEPS "16"
KEYWORD "APPROX_WHITE_POINT"
APPROX_WHITE_POINT "95.106486 100.000000 108.844025"
DESCRIPTOR "Argyll Calibration Target chart information 1"
KEYWORD "MULTI_DIM_STEPS"
MULTI_DIM_STEPS "4"
KEYWORD "WHITE_COLOR_PATCHES"
WHITE_COLOR_PATCHES "4"
KEYWORD "COLOR_REP"
COLOR_REP "RGB"

NUMBER_OF_FIELDS 7
BEGIN_DATA_FORMAT
SAMPLE_ID RGB_R RGB_G RGB_B XYZ_X XYZ_Y XYZ_Z
END_DATA_FORMAT

NUMBER_OF_SETS 91
BEGIN_DATA
1 100.00 100.00 100.00 95.106 100.00 108.84
2 100.00 100.00 100.00 95.106 100.00 108.84
3 100.00 100.00 100.00 95.106 100.00 108.84
4 100.00 100.00 100.00 95.106 100.00 108.84
5 0.0000 0.0000 0.0000 1.0000 1.0000 1.0000
6 6.6667 6.6667 6.6667 1.5275 1.5549 1.6045
7 13.333 13.333 13.333 2.5054 2.5836 2.7251
8 20.000 20.000 20.000 4.1154 4.2774 4.5702
9 26.667 26.667 26.667 6.4399 6.7227 7.2340
10 33.333 33.333 33.333 9.5488 9.9933 10.797
11 40.000 40.000 40.000 13.504 14.154 15.329
12 46.667 46.667 46.667 18.360 19.263 20.895
13 53.333 53.333 53.333 24.169 25.374 27.551
14 60.000 60.000 60.000 30.977 32.536 35.353
15 66.667 66.667 66.667 38.829 40.796 44.351
16 73.333 73.333 73.333 47.765 50.196 54.591
17 80.000 80.000 80.000 57.824 60.779 66.119
18 86.667 86.667 86.667 69.044 72.582 78.977
19 93.333 93.333 93.333 81.460 85.644 93.206
20 33.333 0.0000 0.0000 4.7091 2.9124 1.1738
21 66.667 0.0000 0.0000 17.413 9.4625 1.7691
22 100.00 0.0000 0.0000 41.830 22.052 2.9132
23 0.0000 33.333 0.0000 4.2163 7.4316 2.0721
24 33.333 33.333 0.0000 7.9254 9.3441 2.2459
25 66.667 33.333 0.0000 20.629 15.894 2.8412
26 100.00 33.333 0.0000 45.046 28.484 3.9853
27 0.0000 66.667 0.0000 15.232 29.460 5.7441
28 33.333 66.667 0.0000 18.941 31.373 5.9179
29 66.667 66.667 0.0000 31.645 37.923 6.5132
30 100.00 66.667 0.0000 56.062 50.512 7.6573
31 0.0000 100.00 0.0000 36.405 71.801 12.802
32 33.333 100.00 0.0000 40.114 73.713 12.976
33 66.667 100.00 0.0000 52.818 80.263 13.571
34 100.00 100.00 0.0000 77.235 92.853 14.715
35 0.0000 0.0000 33.333 2.6234 1.6493 9.5508
36 33.333 0.0000 33.333 6.3325 3.5617 9.7246
37 66.667 0.0000 33.333 19.036 10.112 10.320
38 100.00 0.0000 33.333 43.454 22.701 11.464
39 0.0000 33.333 33.333 5.8397 8.0809 10.623
40 66.667 33.333 33.333 22.253 16.543 11.392
41 100.00 33.333 33.333 46.670 29.133 12.536
42 0.0000 66.667 33.333 16.856 30.110 14.295
43 33.333 66.667 33.333 20.565 32.022 14.469
44 66.667 66.667 33.333 33.268 38.572 15.064
45 100.00 66.667 33.333 57.686 51.162 16.208
46 0.0000 100.00 33.333 38.029 72.450 21.353
47 33.333 100.00 33.333 41.738 74.362 21.526
48 66.667 100.00 33.333 54.441 80.912 22.122
49 100.00 100.00 33.333 78.859 93.502 23.266
50 0.0000 0.0000 66.667 8.1838 3.8731 38.838
51 33.333 0.0000 66.667 11.893 5.7855 39.012
52 66.667 0.0000 66.667 24.597 12.336 39.607
53 100.00 0.0000 66.667 49.014 24.925 40.751
54 0.0000 33.333 66.667 11.400 10.305 39.910
55 33.333 33.333 66.667 15.109 12.217 40.084
56 66.667 33.333 66.667 27.813 18.767 40.679
57 100.00 33.333 66.667 52.230 31.357 41.823
58 0.0000 66.667 66.667 22.416 32.333 43.582
59 33.333 66.667 66.667 26.125 34.246 43.756
60 100.00 66.667 66.667 63.246 53.385 45.495
61 0.0000 100.00 66.667 43.589 74.674 50.640
62 33.333 100.00 66.667 47.298 76.586 50.813
63 66.667 100.00 66.667 60.002 83.136 51.409
64 100.00 100.00 66.667 84.419 95.726 52.553
65 0.0000 0.0000 100.00 18.871 8.1473 95.129
66 33.333 0.0000 100.00 22.580 10.060 95.303
67 66.667 0.0000 100.00 35.284 16.610 95.898
68 100.00 0.0000 100.00 59.701 29.199 97.042
69 0.0000 33.333 100.00 22.087 14.579 96.201
70 33.333 33.333 100.00 25.796 16.491 96.375
71 66.667 33.333 100.00 38.500 23.041 96.970
72 100.00 33.333 100.00 62.918 35.631 98.114
73 0.0000 66.667 100.00 33.103 36.608 99.873
74 33.333 66.667 100.00 36.812 38.520 100.05
75 66.667 66.667 100.00 49.516 45.070 100.64
76 100.00 66.667 100.00 73.933 57.660 101.79
77 0.0000 100.00 100.00 54.276 78.948 106.93
78 33.333 100.00 100.00 57.985 80.860 107.10
79 66.667 100.00 100.00 70.689 87.410 107.70
80 0.0000 12.549 100.00 19.382 9.1699 95.299
81 12.549 0.0000 100.00 19.461 8.4514 95.157
82 0.0000 100.00 12.549 36.663 71.904 14.161
83 12.549 100.00 0.0000 36.995 72.105 12.829
84 100.00 0.0000 12.549 42.088 22.155 4.2728
85 100.00 12.549 0.0000 42.342 23.075 3.0837
86 0.0000 25.098 100.00 20.686 11.777 95.734
87 25.098 0.0000 100.00 20.964 9.2266 95.227
88 0.0000 100.00 25.098 37.321 72.167 17.628
89 25.098 100.00 0.0000 38.499 72.880 12.900
90 100.00 0.0000 25.098 42.746 22.419 7.7392
91 100.00 25.098 0.0000 43.645 25.682 3.5183
END_DATA
CTI1

ORIGINATOR "Argyll targen"
KEYWORD "DENSITY_EXTREME_VALUES"
DENSITY_EXTREME_VALUES "8"
CREATED "October 19, 2008"
DESCRIPTOR "Argyll Calibration Target chart information 1"

KEYWORD "INDEX"
NUMBER_OF_FIELDS 7
BEGIN_DATA_FORMAT
INDEX RGB_R RGB_G RGB_B XYZ_X XYZ_Y XYZ_Z
END_DATA_FORMAT

NUMBER_OF_SETS 8
BEGIN_DATA
0 100.00 100.00 100.00 95.106 100.00 108.84
1 0.0000 47.361 100.00 25.613 21.629 97.376
2 100.00 0.0000 79.351 52.426 26.290 58.722
3 0.0000 0.0000 58.997 6.4858 3.1940 29.894
4 100.00 66.659 0.0000 56.059 50.505 7.6561
5 0.0000 35.601 0.0000 4.6856 8.3702 2.2286
6 84.444 0.0000 0.0000 28.843 15.356 2.3047
7 0.0000 0.0000 0.0000 1.0000 1.0000 1.0000
END_DATA
CTI1

ORIGINATOR "Argyll targen"
CREATED "October 19, 2008"
DESCRIPTOR "Argyll Calibration Target chart information 1"
KEYWORD "DEVICE_COMBINATION_VALUES"
DEVICE_COMBINATION_VALUES "9"

KEYWORD "INDEX"
NUMBER_OF_FIELDS 7
BEGIN_DATA_FORMAT
INDEX RGB_R RGB_G RGB_B XYZ_X XYZ_Y XYZ_Z
END_DATA_FORMAT

NUMBER_OF_SETS 9
BEGIN_DATA
0 100.00 100.00 100.00 95.106 100.00 108.84
1 0.0000 100.00 100.00 54.276 78.948 106.93
2 100.00 0.0000 100.00 59.701 29.199 97.042
3 0.0000 0.0000 100.00 18.871 8.1473 95.129
4 100.00 100.00 0.0000 77.235 92.853 14.715
5 0.0000 100.00 0.0000 36.405 71.801 12.802
6 100.00 0.0000 0.0000 41.830 22.052 2.9132
7 0.0000 0.0000 0.0000 1.0000 1.0000 1.0000
8 60.000 60.000 60.000 30.977 32.536 35.353
END_DATA