dispcalGUI/ti1/d3-e4-s0-g57-m0-f0-cubic7-crossover.ti1
CTI1   

ORIGINATOR "Argyll targen"
CREATED "Tue Feb 23 09:03:44 2010"
KEYWORD "COMP_GREY_STEPS"
COMP_GREY_STEPS "57"
KEYWORD "ERROR_OPTIMISED_PATCHES"
ERROR_OPTIMISED_PATCHES "840"
KEYWORD "APPROX_WHITE_POINT"
APPROX_WHITE_POINT "95.106486 100.000000 108.844025"
DESCRIPTOR "Argyll Calibration Target chart information 1"
KEYWORD "WHITE_COLOR_PATCHES"
WHITE_COLOR_PATCHES "4"
KEYWORD "COLOR_REP"
COLOR_REP "RGB"

NUMBER_OF_FIELDS 7
BEGIN_DATA_FORMAT
SAMPLE_ID RGB_R RGB_G RGB_B XYZ_X XYZ_Y XYZ_Z
END_DATA_FORMAT

NUMBER_OF_SETS 912
BEGIN_DATA
1 100.000 100.000 100.000 95.1060 100.000 108.840
2 100.000 100.000 100.000 95.1060 100.000 108.840
3 100.000 100.000 100.000 95.1060 100.000 108.840
4 100.000 100.000 100.000 95.1060 100.000 108.840
5 0.00000 0.00000 0.00000 1.00000 1.00000 1.00000
6 1.78570 1.78570 1.78570 1.13010 1.13680 1.14910
7 3.57140 3.57140 3.57140 1.26010 1.27370 1.29810
8 5.35710 5.35710 5.35710 1.40140 1.42220 1.45990
9 7.14290 7.14290 7.14290 1.57840 1.60850 1.66290
10 8.92860 8.92860 8.92860 1.79420 1.83550 1.91020
11 10.7140 10.7140 10.7140 2.05090 2.10560 2.20430
12 12.5000 12.5000 12.5000 2.35040 2.42060 2.54750
13 14.2860 14.2860 14.2860 2.69460 2.78270 2.94190
14 16.0710 16.0710 16.0710 3.08510 3.19350 3.38950
15 17.8570 17.8570 17.8570 3.52360 3.65480 3.89200
16 19.6430 19.6430 19.6430 4.01170 4.16830 4.45130
17 21.4290 21.4290 21.4290 4.55080 4.73540 5.06910
18 23.2140 23.2140 23.2140 5.14240 5.35780 5.74710
19 25.0000 25.0000 25.0000 5.78780 6.03670 6.48670
20 26.7860 26.7860 26.7860 6.48830 6.77370 7.28950
21 28.5710 28.5710 28.5710 7.24530 7.57000 8.15690
22 30.3570 30.3570 30.3570 8.05980 8.42700 9.09040
23 32.1430 32.1430 32.1430 8.93330 9.34580 10.0910
24 33.9290 33.9290 33.9290 9.86670 10.3280 11.1610
25 35.7140 35.7140 35.7140 10.8610 11.3740 12.3010
26 37.5000 37.5000 37.5000 11.9180 12.4860 13.5120
27 39.2860 39.2860 39.2860 13.0380 13.6640 14.7950
28 41.0710 41.0710 41.0710 14.2220 14.9100 16.1520
29 42.8570 42.8570 42.8570 15.4720 16.2240 17.5840
30 44.6430 44.6430 44.6430 16.7880 17.6090 19.0920
31 46.4290 46.4290 46.4290 18.1710 19.0640 20.6770
32 48.2140 48.2140 48.2140 19.6220 20.5900 22.3410
33 50.0000 50.0000 50.0000 21.1430 22.1900 24.0830
34 51.7860 51.7860 51.7860 22.7330 23.8630 25.9060
35 53.5710 53.5710 53.5710 24.3950 25.6110 27.8100
36 55.3570 55.3570 55.3570 26.1280 27.4350 29.7960
37 57.1430 57.1430 57.1430 27.9340 29.3350 31.8660
38 58.9290 58.9290 58.9290 29.8140 31.3120 34.0200
39 60.7140 60.7140 60.7140 31.7680 33.3680 36.2590
40 62.5000 62.5000 62.5000 33.7970 35.5030 38.5850
41 64.2860 64.2860 64.2860 35.9020 37.7170 40.9970
42 66.0710 66.0710 66.0710 38.0840 40.0130 43.4980
43 67.8570 67.8570 67.8570 40.3440 42.3900 46.0870
44 69.6430 69.6430 69.6430 42.6820 44.8490 48.7660
45 71.4290 71.4290 71.4290 45.0990 47.3920 51.5360
46 73.2140 73.2140 73.2140 47.5950 50.0180 54.3970
47 75.0000 75.0000 75.0000 50.1730 52.7300 57.3510
48 76.7860 76.7860 76.7860 52.8310 55.5270 60.3980
49 78.5710 78.5710 78.5710 55.5720 58.4100 63.5380
50 80.3570 80.3570 80.3570 58.3950 61.3800 66.7740
51 82.1430 82.1430 82.1430 61.3020 64.4380 70.1050
52 83.9290 83.9290 83.9290 64.2930 67.5840 73.5330
53 85.7140 85.7140 85.7140 67.3690 70.8200 77.0570
54 87.5000 87.5000 87.5000 70.5300 74.1460 80.6800
55 89.2860 89.2860 89.2860 73.7770 77.5620 84.4010
56 91.0710 91.0710 91.0710 77.1120 81.0690 88.2220
57 92.8570 92.8570 92.8570 80.5330 84.6690 92.1430
58 94.6430 94.6430 94.6430 84.0430 88.3610 96.1650
59 96.4290 96.4290 96.4290 87.6410 92.1460 100.290
60 98.2140 98.2140 98.2140 91.3290 96.0260 104.510
61 0.00000 0.00000 14.2857 1.32180 1.12870 2.69497
62 0.00000 0.00000 28.5714 2.18599 1.47432 7.24675
63 0.00000 0.00000 42.8571 3.74822 2.09911 15.4751
64 0.00000 0.00000 57.1429 6.11490 3.04564 27.9407
65 0.00000 0.00000 71.4286 9.37444 4.34925 45.1091
66 0.00000 0.00000 85.7143 13.6037 6.04067 67.3847
67 0.00000 0.00000 100.000 18.8711 8.14731 95.1290
68 0.00000 14.2857 0.00000 1.63754 2.27490 1.21251
69 0.00000 14.2857 14.2857 1.95934 2.40360 2.90748
70 0.00000 14.2857 28.5714 2.82353 2.74922 7.45926
71 0.00000 14.2857 42.8571 4.38575 3.37401 15.6877
72 0.00000 14.2857 57.1429 6.75244 4.32053 28.1532
73 0.00000 14.2857 71.4286 10.0120 5.62414 45.3216
74 0.00000 14.2857 85.7143 14.2412 7.31556 67.5972
75 0.00000 14.2857 100.000 19.5086 9.42221 95.3415
76 0.00000 28.5714 0.00000 3.34962 5.69859 1.78321
77 0.00000 28.5714 14.2857 3.67143 5.82729 3.47818
78 0.00000 28.5714 28.5714 4.53562 6.17291 8.02996
79 0.00000 28.5714 42.8571 6.09784 6.79770 16.2584
80 0.00000 28.5714 57.1429 8.46452 7.74423 28.7239
81 0.00000 28.5714 71.4286 11.7241 9.04784 45.8923
82 0.00000 28.5714 85.7143 15.9533 10.7393 68.1679
83 0.00000 28.5714 100.000 21.2207 12.8459 95.9122
84 0.00000 42.8571 0.00000 6.44461 11.8877 2.81489
85 0.00000 42.8571 14.2857 6.76641 12.0164 4.50985
86 0.00000 42.8571 28.5714 7.63060 12.3620 9.06164
87 0.00000 42.8571 42.8571 9.19283 12.9868 17.2900
88 0.00000 42.8571 57.1429 11.5595 13.9333 29.7556
89 0.00000 42.8571 71.4286 14.8191 15.2369 46.9239
90 0.00000 42.8571 85.7143 19.0483 16.9284 69.1996
91 0.00000 42.8571 100.000 24.3157 19.0350 96.9438
92 0.00000 57.1429 0.00000 11.1333 21.2639 4.37781
93 0.00000 57.1429 14.2857 11.4552 21.3926 6.07278
94 0.00000 57.1429 28.5714 12.3193 21.7382 10.6246
95 0.00000 57.1429 42.8571 13.8816 22.3630 18.8530
96 0.00000 57.1429 57.1429 16.2483 23.3095 31.3185
97 0.00000 57.1429 71.4286 19.5078 24.6131 48.4869
98 0.00000 57.1429 85.7143 23.7370 26.3045 70.7625
99 0.00000 57.1429 100.000 29.0045 28.4112 98.5068
100 0.00000 71.4286 0.00000 17.5910 34.1773 6.53037
101 0.00000 71.4286 14.2857 17.9128 34.3060 8.22534
102 0.00000 71.4286 28.5714 18.7770 34.6516 12.7771
103 0.00000 71.4286 42.8571 20.3392 35.2764 21.0055
104 0.00000 71.4286 57.1429 22.7059 36.2229 33.4711
105 0.00000 71.4286 71.4286 25.9654 37.5265 50.6394
106 0.00000 71.4286 85.7143 30.1946 39.2180 72.9151
107 0.00000 71.4286 100.000 35.4621 41.3246 100.659
108 0.00000 85.7143 0.00000 25.9696 50.9323 9.32328
109 0.00000 85.7143 14.2857 26.2914 51.0610 11.0182
110 0.00000 85.7143 28.5714 27.1556 51.4066 15.5700
111 0.00000 85.7143 42.8571 28.7178 52.0314 23.7984
112 0.00000 85.7143 57.1429 31.0845 52.9779 36.2640
113 0.00000 85.7143 71.4286 34.3441 54.2815 53.4323
114 0.00000 85.7143 85.7143 38.5733 55.9729 75.7080
115 0.00000 85.7143 100.000 43.8407 58.0796 103.452
116 0.00000 100.000 0.00000 36.4052 71.8005 12.8018
117 0.00000 100.000 14.2857 36.7270 71.9292 14.4968
118 0.00000 100.000 28.5714 37.5912 72.2748 19.0486
119 0.00000 100.000 42.8571 39.1534 72.8996 27.2770
120 0.00000 100.000 57.1429 41.5201 73.8462 39.7425
121 0.00000 100.000 71.4286 44.7797 75.1498 56.9109
122 0.00000 100.000 85.7143 49.0089 76.8412 79.1866
123 0.00000 100.000 100.000 54.2763 78.9478 106.931
124 7.14286 7.14286 21.4286 2.14288 1.83425 4.63594
125 7.14286 7.14286 35.7143 3.34124 2.31351 10.9478
126 7.14286 7.14286 50.0000 5.29373 3.09439 21.2318
127 7.14286 7.14286 64.2857 8.09662 4.21536 35.9949
128 7.14286 7.14286 78.5714 11.8320 5.70927 55.6693
129 7.14286 7.14286 92.8571 16.5721 7.60504 80.6364
130 7.14286 21.4286 7.14286 2.69670 3.84475 2.03562
131 7.14286 21.4286 21.4286 3.26116 4.07050 5.00871
132 7.14286 21.4286 35.7143 4.45952 4.54977 11.3206
133 7.14286 21.4286 50.0000 6.41201 5.33064 21.6045
134 7.14286 21.4286 64.2857 9.21490 6.45162 36.3676
135 7.14286 21.4286 78.5714 12.9502 7.94552 56.0421
136 7.14286 21.4286 92.8571 17.6904 9.84129 81.0091
137 7.14286 35.7143 7.14286 5.07082 8.59232 2.82700
138 7.14286 35.7143 21.4286 5.63528 8.81807 5.80009
139 7.14286 35.7143 35.7143 6.83364 9.29734 12.1120
140 7.14286 35.7143 50.0000 8.78613 10.0782 22.3959
141 7.14286 35.7143 64.2857 11.5890 11.1992 37.1590
142 7.14286 35.7143 78.5714 15.3244 12.6931 56.8335
143 7.14286 35.7143 92.8571 20.0646 14.5889 81.8005
144 7.14286 50.0000 7.14286 8.93897 16.3275 4.11639
145 7.14286 50.0000 21.4286 9.50344 16.5533 7.08948
146 7.14286 50.0000 35.7143 10.7018 17.0326 13.4014
147 7.14286 50.0000 50.0000 12.6543 17.8134 23.6853
148 7.14286 50.0000 64.2857 15.4572 18.9344 38.4484
149 7.14286 50.0000 78.5714 19.1925 20.4283 58.1229
150 7.14286 50.0000 92.8571 23.9327 22.3241 83.0899
151 7.14286 64.2857 7.14286 14.4919 27.4318 5.96738
152 7.14286 64.2857 21.4286 15.0564 27.6576 8.94047
153 7.14286 64.2857 35.7143 16.2547 28.1369 15.2523
154 7.14286 64.2857 50.0000 18.2072 28.9177 25.5363
155 7.14286 64.2857 64.2857 21.0101 30.0387 40.2994
156 7.14286 64.2857 78.5714 24.7454 31.5326 59.9739
157 7.14286 64.2857 92.8571 29.4856 33.4284 84.9409
158 7.14286 78.5714 7.14286 21.8922 42.2303 8.43416
159 7.14286 78.5714 21.4286 22.4566 42.4560 11.4072
160 7.14286 78.5714 35.7143 23.6550 42.9353 17.7191
161 7.14286 78.5714 50.0000 25.6075 43.7162 28.0031
162 7.14286 78.5714 64.2857 28.4104 44.8372 42.7662
163 7.14286 78.5714 78.5714 32.1457 46.3311 62.4406
164 7.14286 78.5714 92.8571 36.8859 48.2268 87.4077
165 7.14286 92.8571 7.14286 31.2831 61.0096 11.5645
166 7.14286 92.8571 21.4286 31.8476 61.2354 14.5376
167 7.14286 92.8571 35.7143 33.0460 61.7146 20.8495
168 7.14286 92.8571 50.0000 34.9984 62.4955 31.1334
169 7.14286 92.8571 64.2857 37.8013 63.6165 45.8965
170 7.14286 92.8571 78.5714 41.5367 65.1104 65.5710
171 7.14286 92.8571 92.8571 46.2769 67.0062 90.5380
172 14.2857 0.00000 0.00000 1.73522 1.37908 1.03445
173 14.2857 0.00000 14.2857 2.05703 1.50778 2.72942
174 14.2857 0.00000 28.5714 2.92122 1.85341 7.28120
175 14.2857 0.00000 42.8571 4.48344 2.47820 15.5096
176 14.2857 0.00000 57.1429 6.85013 3.42472 27.9752
177 14.2857 0.00000 71.4286 10.1097 4.72833 45.1435
178 14.2857 0.00000 85.7143 14.3389 6.41975 67.4192
179 14.2857 0.00000 100.000 19.6063 8.52640 95.1634
180 14.2857 14.2857 0.00000 2.37276 2.65398 1.24697
181 14.2857 14.2857 28.5714 3.55875 3.12830 7.49372
182 14.2857 14.2857 42.8571 5.12098 3.75309 15.7221
183 14.2857 14.2857 57.1429 7.48766 4.69962 28.1877
184 14.2857 14.2857 71.4286 10.7472 6.00323 45.3560
185 14.2857 14.2857 85.7143 14.9764 7.69464 67.6317
186 14.2857 14.2857 100.000 20.2439 9.80129 95.3759
187 14.2857 28.5714 0.00000 4.08485 6.07767 1.81767
188 14.2857 28.5714 14.2857 4.40665 6.20637 3.51263
189 14.2857 28.5714 28.5714 5.27084 6.55199 8.06442
190 14.2857 28.5714 42.8571 6.83306 7.17678 16.2928
191 14.2857 28.5714 57.1429 9.19975 8.12331 28.7584
192 14.2857 28.5714 71.4286 12.4593 9.42692 45.9267
193 14.2857 28.5714 85.7143 16.6885 11.1183 68.2024
194 14.2857 28.5714 100.000 21.9560 13.2250 95.9466
195 14.2857 42.8571 0.00000 7.17983 12.2668 2.84934
196 14.2857 42.8571 14.2857 7.50164 12.3955 4.54430
197 14.2857 42.8571 28.5714 8.36583 12.7411 9.09609
198 14.2857 42.8571 42.8571 9.92805 13.3659 17.3245
199 14.2857 42.8571 57.1429 12.2947 14.3124 29.7901
200 14.2857 42.8571 71.4286 15.5543 15.6160 46.9584
201 14.2857 42.8571 85.7143 19.7835 17.3074 69.2341
202 14.2857 42.8571 100.000 25.0509 19.4141 96.9783
203 14.2857 57.1429 0.00000 11.8686 21.6429 4.41226
204 14.2857 57.1429 14.2857 12.1904 21.7716 6.10723
205 14.2857 57.1429 28.5714 13.0546 22.1173 10.6590
206 14.2857 57.1429 42.8571 14.6168 22.7421 18.8874
207 14.2857 57.1429 57.1429 16.9835 23.6886 31.3530
208 14.2857 57.1429 71.4286 20.2430 24.9922 48.5213
209 14.2857 57.1429 85.7143 24.4722 26.6836 70.7970
210 14.2857 57.1429 100.000 29.7397 28.7903 98.5412
211 14.2857 71.4286 0.00000 18.3262 34.5564 6.56482
212 14.2857 71.4286 14.2857 18.6480 34.6851 8.25979
213 14.2857 71.4286 28.5714 19.5122 35.0307 12.8116
214 14.2857 71.4286 42.8571 21.0744 35.6555 21.0400
215 14.2857 71.4286 57.1429 23.4411 36.6020 33.5055
216 14.2857 71.4286 71.4286 26.7006 37.9056 50.6739
217 14.2857 71.4286 85.7143 30.9298 39.5970 72.9496
218 14.2857 71.4286 100.000 36.1973 41.7037 100.694
219 14.2857 85.7143 0.00000 26.7049 51.3114 9.35773
220 14.2857 85.7143 14.2857 27.0267 51.4401 11.0527
221 14.2857 85.7143 28.5714 27.8908 51.7857 15.6045
222 14.2857 85.7143 42.8571 29.4531 52.4105 23.8329
223 14.2857 85.7143 57.1429 31.8198 53.3570 36.2984
224 14.2857 85.7143 71.4286 35.0793 54.6606 53.4668
225 14.2857 85.7143 85.7143 39.3085 56.3520 75.7425
226 14.2857 85.7143 100.000 44.5760 58.4587 103.487
227 14.2857 100.000 0.00000 37.1404 72.1796 12.8363
228 14.2857 100.000 14.2857 37.4622 72.3083 14.5313
229 14.2857 100.000 28.5714 38.3264 72.6539 19.0830
230 14.2857 100.000 42.8571 39.8886 73.2787 27.3114
231 14.2857 100.000 57.1429 42.2553 74.2252 39.7770
232 14.2857 100.000 71.4286 45.5149 75.5288 56.9453
233 14.2857 100.000 85.7143 49.7441 77.2203 79.2210
234 14.2857 100.000 100.000 55.0115 79.3269 106.965
235 21.4286 7.14286 7.14286 2.86805 2.27343 1.72329
236 21.4286 7.14286 21.4286 3.43251 2.49918 4.69637
237 21.4286 7.14286 35.7143 4.63087 2.97845 11.0083
238 21.4286 7.14286 50.0000 6.58336 3.75932 21.2922
239 21.4286 7.14286 64.2857 9.38625 4.88030 36.0553
240 21.4286 7.14286 78.5714 13.1216 6.37420 55.7298
241 21.4286 7.14286 92.8571 17.8618 8.26998 80.6968
242 21.4286 21.4286 7.14286 3.98633 4.50969 2.09605
243 21.4286 21.4286 35.7143 5.74915 5.21470 11.3810
244 21.4286 21.4286 50.0000 7.70164 5.99557 21.6650
245 21.4286 21.4286 64.2857 10.5045 7.11655 36.4281
246 21.4286 21.4286 78.5714 14.2399 8.61046 56.1025
247 21.4286 21.4286 92.8571 18.9801 10.5062 81.0696
248 21.4286 35.7143 7.14286 6.36045 9.25726 2.88743
249 21.4286 35.7143 21.4286 6.92491 9.48301 5.86052
250 21.4286 35.7143 35.7143 8.12327 9.96228 12.1724
251 21.4286 35.7143 50.0000 10.0758 10.7431 22.4563
252 21.4286 35.7143 64.2857 12.8786 11.8641 37.2194
253 21.4286 35.7143 78.5714 16.6140 13.3580 56.8939
254 21.4286 35.7143 92.8571 21.3542 15.2538 81.8609
255 21.4286 50.0000 7.14286 10.2286 16.9925 4.17682
256 21.4286 50.0000 21.4286 10.7931 17.2182 7.14991
257 21.4286 50.0000 35.7143 11.9914 17.6975 13.4618
258 21.4286 50.0000 50.0000 13.9439 18.4784 23.7457
259 21.4286 50.0000 64.2857 16.7468 19.5994 38.5088
260 21.4286 50.0000 78.5714 20.4822 21.0933 58.1833
261 21.4286 50.0000 92.8571 25.2223 22.9890 83.1503
262 21.4286 64.2857 7.14286 15.7815 28.0968 6.02781
263 21.4286 64.2857 21.4286 16.3460 28.3225 9.00090
264 21.4286 64.2857 35.7143 17.5444 28.8018 15.3128
265 21.4286 64.2857 50.0000 19.4968 29.5827 25.5967
266 21.4286 64.2857 64.2857 22.2997 30.7036 40.3598
267 21.4286 64.2857 78.5714 26.0351 32.1976 60.0343
268 21.4286 64.2857 92.8571 30.7753 34.0933 85.0013
269 21.4286 78.5714 7.14286 23.1818 42.8952 8.49459
270 21.4286 78.5714 21.4286 23.7462 43.1210 11.4677
271 21.4286 78.5714 35.7143 24.9446 43.6002 17.7796
272 21.4286 78.5714 50.0000 26.8971 44.3811 28.0635
273 21.4286 78.5714 64.2857 29.7000 45.5021 42.8266
274 21.4286 78.5714 78.5714 33.4353 46.9960 62.5011
275 21.4286 78.5714 92.8571 38.1755 48.8918 87.4681
276 21.4286 92.8571 7.14286 32.5728 61.6746 11.6249
277 21.4286 92.8571 21.4286 33.1372 61.9003 14.5980
278 21.4286 92.8571 35.7143 34.3356 62.3796 20.9099
279 21.4286 92.8571 50.0000 36.2881 63.1604 31.1939
280 21.4286 92.8571 64.2857 39.0910 64.2814 45.9570
281 21.4286 92.8571 78.5714 42.8263 65.7753 65.6314
282 21.4286 92.8571 92.8571 47.5665 67.6711 90.5985
283 28.5714 0.00000 0.00000 3.70964 2.39710 1.12697
284 28.5714 0.00000 14.2857 4.03145 2.52580 2.82194
285 28.5714 0.00000 28.5714 4.89564 2.87142 7.37372
286 28.5714 0.00000 42.8571 6.45786 3.49621 15.6021
287 28.5714 0.00000 57.1429 8.82454 4.44274 28.0677
288 28.5714 0.00000 71.4286 12.0841 5.74635 45.2360
289 28.5714 0.00000 85.7143 16.3133 7.43777 67.5117
290 28.5714 0.00000 100.000 21.5808 9.54442 95.2559
291 28.5714 14.2857 0.00000 4.34718 3.67200 1.33948
292 28.5714 14.2857 14.2857 4.66898 3.80070 3.03445
293 28.5714 14.2857 28.5714 5.53317 4.14632 7.58623
294 28.5714 14.2857 42.8571 7.09540 4.77111 15.8146
295 28.5714 14.2857 57.1429 9.46208 5.71763 28.2802
296 28.5714 14.2857 71.4286 12.7216 7.02125 45.4485
297 28.5714 14.2857 85.7143 16.9508 8.71266 67.7242
298 28.5714 14.2857 100.000 22.2183 10.8193 95.4684
299 28.5714 28.5714 0.00000 6.05927 7.09569 1.91018
300 28.5714 28.5714 14.2857 6.38107 7.22439 3.60515
301 28.5714 28.5714 42.8571 8.80748 8.19480 16.3853
302 28.5714 28.5714 57.1429 11.1742 9.14133 28.8509
303 28.5714 28.5714 71.4286 14.4337 10.4449 46.0192
304 28.5714 28.5714 85.7143 18.6629 12.1364 68.2949
305 28.5714 28.5714 100.000 23.9304 14.2430 96.0391
306 28.5714 42.8571 0.00000 9.15425 13.2848 2.94185
307 28.5714 42.8571 14.2857 9.47606 13.4135 4.63682
308 28.5714 42.8571 28.5714 10.3402 13.7591 9.18861
309 28.5714 42.8571 42.8571 11.9025 14.3839 17.4170
310 28.5714 42.8571 57.1429 14.2692 15.3304 29.8826
311 28.5714 42.8571 71.4286 17.5287 16.6340 47.0509
312 28.5714 42.8571 85.7143 21.7579 18.3255 69.3266
313 28.5714 42.8571 100.000 27.0254 20.4321 97.0708
314 28.5714 57.1429 0.00000 13.8430 22.6610 4.50478
315 28.5714 57.1429 14.2857 14.1648 22.7897 6.19975
316 28.5714 57.1429 28.5714 15.0290 23.1353 10.7515
317 28.5714 57.1429 42.8571 16.5912 23.7601 18.9799
318 28.5714 57.1429 57.1429 18.9579 24.7066 31.4455
319 28.5714 57.1429 71.4286 22.2174 26.0102 48.6138
320 28.5714 57.1429 85.7143 26.4466 27.7016 70.8895
321 28.5714 57.1429 100.000 31.7141 29.8083 98.6337
322 28.5714 71.4286 0.00000 20.3006 35.5744 6.65734
323 28.5714 71.4286 14.2857 20.6224 35.7031 8.35231
324 28.5714 71.4286 28.5714 21.4866 36.0487 12.9041
325 28.5714 71.4286 42.8571 23.0488 36.6735 21.1325
326 28.5714 71.4286 57.1429 25.4155 37.6200 33.5981
327 28.5714 71.4286 71.4286 28.6751 38.9236 50.7664
328 28.5714 71.4286 85.7143 32.9043 40.6151 73.0421
329 28.5714 71.4286 100.000 38.1717 42.7217 100.786
330 28.5714 85.7143 0.00000 28.6793 52.3294 9.45025
331 28.5714 85.7143 14.2857 29.0011 52.4581 11.1452
332 28.5714 85.7143 28.5714 29.8653 52.8037 15.6970
333 28.5714 85.7143 42.8571 31.4275 53.4285 23.9254
334 28.5714 85.7143 57.1429 33.7942 54.3750 36.3910
335 28.5714 85.7143 71.4286 37.0537 55.6786 53.5593
336 28.5714 85.7143 85.7143 41.2829 57.3700 75.8350
337 28.5714 85.7143 100.000 46.5504 59.4767 103.579
338 28.5714 100.000 0.00000 39.1149 73.1976 12.9288
339 28.5714 100.000 14.2857 39.4367 73.3263 14.6238
340 28.5714 100.000 28.5714 40.3008 73.6719 19.1756
341 28.5714 100.000 42.8571 41.8631 74.2967 27.4039
342 28.5714 100.000 57.1429 44.2298 75.2433 39.8695
343 28.5714 100.000 71.4286 47.4893 76.5469 57.0379
344 28.5714 100.000 85.7143 51.7185 78.2383 79.3135
345 28.5714 100.000 100.000 56.9860 80.3449 107.058
346 35.7143 7.14286 7.14286 5.60594 3.68510 1.85158
347 35.7143 7.14286 21.4286 6.17041 3.91085 4.82466
348 35.7143 7.14286 35.7143 7.36877 4.39012 11.1365
349 35.7143 7.14286 50.0000 9.32125 5.17099 21.4205
350 35.7143 7.14286 64.2857 12.1241 6.29197 36.1836
351 35.7143 7.14286 78.5714 15.8595 7.78587 55.8581
352 35.7143 7.14286 92.8571 20.5997 9.68165 80.8251
353 35.7143 21.4286 7.14286 6.72423 5.92135 2.22434
354 35.7143 21.4286 21.4286 7.28869 6.14710 5.19743
355 35.7143 21.4286 35.7143 8.48705 6.62637 11.5093
356 35.7143 21.4286 50.0000 10.4395 7.40724 21.7933
357 35.7143 21.4286 64.2857 13.2424 8.52822 36.5564
358 35.7143 21.4286 78.5714 16.9778 10.0221 56.2308
359 35.7143 21.4286 92.8571 21.7180 11.9179 81.1979
360 35.7143 35.7143 7.14286 9.09835 10.6689 3.01572
361 35.7143 35.7143 21.4286 9.66281 10.8947 5.98881
362 35.7143 35.7143 50.0000 12.8137 12.1548 22.5846
363 35.7143 35.7143 64.2857 15.6165 13.2758 37.3477
364 35.7143 35.7143 78.5714 19.3519 14.7697 57.0222
365 35.7143 35.7143 92.8571 24.0921 16.6655 81.9892
366 35.7143 50.0000 7.14286 12.9665 18.4042 4.30512
367 35.7143 50.0000 21.4286 13.5310 18.6299 7.27820
368 35.7143 50.0000 35.7143 14.7293 19.1092 13.5901
369 35.7143 50.0000 50.0000 16.6818 19.8900 23.8740
370 35.7143 50.0000 64.2857 19.4847 21.0110 38.6371
371 35.7143 50.0000 78.5714 23.2200 22.5049 58.3116
372 35.7143 50.0000 92.8571 27.9602 24.4007 83.2786
373 35.7143 64.2857 7.14286 18.5194 29.5084 6.15611
374 35.7143 64.2857 21.4286 19.0839 29.7342 9.12919
375 35.7143 64.2857 35.7143 20.2822 30.2135 15.4411
376 35.7143 64.2857 50.0000 22.2347 30.9943 25.7250
377 35.7143 64.2857 64.2857 25.0376 32.1153 40.4881
378 35.7143 64.2857 78.5714 28.7730 33.6092 60.1626
379 35.7143 64.2857 92.8571 33.5132 35.5050 85.1296
380 35.7143 78.5714 7.14286 25.9197 44.3069 8.62288
381 35.7143 78.5714 21.4286 26.4841 44.5326 11.5960
382 35.7143 78.5714 35.7143 27.6825 45.0119 17.9078
383 35.7143 78.5714 50.0000 29.6350 45.7928 28.1918
384 35.7143 78.5714 64.2857 32.4379 46.9138 42.9549
385 35.7143 78.5714 78.5714 36.1732 48.4077 62.6294
386 35.7143 78.5714 92.8571 40.9134 50.3034 87.5964
387 35.7143 92.8571 7.14286 35.3107 63.0862 11.7532
388 35.7143 92.8571 21.4286 35.8751 63.3120 14.7263
389 35.7143 92.8571 35.7143 37.0735 63.7912 21.0382
390 35.7143 92.8571 50.0000 39.0260 64.5721 31.3221
391 35.7143 92.8571 64.2857 41.8289 65.6931 46.0853
392 35.7143 92.8571 78.5714 45.5642 67.1870 65.7597
393 35.7143 92.8571 92.8571 50.3044 69.0828 90.7268
394 42.8571 0.00000 0.00000 7.27886 4.23740 1.29422
395 42.8571 0.00000 14.2857 7.60066 4.36610 2.98918
396 42.8571 0.00000 28.5714 8.46485 4.71172 7.54097
397 42.8571 0.00000 42.8571 10.0271 5.33651 15.7694
398 42.8571 0.00000 57.1429 12.3938 6.28304 28.2349
399 42.8571 0.00000 71.4286 15.6533 7.58665 45.4033
400 42.8571 0.00000 85.7143 19.8825 9.27807 67.6790
401 42.8571 0.00000 100.000 25.1500 11.3847 95.4232
402 42.8571 14.2857 0.00000 7.91640 5.51230 1.50673
403 42.8571 14.2857 14.2857 8.23820 5.64100 3.20170
404 42.8571 14.2857 28.5714 9.10239 5.98662 7.75348
405 42.8571 14.2857 42.8571 10.6646 6.61141 15.9819
406 42.8571 14.2857 57.1429 13.0313 7.55793 28.4474
407 42.8571 14.2857 71.4286 16.2908 8.86155 45.6158
408 42.8571 14.2857 85.7143 20.5200 10.5530 67.8915
409 42.8571 14.2857 100.000 25.7875 12.6596 95.6357
410 42.8571 28.5714 0.00000 9.62848 8.93599 2.07743
411 42.8571 28.5714 14.2857 9.95029 9.06469 3.77240
412 42.8571 28.5714 28.5714 10.8145 9.41031 8.32418
413 42.8571 28.5714 42.8571 12.3767 10.0351 16.5526
414 42.8571 28.5714 57.1429 14.7434 10.9816 29.0181
415 42.8571 28.5714 71.4286 18.0029 12.2852 46.1865
416 42.8571 28.5714 85.7143 22.2321 13.9767 68.4622
417 42.8571 28.5714 100.000 27.4996 16.0833 96.2064
418 42.8571 42.8571 0.00000 12.7235 15.1251 3.10910
419 42.8571 42.8571 14.2857 13.0453 15.2538 4.80407
420 42.8571 42.8571 28.5714 13.9095 15.5994 9.35585
421 42.8571 42.8571 57.1429 17.8384 17.1707 30.0498
422 42.8571 42.8571 71.4286 21.0979 18.4743 47.2182
423 42.8571 42.8571 85.7143 25.3271 20.1658 69.4938
424 42.8571 42.8571 100.000 30.5946 22.2724 97.2381
425 42.8571 57.1429 0.00000 17.4122 24.5013 4.67203
426 42.8571 57.1429 14.2857 17.7340 24.6300 6.36700
427 42.8571 57.1429 28.5714 18.5982 24.9756 10.9188
428 42.8571 57.1429 42.8571 20.1604 25.6004 19.1472
429 42.8571 57.1429 57.1429 22.5271 26.5469 31.6127
430 42.8571 57.1429 71.4286 25.7867 27.8505 48.7811
431 42.8571 57.1429 85.7143 30.0159 29.5419 71.0568
432 42.8571 57.1429 100.000 35.2833 31.6486 98.8010
433 42.8571 71.4286 0.00000 23.8698 37.4147 6.82458
434 42.8571 71.4286 14.2857 24.1916 37.5434 8.51955
435 42.8571 71.4286 28.5714 25.0558 37.8890 13.0713
436 42.8571 71.4286 42.8571 26.6180 38.5138 21.2997
437 42.8571 71.4286 57.1429 28.9847 39.4603 33.7653
438 42.8571 71.4286 71.4286 32.2443 40.7639 50.9336
439 42.8571 71.4286 85.7143 36.4735 42.4554 73.2093
440 42.8571 71.4286 100.000 41.7409 44.5620 100.954
441 42.8571 85.7143 0.00000 32.2485 54.1697 9.61750
442 42.8571 85.7143 14.2857 32.5703 54.2984 11.3125
443 42.8571 85.7143 28.5714 33.4345 54.6440 15.8642
444 42.8571 85.7143 42.8571 34.9967 55.2688 24.0926
