dispcalGUI/ti1/d3-e4-s33-g97-m0-f1399-caRGB.ti1
CTI1   

ORIGINATOR "Argyll targen"
KEYWORD "OFPS_PATCHES"
OFPS_PATCHES "1200"
CREATED "Sat Oct 19 13:30:01 2013"
KEYWORD "COMP_GREY_STEPS"
COMP_GREY_STEPS "97"
KEYWORD "BLACK_COLOR_PATCHES"
BLACK_COLOR_PATCHES "4"
KEYWORD "APPROX_WHITE_POINT"
APPROX_WHITE_POINT "95.045781 100.000003 108.905751"
DESCRIPTOR "Argyll Calibration Target chart information 1"
KEYWORD "ACCURATE_EXPECTED_VALUES"
ACCURATE_EXPECTED_VALUES "true"
KEYWORD "WHITE_COLOR_PATCHES"
WHITE_COLOR_PATCHES "4"
KEYWORD "SINGLE_DIM_STEPS"
SINGLE_DIM_STEPS "33"
KEYWORD "COLOR_REP"
COLOR_REP "RGB"

NUMBER_OF_FIELDS 7
BEGIN_DATA_FORMAT
SAMPLE_ID RGB_R RGB_G RGB_B XYZ_X XYZ_Y XYZ_Z
END_DATA_FORMAT

NUMBER_OF_SETS 1399
BEGIN_DATA
1 100.000000 100.000000 100.000000 95.0458000 100.000000 108.906000
2 0.00000000 93.7500000 0.00000000 16.1008000 54.4346000 6.13268000
3 0.00000000 96.8750000 0.00000000 17.3047000 58.5050000 6.59125000
4 0.00000000 100.000000 0.00000000 18.5562000 62.7360000 7.06792000
5 0.00000000 100.000000 41.4481000 21.2694000 63.8214000 21.3579000
6 28.7532000 67.3323000 29.3906000 12.7685000 28.7145000 9.84554000
7 33.7076000 69.5617000 42.9912000 16.5690000 32.1360000 18.9150000
8 36.2096000 72.6009000 100.000000 34.1747000 41.7380000 102.919000
9 43.1799000 82.9560000 100.000000 40.2214000 53.8150000 104.247000
10 0.00000000 23.1175000 32.9054000 2.37395000 3.15763000 8.88393000
11 0.00000000 23.3799000 41.8971000 3.53765000 3.67863000 14.9219000
12 0.00000000 36.7527000 61.1996000 8.44619000 9.49944000 34.4516000
13 0.00000000 20.3816000 53.8616000 5.38880000 3.82944000 25.6380000
14 27.1531000 19.9979000 58.2156000 9.54506000 5.80260000 30.5232000
15 67.4841000 79.5482000 74.0244000 45.2162000 54.3367000 56.5739000
16 83.5579000 100.000000 79.6899000 68.8281000 87.3367000 69.0602000
17 91.8174000 100.000000 92.0508000 82.0402000 93.6563000 91.9339000
18 28.1250000 0.00000000 0.00000000 3.54292000 1.82681000 0.16611300
19 31.2500000 0.00000000 0.00000000 4.46675000 2.30316000 0.20942700
20 100.000000 0.00000000 34.6634000 59.4983000 30.4670000 12.3487000
21 100.000000 39.0269000 44.4720000 63.1779000 38.9236000 20.2799000
22 43.7500000 0.00000000 0.00000000 9.36180000 4.82716000 0.43893600
23 46.8750000 0.00000000 0.00000000 10.8957000 5.61807000 0.51085400
24 50.0000000 0.00000000 0.00000000 12.5573000 6.47483000 0.58875900
25 53.1250000 0.00000000 0.00000000 14.3483000 7.39829000 0.67273000
26 56.2500000 0.00000000 0.00000000 16.2702000 8.38927000 0.76284000
27 59.3750000 0.00000000 0.00000000 18.3245000 9.44853000 0.85915900
28 62.5000000 0.00000000 0.00000000 20.5127000 10.5768000 0.96175400
29 65.6250000 0.00000000 0.00000000 22.8361000 11.7748000 1.07069000
30 68.7500000 0.00000000 0.00000000 25.2961000 13.0433000 1.18603000
31 71.8750000 0.00000000 0.00000000 27.8940000 14.3828000 1.30783000
32 75.0000000 0.00000000 0.00000000 30.6309000 15.7940000 1.43615000
33 78.1250000 0.00000000 0.00000000 33.5080000 17.2775000 1.57105000
34 81.2500000 0.00000000 0.00000000 36.5266000 18.8339000 1.71258000
35 84.3750000 0.00000000 0.00000000 39.6876000 20.4638000 1.86079000
36 87.5000000 0.00000000 0.00000000 42.9923000 22.1678000 2.01573000
37 90.6250000 0.00000000 0.00000000 46.4415000 23.9463000 2.17745000
38 100.000000 0.00000000 0.00000000 57.6670000 29.7344000 2.70376000
39 100.000000 0.00000000 73.2809000 67.1679000 33.5351000 52.7428000
40 84.0505000 0.00000000 70.5972000 48.1052000 23.7924000 47.9422000
41 100.000000 39.6164000 70.0799000 68.7008000 41.3671000 48.9837000
42 17.7559000 48.9523000 0.00000000 5.14528000 13.7038000 1.52945000
43 22.8339000 60.9703000 0.00000000 8.49082000 22.2874000 2.48582000
44 21.0223000 72.2046000 0.00000000 10.9344000 31.6159000 3.54096000
45 23.2374000 87.1779000 0.00000000 16.0506000 47.5941000 5.33592000
46 27.1834000 100.000000 21.5810000 22.4893000 64.6894000 10.6238000
47 100.000000 100.000000 23.0307000 76.9683000 92.7685000 13.6963000
48 100.000000 100.000000 68.4953000 84.4127000 95.7465000 52.9042000
49 100.000000 100.000000 90.4506000 91.3177000 98.5087000 89.2708000
50 27.0410000 29.1661000 33.7536000 6.21170000 6.54160000 9.71968000
51 27.1124000 36.0678000 48.6850000 9.10399000 9.89237000 21.2617000
52 34.5035000 42.7311000 51.3500000 12.7601000 14.2725000 24.2395000
53 56.8112000 100.000000 60.8485000 41.4979000 73.8356000 41.0937000
54 0.00000000 40.6250000 0.00000000 2.55940000 8.65302000 0.97486100
55 0.00000000 43.7500000 0.00000000 3.01245000 10.1847000 1.14742000
56 0.00000000 50.0000000 0.00000000 4.04071000 13.6611000 1.53908000
57 0.00000000 53.1250000 0.00000000 4.61700000 15.6095000 1.75859000
58 0.00000000 56.2500000 0.00000000 5.23543000 17.7003000 1.99414000
59 0.00000000 59.3750000 0.00000000 5.89648000 19.9352000 2.24593000
60 0.00000000 62.5000000 0.00000000 6.60060000 22.3158000 2.51413000
61 0.00000000 65.6250000 0.00000000 7.34824000 24.8435000 2.79890000
62 0.00000000 68.7500000 0.00000000 8.13982000 27.5197000 3.10041000
63 0.00000000 71.8750000 0.00000000 8.97576000 30.3459000 3.41881000
64 0.00000000 75.0000000 0.00000000 9.85645000 33.3234000 3.75426000
65 0.00000000 78.1250000 0.00000000 10.7823000 36.4534000 4.10689000
66 0.00000000 81.2500000 0.00000000 11.7536000 39.7373000 4.47686000
67 0.00000000 84.3750000 0.00000000 12.7707000 43.1762000 4.86429000
68 0.00000000 87.5000000 0.00000000 13.8341000 46.7713000 5.26932000
69 0.00000000 90.6250000 0.00000000 14.9440000 50.5238000 5.69207000
70 0.00000000 46.8750000 0.00000000 3.50603000 11.8534000 1.33542000
71 0.00000000 46.9908000 29.1576000 4.77696000 12.4187000 7.93587000
72 34.1007000 52.7690000 46.8002000 13.5053000 19.5887000 20.6514000
73 0.00000000 12.8979000 9.74581000 0.31769700 0.73896500 0.67031000
74 5.20833000 5.20833000 5.20833000 0.14311100 0.15057000 0.16398000
75 0.00000000 0.00000000 9.37500000 0.10323300 0.04129650 0.54370400
76 1.04167000 1.04167000 1.04167000 0.00415417 0.00437071 0.00475995
77 0.00000000 0.00000000 3.12500000 0.00921566 0.00368654 0.04853650
78 0.00000000 0.00000000 12.5000000 0.19435200 0.07774650 1.02360000
79 9.69232000 0.00000000 15.8490000 0.66787300 0.30650500 1.74120000
80 0.00000000 10.2075000 27.7866000 1.24875000 0.86531600 5.97728000
81 0.00000000 0.00000000 28.1250000 1.15642000 0.46260200 6.09056000
82 0.00000000 0.00000000 31.2500000 1.45796000 0.58322700 7.67870000
83 0.00000000 0.00000000 34.3750000 1.79795000 0.71923300 9.46933000
84 0.00000000 0.00000000 37.5000000 2.17712000 0.87091300 11.4663000
85 0.00000000 0.00000000 40.6250000 2.59616000 1.03854000 13.6733000
86 0.00000000 0.00000000 43.7500000 3.05572000 1.22238000 16.0937000
87 0.00000000 0.00000000 46.8750000 3.55638000 1.42266000 18.7306000
88 0.00000000 0.00000000 50.0000000 4.09874000 1.63962000 21.5870000
89 0.00000000 0.00000000 53.1250000 4.68331000 1.87346000 24.6658000
90 0.00000000 0.00000000 56.2500000 5.31062000 2.12441000 27.9697000
91 0.00000000 0.00000000 59.3750000 5.98116000 2.39264000 31.5012000
92 0.00000000 0.00000000 62.5000000 6.69539000 2.67836000 35.2629000
93 0.00000000 0.00000000 65.6250000 7.45377000 2.98173000 39.2571000
94 0.00000000 0.00000000 68.7500000 8.25672000 3.30294000 43.4861000
95 0.00000000 0.00000000 71.8750000 9.10467000 3.64214000 47.9520000
96 0.00000000 0.00000000 75.0000000 9.99800000 3.99950000 52.6569000
97 0.00000000 0.00000000 78.1250000 10.9371000 4.37517000 57.6030000
98 0.00000000 0.00000000 81.2500000 11.9224000 4.76930000 62.7921000
99 0.00000000 0.00000000 84.3750000 12.9541000 5.18204000 68.2262000
100 0.00000000 0.00000000 87.5000000 14.0328000 5.61353000 73.9071000
101 0.00000000 0.00000000 90.6250000 15.1586000 6.06390000 79.8366000
102 0.00000000 0.00000000 93.7500000 16.3320000 6.53329000 86.0165000
103 0.00000000 0.00000000 96.8750000 17.5532000 7.02182000 92.4484000
104 0.00000000 19.6928000 100.000000 19.3433000 9.28974000 99.3324000
105 0.00000000 91.4536000 100.000000 34.0688000 59.0749000 104.941000
106 0.00000000 100.000000 100.000000 37.3788000 70.2656000 106.202000
107 9.37500000 9.37500000 9.37500000 0.52128200 0.54845400 0.59729800
108 0.00000000 0.00000000 6.25000000 0.04232110 0.01692970 0.22289500
109 7.29167000 7.29167000 7.29167000 0.29994400 0.31557800 0.34368300
110 0.00000000 6.25000000 0.00000000 0.04172200 0.14105700 0.01589160
111 0.00000000 12.5000000 0.00000000 0.19160000 0.64777500 0.07297920
112 3.12500000 3.12500000 3.12500000 0.04653490 0.04896050 0.05332080
113 0.00000000 9.37500000 0.00000000 0.10177200 0.34407800 0.03876430
114 2.08333000 2.08333000 2.08333000 0.01907720 0.02007160 0.02185920
115 4.16667000 4.16667000 4.16667000 0.08760850 0.09217510 0.10038400
116 9.37500000 0.00000000 0.00000000 0.31627700 0.16307900 0.01482890
117 6.25000000 6.25000000 6.25000000 0.21370200 0.22484200 0.24486500
118 12.5000000 12.5000000 12.5000000 0.98138700 1.03254000 1.12450000
119 13.5417000 13.5417000 13.5417000 1.17028000 1.23128000 1.34094000
120 14.5833000 14.5833000 14.5833000 1.37743000 1.44923000 1.57830000
121 15.6250000 15.6250000 15.6250000 1.60312000 1.68668000 1.83690000
122 17.7083000 17.7083000 17.7083000 2.11111000 2.22115000 2.41896000
123 18.7500000 18.7500000 18.7500000 2.39389000 2.51867000 2.74297000
124 20.8333000 20.8333000 20.8333000 3.01810000 3.17542000 3.45822000
125 21.8750000 21.8750000 21.8750000 3.35996000 3.53510000 3.84992000
126 22.9167000 22.9167000 22.9167000 3.72191000 3.91591000 4.26465000
127 23.9583000 23.9583000 23.9583000 4.10414000 4.31807000 4.70262000
128 25.0000000 25.0000000 25.0000000 4.50683000 4.74175000 5.16404000
129 26.0417000 26.0417000 26.0417000 4.93016000 5.18714000 5.64909000
130 27.0833000 27.0833000 27.0833000 5.37429000 5.65442000 6.15799000
131 28.1250000 28.1250000 28.1250000 5.83938000 6.14376000 6.69090000
132 29.1667000 29.1667000 29.1667000 6.32560000 6.65532000 7.24803000
133 30.2083000 30.2083000 30.2083000 6.83310000 7.18927000 7.82953000
134 31.2500000 31.2500000 31.2500000 7.36203000 7.74577000 8.43559000
135 32.2917000 32.2917000 32.2917000 7.91253000 8.32497000 9.06637000
136 33.3333000 33.3333000 33.3333000 8.48475000 8.92701000 9.72203000
137 34.3750000 34.3750000 34.3750000 9.07881000 9.55204000 10.4027000
138 35.4167000 35.4167000 35.4167000 9.69487000 10.2002000 11.1086000
139 36.4583000 36.4583000 36.4583000 10.3330000 10.8716000 11.8398000
140 37.5000000 37.5000000 37.5000000 10.9935000 11.5665000 12.5966000
141 38.5417000 38.5417000 38.5417000 11.6763000 12.2849000 13.3789000
142 39.5833000 39.5833000 39.5833000 12.3815000 13.0269000 14.1871000
143 40.6250000 40.6250000 40.6250000 13.1094000 13.7928000 15.0211000
144 41.6667000 41.6667000 41.6667000 13.8601000 14.5825000 15.8812000
145 42.7083000 42.7083000 42.7083000 14.6335000 15.3963000 16.7675000
146 43.7500000 43.7500000 43.7500000 15.4300000 16.2342000 17.6800000
147 44.7917000 44.7917000 44.7917000 16.2495000 17.0965000 18.6190000
148 45.8333000 45.8333000 45.8333000 17.0922000 17.9831000 19.5846000
149 46.8750000 46.8750000 46.8750000 17.9581000 18.8942000 20.5768000
150 47.9167000 47.9167000 47.9167000 18.8475000 19.8299000 21.5959000
151 48.9583000 48.9583000 48.9583000 19.7603000 20.7903000 22.6418000
152 50.0000000 50.0000000 50.0000000 20.6967000 21.7756000 23.7148000
153 51.0417000 51.0417000 51.0417000 21.6569000 22.7857000 24.8150000
154 52.0833000 52.0833000 52.0833000 22.6408000 23.8209000 25.9424000
155 53.1250000 53.1250000 53.1250000 23.6486000 24.8813000 27.0971000
156 54.1667000 54.1667000 54.1667000 24.6804000 25.9668000 28.2794000
157 55.2083000 55.2083000 55.2083000 25.7362000 27.0777000 29.4892000
158 56.2500000 56.2500000 56.2500000 26.8162000 28.2140000 30.7267000
159 57.2917000 57.2917000 57.2917000 27.9205000 29.3758000 31.9920000
160 58.3333000 58.3333000 58.3333000 29.0491000 30.5633000 33.2852000
161 59.3750000 59.3750000 59.3750000 30.2021000 31.7764000 34.6063000
162 60.4167000 60.4167000 60.4167000 31.3797000 33.0153000 35.9556000
163 61.4583000 61.4583000 61.4583000 32.5818000 34.2802000 37.3331000
164 62.5000000 62.5000000 62.5000000 33.8087000 35.5710000 38.7388000
165 63.5417000 63.5417000 63.5417000 35.0603000 36.8878000 40.1729000
166 64.5833000 64.5833000 64.5833000 36.3368000 38.2308000 41.6355000
167 65.6250000 65.6250000 65.6250000 37.6381000 39.6000000 43.1267000
168 66.6667000 66.6667000 66.6667000 38.9645000 40.9956000 44.6465000
169 67.7083000 67.7083000 67.7083000 40.3160000 42.4175000 46.1951000
170 68.7500000 68.7500000 68.7500000 41.6927000 43.8659000 47.7725000
171 69.7917000 69.7917000 69.7917000 43.0946000 45.3409000 49.3788000
172 70.8333000 70.8333000 70.8333000 44.5218000 46.8425000 51.0142000
173 71.8750000 71.8750000 71.8750000 45.9744000 48.3708000 52.6786000
174 72.9167000 72.9167000 72.9167000 47.4525000 49.9259000 54.3722000
175 73.9583000 73.9583000 73.9583000 48.9561000 51.5079000 56.0951000
176 75.0000000 75.0000000 75.0000000 50.4853000 53.1169000 57.8473000
177 76.0417000 76.0417000 76.0417000 52.0402000 54.7528000 59.6290000
178 77.0833000 77.0833000 77.0833000 53.6209000 56.4159000 61.4401000
179 78.1250000 78.1250000 78.1250000 55.2274000 58.1061000 63.2809000
180 79.1667000 79.1667000 79.1667000 56.8598000 59.8236000 65.1513000
181 80.2083000 80.2083000 80.2083000 58.5181000 61.5684000 67.0515000
182 81.2500000 81.2500000 81.2500000 60.2025000 63.3406000 68.9815000
183 82.2917000 82.2917000 82.2917000 61.9130000 65.1402000 70.9414000
184 83.3333000 83.3333000 83.3333000 63.6496000 66.9674000 72.9313000
185 84.3750000 84.3750000 84.3750000 65.4125000 68.8221000 74.9512000
186 85.4167000 85.4167000 85.4167000 67.2017000 70.7045000 77.0013000
187 86.4583000 86.4583000 86.4583000 69.0172000 72.6147000 79.0816000
188 87.5000000 87.5000000 87.5000000 70.8591000 74.5526000 81.1921000
189 88.5417000 88.5417000 88.5417000 72.7276000 76.5185000 83.3330000
190 89.5833000 89.5833000 89.5833000 74.6225000 78.5122000 85.5043000
191 90.6250000 90.6250000 90.6250000 76.5441000 80.5340000 87.7061000
192 91.6667000 91.6667000 91.6667000 78.4924000 82.5838000 89.9385000
193 92.7083000 92.7083000 92.7083000 80.4674000 84.6617000 92.2015000
194 93.7500000 93.7500000 93.7500000 82.4692000 86.7678000 94.4952000
195 94.7917000 94.7917000 94.7917000 84.4978000 88.9022000 96.8196000
196 19.7917000 19.7917000 19.7917000 2.69615000 2.83668000 3.08931000
197 16.6667000 16.6667000 16.6667000 1.84760000 1.94391000 2.11703000
198 15.9135000 21.3249000 12.1329000 1.81486000 2.69190000 1.24238000
199 100.000000 37.2338000 18.2546000 60.2269000 37.0568000 5.86265000
200 100.000000 50.1870000 23.4710000 62.5179000 43.8189000 8.34703000
201 37.5000000 0.00000000 0.00000000 6.67005000 3.43923000 0.31273000
202 93.7500000 0.00000000 0.00000000 50.0364000 25.7999000 2.34600000
203 96.8750000 0.00000000 0.00000000 53.7779000 27.7291000 2.52142000
204 100.000000 46.9505000 0.00000000 61.1854000 41.6298000 4.04392000
205 100.000000 86.6617000 0.00000000 71.2113000 75.5259000 7.86269000
206 57.9697000 89.4484000 0.00000000 31.9048000 58.0561000 6.34589000
207 86.8959000 91.9355000 0.00000000 57.7655000 73.9770000 7.85990000
208 100.000000 100.000000 0.00000000 76.2231000 92.4704000 9.77168000
209 95.8333000 95.8333000 95.8333000 86.5533000 91.0649000 99.1749000
210 96.8750000 96.8750000 96.8750000 88.6358000 93.2560000 101.561000
211 29.7921000 14.5505000 0.00000000 4.28883000 2.97813000 0.29046300
212 73.0982000 57.5630000 37.5333000 36.6380000 34.4209000 14.9440000
213 66.4530000 100.000000 38.9982000 44.4038000 75.7893000 20.6666000
214 65.8451000 100.000000 54.2304000 46.4613000 76.5581000 33.9551000
215 77.2915000 100.000000 55.9927000 56.5404000 81.7138000 36.2914000
216 80.0987000 100.000000 94.5125000 70.5797000 87.6387000 96.2901000
217 35.6434000 49.6287000 49.1787000 13.8924000 18.0958000 22.6086000
218 39.7242000 58.5892000 66.2890000 20.9180000 26.3119000 42.6720000
219 42.8260000 100.000000 66.5201000 35.1678000 70.4137000 47.9310000
220 42.9510000 100.000000 80.2107000 39.1356000 72.0076000 68.5287000
221 49.1359000 100.000000 90.2052000 45.6458000 74.9696000 86.6601000
222 53.9627000 100.000000 100.000000 52.2294000 77.9229000 106.898000
223 0.00000000 21.8750000 0.00000000 0.65597800 2.21778000 0.24985800
224 0.00000000 25.0000000 0.00000000 0.87988600 2.97478000 0.33514300
225 0.00000000 28.1250000 0.00000000 1.14004000 3.85435000 0.43423600
226 0.00000000 31.2500000 0.00000000 1.43732000 4.85939000 0.54746500
227 68.1826000 33.4483000 25.2499000 27.4206000 18.8156000 6.60501000
228 40.6250000 0.00000000 0.00000000 7.95387000 4.10119000 0.37292300
229 41.5917000 0.00000000 11.8580000 8.54913000 4.38812000 1.30424000
230 42.5543000 23.4120000 64.3186000 16.7013000 9.96950000 38.2621000
231 50.9813000 59.6114000 91.7906000 34.6446000 33.1045000 84.9924000
232 67.0978000 77.4653000 100.000000 53.3841000 55.6733000 104.289000
233 76.7344000 87.2495000 100.000000 64.7801000 70.6154000 105.880000
234 44.0992000 27.6943000 22.8585000 11.3619000 8.93124000 4.72680000
235 53.2890000 33.3003000 29.6835000 17.4008000 13.5577000 8.16444000
236 90.4156000 32.7659000 65.8535000 55.3120000 32.2223000 42.3323000
237 22.0941000 11.6815000 0.00000000 2.24884000 1.63257000 0.16057900
238 21.8750000 0.00000000 0.00000000 2.03858000 1.05114000 0.09558060
239 25.0000000 0.00000000 0.00000000 2.73442000 1.40993000 0.12820600
240 27.6479000 36.1285000 21.6407000 6.03935000 8.70475000 4.33564000
241 49.5195000 60.0597000 45.0315000 21.5965000 28.0856000 20.0283000
242 74.7129000 59.7748000 61.6513000 42.8548000 38.4920000 37.9218000
243 100.000000 70.4727000 83.3916000 78.8865000 63.8436000 72.4671000
244 12.5000000 0.00000000 0.00000000 0.59543600 0.30702000 0.02791750
245 10.4822000 9.41063000 0.00000000 0.50691100 0.55541900 0.05804430
246 0.00000000 0.00000000 0.00000000 0.00000000 0.00000000 0.00000000
247 6.25000000 0.00000000 0.00000000 0.12965900 0.06685530 0.00607918
248 0.00000000 3.12500000 0.00000000 0.00908519 0.03071590 0.00346049
249 0.00000000 9.15846000 11.3532000 0.25395600 0.38975900 0.86518700
250 0.00000000 0.00000000 100.000000 18.8226000 7.52962000 99.1341000
251 26.8937000 0.00000000 100.000000 22.0334000 9.18515000 99.2846000
252 48.1425000 0.00000000 100.000000 30.3768000 13.4872000 99.6758000
253 11.4583000 11.4583000 11.4583000 0.81046700 0.85271200 0.92865200
254 15.1526000 36.6782000 0.00000000 2.95337000 7.38000000 0.82125400
255 24.1008000 41.0519000 24.8584000 6.02313000 10.5076000 5.75813000
256 33.3248000 57.1160000 22.4127000 11.2613000 21.2388000 6.00023000
257 69.0500000 59.5276000 100.000000 50.2920000 40.7465000 102.590000
258 79.4365000 68.4264000 100.000000 61.6361000 52.6871000 103.832000
259 80.0121000 81.5883000 100.000000 65.9980000 65.8404000 105.308000
260 89.8992000 87.9073000 100.000000 78.4262000 78.3077000 106.597000
261 0.00000000 29.2506000 22.8373000 1.97427000 4.49435000 4.32585000
262 0.00000000 56.2753000 27.2321000 6.31783000 18.1488000 7.66950000
263 0.00000000 35.5571000 17.4345000 2.31331000 6.61676000 2.85496000
264 0.00000000 71.3866000 34.5263000 10.6576000 30.6204000 12.9291000
265 0.00000000 86.2630000 38.3232000 15.6912000 46.2430000 17.1341000
266 89.0332000 100.000000 50.7254000 67.4532000 87.4594000 31.4439000
267 79.2834000 37.9093000 25.2708000 37.7225000 25.6432000 7.27338000
268 86.4997000 40.5087000 60.3232000 50.6554000 32.6904000 35.5523000
269 39.1073000 0.00000000 72.6706000 16.6427000 7.50315000 49.4700000
270 50.9751000 0.00000000 86.2447000 26.6960000 12.1937000 72.2096000
271 71.0329000 0.00000000 85.1853000 40.4096000 19.3069000 70.9498000
272 100.000000 0.00000000 85.8650000 71.1295000 35.1198000 73.6076000
273 100.000000 0.00000000 100.000000 76.4896000 37.2640000 101.838000
274 100.000000 23.9243000 100.000000 77.2884000 39.9646000 102.142000
275 22.6474000 15.8584000 22.9825000 3.26534000 2.52445000 4.13290000
276 29.6065000 19.7853000 20.9934000 5.10021000 4.06665000 3.58766000
277 38.5645000 100.000000 37.4115000 27.8156000 67.2600000 18.8074000
278 0.00000000 34.3750000 0.00000000 1.77249000 5.99257000 0.67513000
279 0.00000000 37.5000000 0.00000000 2.14630000 7.25635000 0.81751000
280 0.00000000 73.7407000 50.5962000 13.7031000 33.7882000 25.7742000
281 0.00000000 100.000000 86.5640000 32.2609000 68.2183000 79.2474000
282 0.00000000 45.8370000 45.7789000 6.71361000 12.6344000 19.0521000
283 0.00000000 57.2254000 55.1714000 10.5264000 20.4182000 28.8747000
284 0.00000000 58.0676000 73.9494000 15.3073000 22.8599000 53.1870000
285 53.1218000 72.0757000 81.9622000 35.5307000 42.7916000 68.1213000
286 69.0215000 100.000000 80.9791000 55.9077000 80.6272000 70.5969000
287 33.0501000 67.7696000 59.1873000 18.8786000 31.6451000 34.5235000
288 38.1866000 75.6942000 76.0415000 27.3056000 41.7074000 58.4350000
289 51.0543000 75.8773000 100.000000 42.0814000 48.4951000 103.602000
290 100.000000 76.7445000 100.000000 86.8573000 72.3158000 105.787000
291 100.000000 86.1398000 100.000000 89.8552000 82.4513000 106.929000
292 56.4856000 0.00000000 14.5307000 16.6911000 8.57501000 2.19519000
293 67.3652000 0.00000000 26.3366000 25.1899000 12.8728000 6.40531000
294 85.0755000 0.00000000 26.7827000 41.4544000 21.2548000 7.36447000
295 84.1007000 29.7014000 29.2672000 41.9519000 25.1682000 8.98486000
296 34.8965000 73.8117000 0.00000000 15.2101000 35.1091000 3.89164000
297 41.9010000 100.000000 0.00000000 27.0698000 67.1258000 7.46709000
298 45.1306000 100.000000 21.7885000 29.2396000 68.1684000 11.0120000
299 58.0055000 100.000000 22.1505000 36.6479000 71.9854000 11.4864000
300 88.6221000 100.000000 34.3068000 64.5604000 86.2499000 18.5690000
301 100.000000 100.000000 39.4786000 78.6609000 93.4456000 22.6108000
302 75.8006000 71.3854000 26.1144000 41.1788000 46.4532000 10.0118000
303 100.000000 75.9405000 27.9877000 68.9413000 64.4414000 12.5877000
304 58.3741000 30.4715000 0.00000000 19.0117000 13.6989000 1.34555000
305 72.9779000 35.3935000 0.00000000 30.7340000 21.2626000 2.07228000
306 86.1492000 59.3925000 0.00000000 47.4464000 41.3703000 4.19531000
307 100.000000 59.9298000 0.00000000 63.6853000 50.0816000 4.99610000
308 34.3750000 0.00000000 0.00000000 5.50837000 2.84024000 0.25826500
309 35.2872000 0.00000000 15.0719000 6.12824000 3.12596000 1.81825000
310 35.1432000 21.7176000 13.5618000 6.66089000 5.25756000 1.74167000
311 53.3270000 55.4088000 26.8083000 20.5740000 25.0000000 8.08854000
312 61.5103000 66.3670000 35.3760000 29.2524000 36.4434000 13.8839000
313 68.9861000 85.2035000 35.9715000 40.5224000 58.0508000 16.6285000
314 23.8672000 32.1137000 0.00000000 3.99544000 6.43288000 0.69706800
315 73.8125000 72.6436000 0.00000000 38.7626000 46.3134000 4.88634000
316 74.5361000 83.5391000 0.00000000 42.7099000 57.8211000 6.17563000
317 10.4167000 10.4167000 10.4167000 0.65720900 0.69146600 0.75304600
318 0.00000000 0.00000000 15.6250000 0.31747900 0.12700100 1.67208000
319 0.00000000 0.00000000 18.7500000 0.47408000 0.18964600 2.49686000
320 0.00000000 100.000000 23.3591000 19.3249000 63.0435000 11.1167000
321 22.9274000 100.000000 48.3344000 24.6211000 65.4234000 27.2109000
322 23.7059000 100.000000 75.6710000 31.1847000 68.0690000 60.8806000
323 42.4722000 0.00000000 25.7849000 9.72627000 4.90466000 5.44262000
324 57.0084000 0.00000000 32.0720000 18.3001000 9.25754000 8.91557000
325 83.7812000 0.00000000 37.0393000 41.1947000 20.9960000 12.9909000
326 83.2708000 0.00000000 48.2514000 42.3444000 21.3956000 21.7691000
327 68.5898000 26.1514000 87.2684000 40.0894000 21.8418000 75.0275000
328 74.2502000 38.0342000 100.000000 50.9982000 30.4641000 101.382000
329 0.00000000 0.00000000 21.8750000 0.66539900 0.26617900 3.50449000
