dispcalGUI/ti1/d3-e4-s25-g73-m0-f679-csRGB.ti1
CTI1   

DESCRIPTOR "Argyll Calibration Target chart information 1"
ORIGINATOR "Argyll targen"
CREATED "Wed Aug 27 18:31:54 2014"
KEYWORD "APPROX_WHITE_POINT"
APPROX_WHITE_POINT "95.045781 100.000003 108.905751"
KEYWORD "COLOR_REP"
COLOR_REP "RGB"
KEYWORD "ACCURATE_EXPECTED_VALUES"
ACCURATE_EXPECTED_VALUES "true"
KEYWORD "DARK_REGION_EMPHASIS"
DARK_REGION_EMPHASIS "1.600000"
KEYWORD "WHITE_COLOR_PATCHES"
WHITE_COLOR_PATCHES "4"
KEYWORD "BLACK_COLOR_PATCHES"
BLACK_COLOR_PATCHES "4"
KEYWORD "SINGLE_DIM_STEPS"
SINGLE_DIM_STEPS "25"
KEYWORD "COMP_GREY_STEPS"
COMP_GREY_STEPS "73"
KEYWORD "OFPS_PATCHES"
OFPS_PATCHES "528"

NUMBER_OF_FIELDS 7
BEGIN_DATA_FORMAT
SAMPLE_ID RGB_R RGB_G RGB_B XYZ_X XYZ_Y XYZ_Z 
END_DATA_FORMAT

NUMBER_OF_SETS 679
BEGIN_DATA
1 100.000 100.000 100.000 95.0458 100.000 108.906 
2 17.5147 19.7757 26.0926 3.22550 3.26798 5.69857 
3 38.4697 22.5467 33.3614 8.17750 6.23482 9.38185 
4 45.4675 20.6852 79.8761 19.3161 10.5764 57.9547 
5 52.3624 23.9384 100.000 29.4750 15.5912 96.0687 
6 29.8611 26.7323 100.000 23.1180 12.9165 95.8873 
7 46.9925 55.7088 100.000 35.4514 30.5624 98.6432 
8 84.0406 65.7270 100.000 59.7966 49.4213 101.001 
9 100.000 79.3275 100.000 80.4737 70.8561 104.049 
10 0.00000 100.000 25.8641 36.7406 71.9095 17.0899 
11 31.0940 100.000 28.0800 40.1639 73.6544 18.1634 
12 53.4131 100.000 31.5629 47.4107 77.3555 20.1157 
13 69.7792 100.000 47.2416 57.5221 82.3435 30.7808 
14 0.00000 33.5590 21.3653 3.97093 6.85827 4.66434 
15 0.00000 46.5559 22.8499 7.33363 13.4345 6.24497 
16 72.1218 48.8710 38.9751 29.3013 25.6605 15.3117 
17 21.4286 0.00000 0.00000 1.55598 0.802328 0.0729154 
18 24.5098 0.00000 0.00000 2.01827 1.04071 0.0945793 
19 27.7778 0.00000 0.00000 2.58615 1.33353 0.121191 
20 31.2500 0.00000 0.00000 3.28202 1.69235 0.153800 
21 34.9462 0.00000 0.00000 4.13045 2.12984 0.193559 
22 38.8889 0.00000 0.00000 5.16359 2.66257 0.241974 
23 43.1034 0.00000 0.00000 6.41936 3.31009 0.300821 
24 47.6190 0.00000 0.00000 7.94502 4.09679 0.372316 
25 52.4691 0.00000 0.00000 9.79871 5.05263 0.459182 
26 57.6923 0.00000 0.00000 12.0527 6.21490 0.564809 
27 60.5511 0.00000 15.0021 13.7573 7.05291 2.49203 
28 79.9552 100.000 100.000 78.6767 91.5594 108.139 
29 100.000 100.000 100.000 95.0458 100.000 108.906 
30 83.3333 0.00000 0.00000 27.2947 14.0743 1.27907 
31 91.2698 0.00000 0.00000 33.5175 17.2830 1.57068 
32 100.000 0.00000 33.1629 42.8609 21.9132 10.4770 
33 100.000 42.2499 41.9071 49.2199 32.9926 17.6485 
34 100.000 43.1042 70.7328 55.0802 35.7072 47.3699 
35 100.000 57.8074 83.8546 63.8506 47.1042 69.2356 
36 100.000 73.7158 85.0185 71.7128 62.2171 73.7414 
37 80.1885 76.8302 69.2771 52.6547 55.5094 49.3570 
38 96.9945 96.9945 96.9945 88.6769 93.2991 101.608 
39 100.000 100.000 100.000 95.0458 100.000 108.906 
40 0.00000 18.5185 0.00000 1.02526 2.05051 0.341727 
41 0.00000 21.4286 0.00000 1.34922 2.69841 0.449704 
42 0.00000 24.5098 0.00000 1.75009 3.50014 0.583315 
43 0.00000 27.7778 0.00000 2.24250 4.48496 0.747441 
44 0.00000 31.2500 0.00000 2.84591 5.69175 0.948559 
45 0.00000 34.9462 0.00000 3.58160 7.16313 1.19377 
46 0.00000 38.8889 0.00000 4.47746 8.95482 1.49237 
47 0.00000 43.1034 0.00000 5.56636 11.1326 1.85530 
48 0.00000 47.6190 0.00000 6.88929 13.7784 2.29625 
49 0.00000 52.4691 0.00000 8.49667 16.9932 2.83199 
50 0.00000 57.6923 0.00000 10.4512 20.9021 3.48344 
51 0.00000 63.3333 0.00000 12.8319 25.6635 4.27695 
52 0.00000 69.4444 0.00000 15.7383 31.4762 5.24567 
53 0.00000 100.000 0.00000 35.7587 71.5167 11.9186 
54 85.9678 100.000 31.8987 66.5345 87.2128 21.1796 
55 86.1232 100.000 56.3701 70.1703 88.6809 39.7030 
56 100.000 100.000 88.6439 90.7292 98.2735 86.1723 
57 0.00000 0.00000 1.93798 0.0270248 0.0108092 0.142329 
58 0.00000 0.00000 3.96825 0.0553496 0.0221384 0.291504 
59 0.00000 0.00000 6.09756 0.0902350 0.0360917 0.475232 
60 0.00000 0.00000 8.33333 0.137702 0.0550772 0.725220 
61 0.00000 0.00000 10.6838 0.200561 0.0802192 1.05627 
62 0.00000 0.00000 13.1579 0.282253 0.112894 1.48651 
63 0.00000 0.00000 15.7658 0.386462 0.154575 2.03534 
64 0.00000 0.00000 18.5185 0.517484 0.206980 2.72538 
65 0.00000 0.00000 21.4286 0.680995 0.272380 3.58653 
66 0.00000 0.00000 24.5098 0.883325 0.353307 4.65212 
67 0.00000 0.00000 27.7778 1.13186 0.452716 5.96107 
68 0.00000 0.00000 31.2500 1.43642 0.574531 7.56505 
69 0.00000 0.00000 34.9462 1.80775 0.723053 9.52069 
70 0.00000 0.00000 38.8889 2.25992 0.903908 11.9021 
71 0.00000 0.00000 43.1034 2.80952 1.12374 14.7966 
72 0.00000 0.00000 47.6190 3.47725 1.39081 18.3133 
73 0.00000 0.00000 52.4691 4.28854 1.71531 22.5860 
74 0.00000 0.00000 57.6923 5.27504 2.10988 27.7815 
75 0.00000 0.00000 63.3333 6.47667 2.59050 34.1100 
76 0.00000 0.00000 69.4444 7.94361 3.17724 41.8358 
77 0.00000 0.00000 76.0870 9.73929 3.89547 51.2929 
78 0.00000 0.00000 83.3333 11.9459 4.77806 62.9143 
79 0.00000 0.00000 91.2698 14.6694 5.86738 77.2578 
80 0.00000 23.3051 100.000 19.6347 10.3912 95.5833 
81 0.636132 0.636132 0.636132 0.0471903 0.0496501 0.0540718 
82 1.28205 1.28205 1.28205 0.0936563 0.0985381 0.107314 
83 1.93798 1.93798 1.93798 0.142315 0.149734 0.163068 
84 2.60417 2.60417 2.60417 0.191735 0.201729 0.219695 
85 3.28084 3.28084 3.28084 0.241933 0.254543 0.277212 
86 3.96825 3.96825 3.96825 0.291477 0.306670 0.333981 
87 4.66667 4.66667 4.66667 0.346188 0.364233 0.396671 
88 5.37634 5.37634 5.37634 0.407536 0.428779 0.466964 
89 6.09756 6.09756 6.09756 0.475187 0.499956 0.544481 
90 6.83060 6.83060 6.83060 0.549868 0.578530 0.630052 
91 7.57576 7.57576 7.57576 0.633784 0.666819 0.726205 
92 8.33333 8.33333 8.33333 0.725153 0.762951 0.830898 
93 9.10364 9.10364 9.10364 0.825474 0.868501 0.945848 
94 9.88701 9.88701 9.88701 0.936086 0.984879 1.07259 
95 10.6838 10.6838 10.6838 1.05618 1.11123 1.21019 
96 11.4943 11.4943 11.4943 1.18845 1.25040 1.36176 
97 12.3188 12.3188 12.3188 1.33176 1.40118 1.52596 
98 13.1579 13.1579 13.1579 1.48637 1.56385 1.70312 
99 14.0118 14.0118 14.0118 1.65542 1.74171 1.89682 
100 14.8810 14.8810 14.8810 1.83790 1.93370 2.10591 
101 15.7658 15.7658 15.7658 2.03515 2.14123 2.33193 
102 16.6667 16.6667 16.6667 2.24797 2.36515 2.57578 
103 17.5841 17.5841 17.5841 2.47848 2.60767 2.83990 
104 18.5185 18.5185 18.5185 2.72512 2.86717 3.12251 
105 19.4704 19.4704 19.4704 2.99147 3.14739 3.42769 
106 20.4403 20.4403 20.4403 3.27795 3.44881 3.75596 
107 21.4286 21.4286 21.4286 3.58619 3.77312 4.10914 
108 22.4359 22.4359 22.4359 3.91719 4.12137 4.48841 
109 23.4628 23.4628 23.4628 4.27054 4.49315 4.89329 
110 24.5098 24.5098 24.5098 4.65168 4.89415 5.33001 
111 25.5776 25.5776 25.5776 5.05834 5.32201 5.79597 
112 26.6667 26.6667 26.6667 5.49434 5.78073 6.29555 
113 27.7778 27.7778 27.7778 5.96051 6.27120 6.82970 
114 28.9116 28.9116 28.9116 6.45960 6.79631 7.40157 
115 30.0687 30.0687 30.0687 6.99381 7.35836 8.01367 
116 31.2500 31.2500 31.2500 7.56434 7.95863 8.66740 
117 32.4561 32.4561 32.4561 8.17381 8.59986 9.36575 
118 33.6879 33.6879 33.6879 8.82452 9.28450 10.1114 
119 34.9462 34.9462 34.9462 9.51981 10.0160 10.9080 
120 36.2319 36.2319 36.2319 10.2625 10.7974 11.7590 
121 37.5458 37.5458 37.5458 11.0554 11.6317 12.6676 
122 38.8889 38.8889 38.8889 11.9010 12.5213 13.6364 
123 40.2622 40.2622 40.2622 12.8043 13.4717 14.6715 
124 41.6667 41.6667 41.6667 13.7674 14.4850 15.7750 
125 43.1034 43.1034 43.1034 14.7952 15.5664 16.9527 
126 44.5736 44.5736 44.5736 15.8930 16.7214 18.2106 
127 46.0784 46.0784 46.0784 17.0632 17.9526 19.5515 
128 47.6190 47.6190 47.6190 18.3116 19.2660 20.9818 
129 49.1968 49.1968 49.1968 19.6440 20.6679 22.5085 
130 50.8130 50.8130 50.8130 21.0657 22.1638 24.1376 
131 52.4691 52.4691 52.4691 22.5839 23.7611 25.8772 
132 54.1667 54.1667 54.1667 24.2043 25.4660 27.7339 
133 55.9072 55.9072 55.9072 25.9333 27.2851 29.7150 
134 57.6923 57.6923 57.6923 27.7789 29.2269 31.8298 
135 59.5238 59.5238 59.5238 29.7512 31.3019 34.0896 
136 61.4035 61.4035 61.4035 31.8576 33.5182 36.5033 
137 63.3333 63.3333 63.3333 34.1068 35.8846 39.0804 
138 65.3153 65.3153 65.3153 36.5123 38.4155 41.8367 
139 67.3516 67.3516 67.3516 39.0823 41.1194 44.7814 
140 69.4444 69.4444 69.4444 41.8319 44.0124 47.9320 
141 71.5962 71.5962 71.5962 44.7715 47.1052 51.3003 
142 73.8095 73.8095 73.8095 47.9194 50.4172 54.9073 
143 76.0870 76.0870 76.0870 51.2882 53.9615 58.7672 
144 78.4314 78.4314 78.4314 54.8961 57.7576 62.9013 
145 80.8458 80.8458 80.8458 58.7631 61.8261 67.3322 
146 83.3333 83.3333 83.3333 62.9085 66.1875 72.0820 
147 85.8974 85.8974 85.8974 67.3550 70.8659 77.1770 
148 88.5417 88.5417 88.5417 72.1264 75.8860 82.6442 
149 91.2698 91.2698 91.2698 77.2506 81.2773 88.5156 
150 94.0860 94.0860 94.0860 82.7566 87.0703 94.8245 
151 24.6500 37.0640 50.2549 9.99527 10.7116 22.0159 
152 31.7487 39.9572 69.3043 16.0382 14.3921 43.3862 
153 29.8575 49.5202 72.9668 19.3565 20.0817 49.3490 
154 85.6839 69.8081 77.8975 55.2487 50.9349 60.7362 
155 73.8716 83.9149 0.00000 44.8714 58.8231 8.98928 
156 81.3836 100.000 0.00000 61.6380 84.8612 13.1314 
157 100.000 100.000 0.00000 76.9972 92.7810 13.8511 
158 30.2257 37.5495 28.4451 8.41422 10.3765 7.78291 
159 44.7430 38.2585 34.2093 13.0079 12.9293 10.8774 
160 0.00000 14.3389 45.0859 3.74049 2.53293 16.5028 
161 0.00000 18.3128 61.5317 7.08196 4.43995 32.3419 
162 0.00000 36.8378 78.3272 14.3904 12.1508 56.0706 
163 0.00000 48.9187 78.3962 17.7148 18.7670 57.2794 
164 0.00000 63.2847 82.5837 24.5157 30.3020 65.9178 
165 0.00000 28.7405 57.8578 7.70999 6.92641 28.7575 
166 0.00000 49.1612 63.3263 13.8540 17.3475 36.5611 
167 25.9599 64.6847 66.9515 23.0288 30.9842 43.1596 
168 42.6174 77.0769 77.0737 36.1536 46.9656 59.7083 
169 60.8532 81.4599 100.000 54.0868 59.1811 103.185 
170 0.00000 55.7751 100.000 27.7550 26.6317 98.2899 
171 26.1538 62.7905 100.000 32.9326 33.5822 99.3586 
172 0.00000 21.7136 80.0585 12.2998 7.13348 57.9521 
173 0.00000 39.4794 100.000 22.6704 16.4626 96.5951 
174 36.5980 41.2330 100.000 27.6615 19.6954 96.9562 
175 32.1523 0.00000 76.3282 13.2872 5.71692 51.8210 
176 75.8460 0.00000 78.7448 32.6135 15.6003 56.4304 
177 100.000 0.00000 81.7711 52.6865 25.8432 62.2245 
178 100.000 34.5368 86.0552 57.5770 33.3918 70.7378 
179 54.1394 0.00000 39.0764 12.7732 6.32233 12.5148 
180 56.4203 17.7542 55.5990 17.2929 9.76231 26.4789 
181 60.1316 26.2521 85.3366 27.8064 15.8545 67.6603 
182 61.3586 40.9609 100.000 36.8443 24.3259 97.3664 
183 81.6690 46.8504 100.000 50.7846 33.9736 98.4943 
184 23.9125 0.00000 22.7540 2.68719 1.29724 4.11477 
185 34.8489 0.00000 33.6486 5.77836 2.78620 8.99675 
186 41.2638 0.00000 48.0249 9.39286 4.43373 18.9251 
187 0.00000 72.6342 66.3926 24.5829 37.6627 43.6595 
188 0.00000 83.4123 83.0199 35.5632 52.1737 70.2881 
189 27.6084 100.000 92.3410 53.3754 78.8584 91.3643 
190 0.00000 100.000 84.1888 47.9826 76.4060 76.2968 
191 0.00000 100.000 100.000 53.8073 78.7357 106.973 
192 0.00000 21.3334 14.5504 1.67337 2.81003 2.21246 
193 14.1031 45.1103 14.0714 7.17665 12.7690 3.74561 
194 34.9200 48.6538 13.4264 11.6320 16.6750 4.13666 
195 63.2293 51.6836 24.8680 23.8763 24.4121 8.21729 
196 77.4276 69.6976 35.6696 40.8931 44.4185 16.3069 
197 47.3755 23.6694 22.3500 10.2307 7.61598 4.80123 
198 72.3000 38.8329 28.0042 25.4687 19.6258 8.47747 
199 72.9394 86.4677 30.6008 47.3457 62.4341 16.7693 
200 74.5580 87.5078 45.1476 50.7923 65.0563 26.1388 
201 82.6496 92.1509 100.000 74.5447 80.4399 106.210 
202 8.33333 0.00000 0.00000 0.314629 0.162236 0.0147440 
203 10.6838 0.00000 0.00000 0.458254 0.236295 0.0214745 
204 13.1579 0.00000 0.00000 0.644907 0.332542 0.0302213 
205 15.7658 0.00000 0.00000 0.883011 0.455318 0.0413792 
206 18.5185 0.00000 0.00000 1.18238 0.609684 0.0554080 
207 18.4103 28.3309 0.00000 3.50287 5.26925 0.832438 
208 35.0770 37.9627 0.00000 8.41903 10.6594 1.61381 
209 38.9009 38.4832 24.9666 10.4629 11.7907 6.52563 
210 61.0737 61.3103 30.5868 26.9794 31.4840 11.8621 
211 100.000 75.0464 40.4440 62.4037 59.6667 21.0968 
212 100.000 79.5452 62.8631 68.9270 66.4472 42.5910 
213 100.000 89.1158 77.6437 78.9649 80.4104 64.7832 
214 41.9242 87.1264 73.6609 41.2768 59.0757 56.7135 
215 39.9398 90.0364 100.000 51.6933 66.4001 104.704 
216 49.3449 100.000 100.000 62.3862 83.1593 107.375 
217 58.8015 23.2761 0.00000 14.1494 9.64459 1.11628 
218 66.3049 40.1479 0.00000 21.1664 18.0220 2.36352 
219 68.5298 58.1683 0.00000 28.2640 30.3695 4.37267 
220 36.9800 33.1212 49.0643 11.5615 10.2916 20.8178 
221 49.6130 35.6893 58.4227 17.8440 14.1275 30.2128 
222 61.3849 53.5500 58.4949 28.1325 27.0613 32.2438 
223 0.00000 100.000 58.1434 41.1247 73.6630 40.1792 
224 31.5481 100.000 60.2544 44.9078 75.5631 42.6379 
225 47.8627 100.000 72.3093 52.4836 79.1354 58.0721 
226 63.3333 0.00000 0.00000 14.7983 7.63062 0.693470 
227 69.4444 0.00000 0.00000 18.1500 9.35892 0.850537 
228 100.000 25.7459 28.7989 44.3835 25.6069 8.98515 
229 100.000 44.7306 29.1328 48.5085 33.8112 10.5006 
230 100.000 63.9661 42.4156 57.0705 48.5837 20.6039 
231 100.000 64.3735 71.8514 63.1106 51.2966 51.4993 
232 100.000 71.5075 66.3306 65.2106 57.7293 45.3150 
233 100.000 85.5008 86.0120 79.1447 76.5499 77.8546 
234 100.000 90.3596 100.000 87.6989 85.3064 106.457 
235 100.000 100.000 100.000 95.0458 100.000 108.906 
236 39.8041 44.2062 82.8859 23.0990 19.2650 64.3681 
237 55.7658 64.4337 86.0035 37.3456 37.5596 72.5159 
238 0.00000 21.6329 25.9675 2.36343 3.14334 5.67003 
239 19.6129 68.2409 32.3475 17.9957 31.5716 13.2256 
240 20.0153 71.2551 90.4410 32.4035 39.7849 81.2986 
241 32.4084 81.4636 100.000 44.0742 54.0216 102.716 
242 100.000 0.00000 0.00000 41.2385 21.2643 1.93250 
243 100.000 0.00000 17.7378 41.7165 21.4555 4.45015 
244 35.9941 100.000 0.00000 40.1508 73.7815 12.1244 
245 60.1357 100.000 0.00000 48.9607 78.3242 12.5373 
246 68.0517 100.000 77.8951 63.3752 84.5696 66.7954 
247 0.00000 51.9173 54.3066 12.9257 18.4559 27.1101 
248 32.5427 55.3782 61.7985 19.2578 23.4052 35.6657 
249 54.4860 69.0346 100.000 44.2178 43.7682 100.730 
250 75.1157 73.1091 100.000 57.3196 53.6655 101.950 
251 81.8931 75.3063 0.00000 45.1010 51.2447 7.51471 
252 100.000 80.2671 0.00000 62.9930 64.7728 9.18341 
253 100.000 86.1932 26.9001 67.8377 72.7639 16.0348 
254 100.000 100.000 26.1833 78.0033 93.1834 19.1497 
255 100.000 100.000 50.4228 80.9313 94.3546 34.5702 
256 79.8224 0.00000 21.9810 25.4920 13.0621 4.92650 
257 100.000 0.00000 47.4542 44.6898 22.6448 20.1096 
258 100.000 0.00000 61.7361 47.3603 23.7129 34.1740 
259 100.000 20.0704 72.5670 51.1914 27.1523 48.4706 
260 12.7765 0.00000 11.5972 0.842678 0.408047 1.23413 
261 40.9292 0.00000 24.9541 6.66668 3.33179 5.08831 
262 64.1333 31.2842 45.1136 21.1634 14.7882 17.9719 
263 0.00000 1.93798 0.00000 0.0535428 0.107085 0.0178462 
264 0.00000 10.6838 0.00000 0.397361 0.794714 0.132443 
265 0.00000 10.7198 11.9497 0.639987 0.895299 1.39934 
266 0.00000 11.2813 20.6673 1.06912 1.12123 3.49205 
267 17.8123 15.3822 38.1961 4.00982 2.90396 11.7574 
268 26.9481 0.00000 56.9740 7.56643 3.30791 27.1446 
269 50.8937 0.00000 64.3155 15.8723 7.40938 35.7200 
270 50.1751 34.1038 73.4564 21.3013 14.9970 48.9645 
271 74.6890 53.1669 77.0071 40.0979 32.4983 56.6074 
272 0.00000 76.0870 0.00000 19.2960 38.5915 6.43147 
273 0.00000 83.3333 0.00000 23.6678 47.3352 7.88864 
274 0.00000 91.2698 0.00000 29.0637 58.1269 9.68713 
275 0.00000 100.000 71.0848 44.1259 74.8634 55.9851 
276 0.00000 0.00000 100.000 18.0486 7.21897 95.0546 
277 46.7338 0.00000 100.000 25.6795 11.1538 95.4122 
278 65.8183 0.00000 100.000 34.1616 15.5275 95.8097 
279 83.6114 0.00000 100.000 45.5489 21.3993 96.3433 
280 100.000 65.5132 100.000 73.1161 56.1412 101.596 
281 100.000 88.1762 56.0111 73.0664 77.0082 36.9335 
282 100.000 100.000 71.7442 85.5382 96.1972 58.8332 
283 31.5593 62.0650 0.00000 15.6199 26.2695 4.24711 
284 40.3452 63.6234 39.4556 20.8714 29.7327 16.8522 
285 63.3584 73.1149 42.8425 35.2366 44.0500 21.1844 
286 65.9852 78.2671 71.4028 45.2113 52.8485 52.1184 
287 60.8608 0.00000 27.2718 14.6454 7.42557 6.38145 
288 73.9038 0.00000 47.7281 24.3446 12.1489 19.3810 
289 82.2296 0.00000 64.5168 33.2350 16.3569 36.7764 
290 100.000 0.00000 100.000 59.2870 28.4833 96.9871 
291 100.000 29.1645 100.000 61.7604 33.4300 97.8115 
292 100.000 49.7313 100.000 66.8522 43.6134 99.5086 
293 0.00000 3.96825 0.00000 0.109661 0.219320 0.0365508 
294 0.00000 6.09756 0.00000 0.178778 0.357552 0.0595879 
295 0.00000 8.33333 0.00000 0.272822 0.545638 0.0909332 
296 0.00000 23.1091 39.0318 3.83769 4.03128 12.5147 
297 25.7918 25.1539 45.3172 7.19909 6.08354 17.1845 
298 69.6314 31.5249 59.1378 26.7250 17.4366 31.1529 
299 19.2592 8.07999 20.5129 2.15971 1.42850 3.44749 
300 21.7896 8.16516 30.3601 3.22559 1.89960 7.29634 
301 25.8605 55.0133 38.8955 13.9229 20.8991 15.1509 
302 0.00000 34.5811 32.6046 5.07148 7.63598 9.41981 
303 0.00000 34.5119 42.3091 6.19074 8.06018 15.3869 
304 0.00000 51.6653 43.1209 11.0286 17.5579 17.5480 
305 57.7932 51.8371 43.0578 23.1784 23.9117 18.0888 
306 67.4943 54.8926 50.6606 30.3855 29.1227 24.8548 
307 100.000 58.6079 52.4270 56.3379 44.6131 28.0850 
308 46.3395 31.6609 0.00000 10.4164 9.70927 1.32530 
309 51.8361 46.3464 0.00000 16.0437 17.9210 2.61373 
310 53.7352 80.8008 0.00000 32.4006 49.4822 7.84323 
311 0.00000 80.1331 27.3920 22.7736 43.7856 13.0203 
312 0.00000 80.1824 46.0785 24.9432 44.7015 24.2986 
313 0.00000 79.8653 61.3936 27.5580 45.4395 39.0189 
314 51.1321 100.000 86.0490 57.8651 81.4304 79.9822 
315 69.6233 100.000 91.7988 68.8750 86.8738 91.0489 
316 0.00000 70.4105 100.000 34.2779 39.6773 100.464 
317 0.00000 83.8487 100.000 42.0474 55.2161 103.054 
318 0.00000 0.00000 0.00000 0.00000 0.00000 0.00000 
319 0.00000 63.3548 42.6258 15.5853 26.7802 18.7309 
320 0.00000 100.000 43.6531 38.6451 72.6712 27.1201 
321 58.1836 100.000 58.0821 53.3915 79.9897 40.6891 
322 79.6490 100.000 69.5523 68.3862 87.4189 55.0539 
323 23.6651 16.3291 0.00000 2.69921 2.60164 0.359956 
324 37.0772 26.9532 12.4090 7.03973 6.73433 2.27061 
325 74.8556 30.8772 42.0689 26.9004 17.6840 15.9835 
326 84.0135 45.9885 56.0376 39.1412 29.0993 29.5012 
327 100.000 48.0462 60.1957 54.0522 37.6265 34.7705 
328 76.0870 0.00000 0.00000 22.2529 11.4745 1.04280 
329 80.6881 24.6729 0.00000 27.1574 16.6350 1.78046 
330 100.000 35.6347 0.00000 44.9680 28.7234 3.17559 
331 100.000 54.6895 20.7077 51.1752 40.1167 8.39195 
332 1.93798 0.00000 0.00000 0.0617478 0.0318398 2.89360e-003 
333 3.96825 0.00000 0.00000 0.126466 0.0652112 5.92639e-003 
334 6.09756 0.00000 0.00000 0.206174 0.106312 9.66164e-003 
335 25.3458 9.29883 0.00000 2.47643 1.75330 0.207974 
336 40.3674 17.3140 0.00000 6.49237 4.69308 0.563864 
337 0.00000 13.1579 0.00000 0.559213 1.11841 0.186389 
338 0.00000 15.7658 0.00000 0.765678 1.53134 0.255205 
339 13.3337 17.1415 0.00000 1.54961 2.12009 0.327550 
340 42.0506 53.0334 0.00000 14.7874 20.5335 3.18403 
341 46.3130 70.1744 9.48939 23.7600 36.1431 6.59848 
342 47.0215 84.4839 63.4609 38.6478 55.4090 42.7602 
343 60.2705 87.4869 76.5462 49.5495 63.6113 61.4129 
344 14.0336 14.8109 6.03718 1.49485 1.77836 0.731261 
345 37.3461 16.1495 8.49516 5.68403 4.10055 1.23434 
346 47.2164 16.5199 7.40957 8.75038 5.73450 1.25721 
347 61.1579 31.6143 12.5997 16.8768 12.9971 2.99512 
348 90.9138 36.2591 14.6726 37.4301 25.0012 4.63912 
349 79.8933 0.00000 38.5896 27.0500 13.6909 12.8745 
350 87.9134 13.4778 55.0301 36.1348 18.9469 26.6924 
351 87.1858 31.5360 58.5542 38.5706 23.5616 31.0820 
352 70.0721 14.1810 16.8783 19.5891 10.9940 3.37947 
353 87.4250 18.1133 26.4229 32.4189 18.0595 7.14823 
354 84.8206 1.77736 15.7141 28.8377 14.8983 3.37092 
355 86.7202 15.1596 34.7820 32.3639 17.5415 11.0654 
356 90.1130 17.1755 77.7412 43.6770 22.6654 55.6476 
357 93.1912 45.5152 81.8520 52.8631 35.2121 64.1570 
358 48.2489 28.3911 13.1912 10.7997 9.01397 2.65691 
359 59.7385 38.7037 12.1422 17.6907 15.6736 3.38768 
360 66.8642 87.3915 14.8152 43.3786 61.4346 11.3871 
361 85.6534 90.6574 16.1802 58.0658 72.3822 13.0326 
362 39.5689 31.2545 6.64528 8.30296 8.49521 1.73047 
363 57.3543 34.5762 26.2317 16.4122 13.5466 7.04338 
364 57.1050 45.5033 46.3262 21.3126 19.8861 19.8976 
365 62.4121 69.6590 59.1355 35.7426 41.3077 35.2822 
366 86.7431 78.1125 61.2966 56.3692 58.7474 39.9599 
367 86.0102 93.0811 68.7143 67.4559 78.9894 52.3653 
368 86.3521 100.000 83.0138 77.1755 91.5031 75.6768 
369 27.6335 20.9670 16.0899 4.25438 4.06879 2.66176 
370 30.5279 53.1749 25.6983 12.8456 19.4951 8.16797 
371 48.5229 62.3397 47.7074 24.1566 30.4459 22.9047 
372 52.0385 63.0823 58.8109 27.8470 32.6032 33.6681 
373 52.0253 63.5258 69.2718 30.4377 33.9564 46.3603 
374 23.0664 84.9093 53.5038 30.9556 52.0899 31.8785 
375 17.5669 90.4041 65.5249 36.4998 60.2333 46.3060 
376 26.9852 100.000 77.7999 48.4366 76.8699 65.9484 
377 12.0315 27.2559 17.7783 3.19482 4.79686 3.27357 
378 20.2670 30.4358 25.3020 5.03688 6.49148 5.91602 
379 23.5043 42.2624 24.1458 8.05534 11.9783 6.38353 
380 23.2780 63.4543 39.3339 17.0257 27.6386 16.5714 
381 19.8097 93.0438 41.4519 34.2858 62.4429 23.8005 
382 39.7243 100.000 46.2636 44.4271 75.6085 29.3840 
383 58.7735 60.2730 71.7976 32.6144 32.9053 49.4803 
384 74.4514 63.9637 74.4824 43.5990 40.8756 54.2701 
385 31.6908 30.0740 21.9044 6.71945 7.28975 4.77599 
386 34.4588 43.9081 22.0218 10.5200 13.9364 5.89670 
387 47.3823 50.8334 26.3911 16.8147 20.3264 8.39409 
388 59.7960 75.5283 54.8863 36.7491 46.5754 31.8495 
389 11.1138 11.2607 58.1595 6.28958 3.26371 28.4447 
390 12.0632 13.7368 79.1710 11.8062 5.74956 56.2969 
391 20.9570 13.6537 92.2115 17.1015 7.96586 79.3428 
392 26.4997 0.00000 100.000 20.4029 8.43297 95.1650 
393 82.9970 80.8333 23.6592 49.9721 58.4771 12.9746 
394 87.7638 87.5872 40.0024 59.5547 69.7362 22.8951 
395 34.8158 8.66086 16.3944 4.80141 2.85617 2.47032 
396 47.2463 10.5264 24.5570 9.08699 5.15962 5.16518 
397 54.0480 44.5977 88.0031 29.9467 22.7648 73.6312 
398 65.1531 55.8319 100.000 43.5315 34.7990 99.0354 
399 9.34250 8.21368 23.4929 1.45256 1.05120 4.38811 
400 33.4875 11.0241 30.0106 5.52225 3.31452 7.28330 
401 46.4267 14.6143 35.8107 10.0952 5.97974 10.5922 
402 51.7338 28.2835 40.5972 14.3023 10.5399 14.2514 
403 64.1036 35.2101 69.7666 26.8629 18.3235 44.1933 
404 78.1327 36.0911 75.1314 36.9133 23.6240 52.2457 
405 25.6083 2.19057 18.4663 2.77549 1.46155 2.83473 
406 31.2091 12.2214 21.8676 4.47579 2.96005 4.04660 
407 40.3960 28.7032 24.0026 8.83772 8.01459 5.52597 
408 44.6739 31.9156 33.6869 11.5752 10.1847 10.1397 
409 48.6900 64.6746 32.1636 23.2987 31.7874 12.8943 
410 39.8560 78.7862 21.8914 27.0111 44.8150 10.9450 
411 70.1964 100.000 25.6653 55.3160 81.4894 17.8829 
412 10.1703 34.1922 13.6542 4.14852 7.18588 2.74463 
413 46.8176 37.2210 26.3465 12.7635 12.5263 7.08432 
414 75.2391 48.5691 26.2034 29.8986 25.9712 8.71975 
415 88.6387 48.0504 27.0488 39.4693 30.6545 9.46357 
416 77.9454 52.6301 12.5415 32.3027 29.3224 5.32311 
417 91.8518 61.2304 25.6891 46.8836 41.7434 10.6659 
418 88.4271 72.1406 18.5241 48.8520 50.5592 9.89911 
419 90.8347 73.2517 49.9895 54.7437 54.0920 27.7987 
420 91.0290 77.9214 70.1123 61.7857 61.1326 51.0810 
421 19.8267 22.5154 15.0064 3.18106 3.80176 2.42237 
422 22.9204 30.6120 15.7609 4.88565 6.52441 3.02664 
423 42.9204 45.3181 36.5553 14.5416 16.4636 12.8182 
424 7.69140 17.2357 8.28340 1.31637 1.99730 1.03170 
425 11.5440 24.8364 9.46134 2.48097 3.92550 1.49762 
426 11.9047 45.6855 29.8175 8.15437 13.4093 9.00293 
427 15.5277 57.9225 67.8045 18.9349 24.5415 43.2258 
428 20.8608 71.0771 81.0986 29.2892 38.4034 64.7760 
429 46.5184 89.6560 84.6240 47.8366 64.6697 74.7891 
430 62.5235 89.6093 88.4393 55.9256 68.6424 81.9118 
431 39.1589 5.30804 66.3242 12.5630 5.87258 38.0715 
432 44.8640 5.42503 86.9765 20.3023 9.17703 69.6652 
433 77.7352 27.2077 100.000 43.5472 23.5609 96.8659 
434 21.4187 0.00000 38.5997 3.77947 1.69150 11.7904 
435 23.3983 8.73968 49.9233 5.98601 3.07512 20.4623 
436 24.7567 12.2356 69.7153 10.5661 5.25697 42.4608 
437 39.3328 18.6504 90.7026 20.7914 10.5900 76.7693 
