dispcalGUI/ti1/d3-e4-s9-g33-m0-f0-cubic2-crossover.ti1
CTI1   

ORIGINATOR "Argyll targen"
KEYWORD "OFPS_PATCHES"
OFPS_PATCHES "36"
CREATED "Wed Oct 16 19:06:20 2013"
KEYWORD "COMP_GREY_STEPS"
COMP_GREY_STEPS "33"
KEYWORD "APPROX_WHITE_POINT"
APPROX_WHITE_POINT "95.045781 100.000003 108.905751"
DESCRIPTOR "Argyll Calibration Target chart information 1"
KEYWORD "ACCURATE_EXPECTED_VALUES"
ACCURATE_EXPECTED_VALUES "true"
KEYWORD "WHITE_COLOR_PATCHES"
WHITE_COLOR_PATCHES "4"
KEYWORD "SINGLE_DIM_STEPS"
SINGLE_DIM_STEPS "9"
KEYWORD "COLOR_REP"
COLOR_REP "RGB"

NUMBER_OF_FIELDS 7
BEGIN_DATA_FORMAT
SAMPLE_ID RGB_R RGB_G RGB_B XYZ_X XYZ_Y XYZ_Z
END_DATA_FORMAT

NUMBER_OF_SETS 96
BEGIN_DATA
1 100.0000 100.0000 100.0000 95.04600 100.0000 108.9100
2 100.0000 100.0000 100.0000 95.04600 100.0000 108.9100
3 100.0000 100.0000 100.0000 95.04600 100.0000 108.9100
4 100.0000 100.0000 100.0000 95.04600 100.0000 108.9100
5 0.000000 0.000000 0.000000 0.000000 0.000000 0.000000
6 12.50000 0.000000 0.000000 0.591820 0.305100 0.027706
7 25.00000 0.000000 0.000000 2.098300 1.081700 0.098229
8 37.50000 0.000000 0.000000 4.784400 2.466500 0.223980
9 62.50000 0.000000 0.000000 14.37200 7.409200 0.672820
10 75.00000 0.000000 0.000000 21.54800 11.10900 1.008800
11 87.50000 0.000000 0.000000 30.46900 15.70800 1.426400
12 0.000000 12.50000 0.000000 0.513160 1.026400 0.171070
13 0.000000 25.00000 0.000000 1.819400 3.639000 0.606530
14 0.000000 37.50000 0.000000 4.148500 8.297600 1.383000
15 0.000000 62.50000 0.000000 12.46200 24.92500 4.154400
16 0.000000 75.00000 0.000000 18.68400 37.37100 6.228800
17 0.000000 87.50000 0.000000 26.41900 52.84200 8.807500
18 0.000000 0.000000 12.50000 0.259040 0.103620 1.364100
19 0.000000 0.000000 25.00000 0.918410 0.367390 4.836500
20 0.000000 0.000000 37.50000 2.094100 0.837700 11.02800
21 0.000000 0.000000 62.50000 6.290600 2.516400 33.12800
22 0.000000 0.000000 75.00000 9.431600 3.772900 49.66900
23 0.000000 0.000000 87.50000 13.33600 5.334800 70.23100
24 3.125000 3.125000 3.125000 0.230370 0.242380 0.263970
25 6.250000 6.250000 6.250000 0.489660 0.515180 0.561060
26 9.375000 9.375000 9.375000 0.863160 0.908150 0.989030
27 12.50000 12.50000 12.50000 1.364000 1.435100 1.562900
28 15.62500 15.62500 15.62500 2.002400 2.106700 2.294400
29 18.75000 18.75000 18.75000 2.788400 2.933700 3.195000
30 21.87500 21.87500 21.87500 3.730500 3.924900 4.274400
31 25.00000 25.00000 25.00000 4.836000 5.088100 5.541300
32 28.12500 28.12500 28.12500 6.111400 6.429900 7.002500
33 31.25000 31.25000 31.25000 7.564300 7.958600 8.667400
34 34.37500 34.37500 34.37500 9.200600 9.680200 10.54200
35 37.50000 37.50000 37.50000 11.02700 11.60200 12.63500
36 40.62500 40.62500 40.62500 13.04900 13.72900 14.95200
37 43.75000 43.75000 43.75000 15.27200 16.06800 17.49900
38 46.87500 46.87500 46.87500 17.70200 18.62500 20.28300
39 50.00000 50.00000 50.00000 20.34400 21.40500 23.31100
40 53.12500 53.12500 53.12500 23.20200 24.41100 26.58500
41 56.25000 56.25000 56.25000 26.28100 27.65100 30.11400
42 59.37500 59.37500 59.37500 29.58800 31.13000 33.90200
43 62.50000 62.50000 62.50000 33.12400 34.85100 37.95500
44 65.62500 65.62500 65.62500 36.89600 38.81900 42.27600
45 68.75000 68.75000 68.75000 40.90700 43.03900 46.87200
46 71.87500 71.87500 71.87500 45.16200 47.51600 51.74700
47 75.00000 75.00000 75.00000 49.66400 52.25300 56.90600
48 78.12500 78.12500 78.12500 54.41700 57.25300 62.35200
49 81.25000 81.25000 81.25000 59.42600 62.52400 68.09200
50 84.37500 84.37500 84.37500 64.69400 68.06600 74.12800
51 87.50000 87.50000 87.50000 70.22400 73.88500 80.46500
52 90.62500 90.62500 90.62500 76.02100 79.98300 87.10600
53 93.75000 93.75000 93.75000 82.08800 86.36700 94.05800
54 96.87500 96.87500 96.87500 88.42900 93.03800 101.3200
55 0.000000 0.000000 50.00000 4.825152 2.529819 21.14747
56 0.000000 0.000000 100.0000 18.87111 8.147314 95.12896
57 0.000000 50.00000 0.000000 8.578171 16.15422 3.526078
58 0.000000 50.00000 50.00000 12.40332 17.68404 23.67355
59 0.000000 50.00000 100.0000 26.44928 23.30154 97.65504
60 0.000000 100.0000 0.000000 36.40521 71.80052 12.80184
61 0.000000 100.0000 50.00000 40.23036 73.33034 32.94931
62 0.000000 100.0000 100.0000 54.27632 78.94783 106.9308
63 25.00000 25.00000 75.00000 14.21660 9.407731 50.88218
64 25.00000 75.00000 25.00000 22.48648 39.42948 12.05296
65 25.00000 75.00000 75.00000 30.91530 42.80047 56.44846
66 50.00000 0.000000 0.000000 9.739336 5.506030 1.409510
67 50.00000 0.000000 50.00000 13.56449 7.035849 21.55698
68 50.00000 0.000000 100.0000 27.61044 12.65334 95.53847
69 50.00000 50.00000 0.000000 17.31751 20.66025 3.935588
70 50.00000 50.00000 100.0000 35.18861 27.80757 98.06455
71 50.00000 100.0000 0.000000 45.14454 76.30655 13.21135
72 50.00000 100.0000 50.00000 48.96970 77.83637 33.35882
73 50.00000 100.0000 100.0000 63.01565 83.45386 107.3403
74 75.00000 25.00000 25.00000 25.04513 15.96589 7.389049
75 75.00000 25.00000 75.00000 33.47396 19.33689 51.78455
76 75.00000 75.00000 25.00000 41.74384 49.35864 12.95533
77 100.0000 0.000000 0.000000 41.83017 22.05217 2.913230
78 100.0000 0.000000 50.00000 45.65532 23.58199 23.06070
79 100.0000 0.000000 100.0000 59.70128 29.19948 97.04219
80 100.0000 50.00000 0.000000 49.40834 37.20639 5.439309
81 100.0000 50.00000 50.00000 53.23349 38.73621 25.58678
82 100.0000 50.00000 100.0000 67.27945 44.35371 99.56827
83 100.0000 100.0000 0.000000 77.23538 92.85269 14.71507
84 100.0000 100.0000 50.00000 81.06053 94.38251 34.86254
85 0.000000 12.50000 100.0000 19.37917 9.163293 95.29831
86 12.50000 0.000000 100.0000 19.45702 8.449410 95.15641
87 0.000000 100.0000 12.50000 36.66166 71.90308 14.15257
88 12.50000 100.0000 0.000000 36.99112 72.10261 12.82929
89 100.0000 0.000000 12.50000 42.08662 22.15473 4.263969
90 100.0000 12.50000 0.000000 42.33823 23.06815 3.082585
91 0.000000 25.00000 100.0000 20.67239 11.74937 95.72939
92 25.00000 0.000000 100.0000 20.94839 9.218366 95.22630
93 0.000000 100.0000 25.00000 37.31442 72.16414 17.59075
94 25.00000 100.0000 0.000000 38.48249 72.87157 12.89917
95 100.0000 0.000000 25.00000 42.73938 22.41580 7.702144
96 100.0000 25.00000 0.000000 43.63145 25.65422 3.513662
END_DATA
CTI1   

ORIGINATOR "Argyll targen"
KEYWORD "DENSITY_EXTREME_VALUES"
DENSITY_EXTREME_VALUES "8"
CREATED "October 16, 2013"
DESCRIPTOR "Argyll Calibration Target chart information 1"

KEYWORD "INDEX"
NUMBER_OF_FIELDS 7
BEGIN_DATA_FORMAT
INDEX RGB_R RGB_G RGB_B XYZ_X XYZ_Y XYZ_Z
END_DATA_FORMAT

NUMBER_OF_SETS 8
BEGIN_DATA
0 100.000 100.000 100.000 95.0460 100.000 108.910
1 0.00000 46.3070 100.000 24.5380 20.1970 97.2170
2 100.000 0.00000 76.4350 51.0790 25.1960 53.7500
3 0.00000 0.00000 55.4170 4.83100 1.93250 25.4410
4 100.000 64.4300 0.00000 54.5660 47.9170 6.37360
5 0.00000 34.0820 0.00000 3.40060 6.80170 1.13370
6 78.9890 0.00000 0.00000 24.2000 12.4760 1.13290
7 5.02670 4.49050 3.59250 0.33816 0.35379 0.31287
END_DATA
CTI1   

ORIGINATOR "Argyll targen"
CREATED "October 16, 2013"
DESCRIPTOR "Argyll Calibration Target chart information 1"
KEYWORD "DEVICE_COMBINATION_VALUES"
DEVICE_COMBINATION_VALUES "9"

KEYWORD "INDEX"
NUMBER_OF_FIELDS 7
BEGIN_DATA_FORMAT
INDEX RGB_R RGB_G RGB_B XYZ_X XYZ_Y XYZ_Z
END_DATA_FORMAT

NUMBER_OF_SETS 9
BEGIN_DATA
0 100.00 100.00 100.00 95.046 100.00 108.91
1 0.0000 100.00 100.00 53.807 78.740 106.98
2 100.00 0.0000 100.00 59.288 28.480 96.985
3 0.0000 0.0000 100.00 18.050 7.2205 95.055
4 100.00 100.00 0.0000 76.996 92.780 13.851
5 0.0000 100.00 0.0000 35.757 71.520 11.921
6 100.00 0.0000 0.0000 41.238 21.260 1.9306
7 0.0000 0.0000 0.0000 0.0000 0.0000 0.0000
8 50.000 50.000 50.000 20.344 21.405 23.311
END_DATA