dispcalGUI/ti1/d3-e4-s0-g52-m4-f0-crossover.ti1
CTI1   

ORIGINATOR "Argyll targen"
CREATED "Sun Oct 19 08:31:25 2008"
KEYWORD "COMP_GREY_STEPS"
COMP_GREY_STEPS "52"
KEYWORD "APPROX_WHITE_POINT"
APPROX_WHITE_POINT "95.106486 100.000000 108.844025"
DESCRIPTOR "Argyll Calibration Target chart information 1"
KEYWORD "MULTI_DIM_STEPS"
MULTI_DIM_STEPS "4"
KEYWORD "WHITE_COLOR_PATCHES"
WHITE_COLOR_PATCHES "4"
KEYWORD "COLOR_REP"
COLOR_REP "RGB"

NUMBER_OF_FIELDS 7
BEGIN_DATA_FORMAT
SAMPLE_ID RGB_R RGB_G RGB_B XYZ_X XYZ_Y XYZ_Z
END_DATA_FORMAT

NUMBER_OF_SETS 127
BEGIN_DATA
1 100.00 100.00 100.00 95.106 100.00 108.84
2 100.00 100.00 100.00 95.106 100.00 108.84
3 100.00 100.00 100.00 95.106 100.00 108.84
4 100.00 100.00 100.00 95.106 100.00 108.84
5 0.0000 0.0000 0.0000 1.0000 1.0000 1.0000
6 1.9608 1.9608 1.9608 1.1428 1.1502 1.1637
7 3.9216 3.9216 3.9216 1.2856 1.3005 1.3273
8 5.8824 5.8824 5.8824 1.4495 1.4729 1.5152
9 7.8431 7.8431 7.8431 1.6583 1.6925 1.7544
10 9.8039 9.8039 9.8039 1.9148 1.9624 2.0484
11 11.765 11.765 11.765 2.2218 2.2853 2.4001
12 13.725 13.725 13.725 2.5817 2.6639 2.8126
13 15.686 15.686 15.686 2.9968 3.1007 3.2883
14 17.647 17.647 17.647 3.4695 3.5979 3.8300
15 19.608 19.608 19.608 4.0016 4.1577 4.4398
16 21.569 21.569 21.569 4.5953 4.7822 5.1201
17 23.529 23.529 23.529 5.2523 5.4734 5.8731
18 25.490 25.490 25.490 5.9745 6.2332 6.7007
19 27.451 27.451 27.451 6.7637 7.0634 7.6050
20 29.412 29.412 29.412 7.6213 7.9656 8.5879
21 31.373 31.373 31.373 8.5492 8.9418 9.6512
22 33.333 33.333 33.333 9.5488 9.9933 10.797
23 35.294 35.294 35.294 10.622 11.122 12.026
24 37.255 37.255 37.255 11.769 12.329 13.341
25 39.216 39.216 39.216 12.993 13.616 14.743
26 41.176 41.176 41.176 14.294 14.985 16.234
27 43.137 43.137 43.137 15.674 16.437 17.816
28 45.098 45.098 45.098 17.134 17.973 19.489
29 47.059 47.059 47.059 18.675 19.594 21.255
30 49.020 49.020 49.020 20.299 21.303 23.117
31 50.980 50.980 50.980 22.007 23.100 25.074
32 52.941 52.941 52.941 23.800 24.986 27.129
33 54.902 54.902 54.902 25.679 26.963 29.282
34 56.863 56.863 56.863 27.646 29.032 31.536
35 58.824 58.824 58.824 29.701 31.194 33.891
36 60.784 60.784 60.784 31.846 33.450 36.349
37 62.745 62.745 62.745 34.081 35.802 38.911
38 64.706 64.706 64.706 36.409 38.250 41.578
39 66.667 66.667 66.667 38.829 40.796 44.351
40 68.627 68.627 68.627 41.343 43.440 47.232
41 70.588 70.588 70.588 43.951 46.185 50.221
42 72.549 72.549 72.549 46.656 49.030 53.321
43 74.510 74.510 74.510 49.457 51.977 56.531
44 76.471 76.471 76.471 52.356 55.027 59.853
45 78.431 78.431 78.431 55.354 58.180 63.289
46 80.392 80.392 80.392 58.452 61.439 66.838
47 82.353 82.353 82.353 61.650 64.803 70.503
48 84.314 84.314 84.314 64.949 68.275 74.285
49 86.275 86.275 86.275 68.351 71.854 78.183
50 88.235 88.235 88.235 71.857 75.541 82.200
51 90.196 90.196 90.196 75.466 79.338 86.337
52 92.157 92.157 92.157 79.181 83.246 90.594
53 94.118 94.118 94.118 83.001 87.265 94.972
54 96.078 96.078 96.078 86.929 91.397 99.472
55 98.039 98.039 98.039 90.963 95.641 104.10
56 33.333 0.0000 0.0000 4.7091 2.9124 1.1738
57 66.667 0.0000 0.0000 17.413 9.4625 1.7691
58 100.00 0.0000 0.0000 41.830 22.052 2.9132
59 0.0000 33.333 0.0000 4.2163 7.4316 2.0721
60 33.333 33.333 0.0000 7.9254 9.3441 2.2459
61 66.667 33.333 0.0000 20.629 15.894 2.8412
62 100.00 33.333 0.0000 45.046 28.484 3.9853
63 0.0000 66.667 0.0000 15.232 29.460 5.7441
64 33.333 66.667 0.0000 18.941 31.373 5.9179
65 66.667 66.667 0.0000 31.645 37.923 6.5132
66 100.00 66.667 0.0000 56.062 50.512 7.6573
67 0.0000 100.00 0.0000 36.405 71.801 12.802
68 33.333 100.00 0.0000 40.114 73.713 12.976
69 66.667 100.00 0.0000 52.818 80.263 13.571
70 100.00 100.00 0.0000 77.235 92.853 14.715
71 0.0000 0.0000 33.333 2.6234 1.6493 9.5508
72 33.333 0.0000 33.333 6.3325 3.5617 9.7246
73 66.667 0.0000 33.333 19.036 10.112 10.320
74 100.00 0.0000 33.333 43.454 22.701 11.464
75 0.0000 33.333 33.333 5.8397 8.0809 10.623
76 66.667 33.333 33.333 22.253 16.543 11.392
77 100.00 33.333 33.333 46.670 29.133 12.536
78 0.0000 66.667 33.333 16.856 30.110 14.295
79 33.333 66.667 33.333 20.565 32.022 14.469
80 66.667 66.667 33.333 33.268 38.572 15.064
81 100.00 66.667 33.333 57.686 51.162 16.208
82 0.0000 100.00 33.333 38.029 72.450 21.353
83 33.333 100.00 33.333 41.738 74.362 21.526
84 66.667 100.00 33.333 54.441 80.912 22.122
85 100.00 100.00 33.333 78.859 93.502 23.266
86 0.0000 0.0000 66.667 8.1838 3.8731 38.838
87 33.333 0.0000 66.667 11.893 5.7855 39.012
88 66.667 0.0000 66.667 24.597 12.336 39.607
89 100.00 0.0000 66.667 49.014 24.925 40.751
90 0.0000 33.333 66.667 11.400 10.305 39.910
91 33.333 33.333 66.667 15.109 12.217 40.084
92 66.667 33.333 66.667 27.813 18.767 40.679
93 100.00 33.333 66.667 52.230 31.357 41.823
94 0.0000 66.667 66.667 22.416 32.333 43.582
95 33.333 66.667 66.667 26.125 34.246 43.756
96 100.00 66.667 66.667 63.246 53.385 45.495
97 0.0000 100.00 66.667 43.589 74.674 50.640
98 33.333 100.00 66.667 47.298 76.586 50.813
99 66.667 100.00 66.667 60.002 83.136 51.409
100 100.00 100.00 66.667 84.419 95.726 52.553
101 0.0000 0.0000 100.00 18.871 8.1473 95.129
102 33.333 0.0000 100.00 22.580 10.060 95.303
103 66.667 0.0000 100.00 35.284 16.610 95.898
104 100.00 0.0000 100.00 59.701 29.199 97.042
105 0.0000 33.333 100.00 22.087 14.579 96.201
106 33.333 33.333 100.00 25.796 16.491 96.375
107 66.667 33.333 100.00 38.500 23.041 96.970
108 100.00 33.333 100.00 62.918 35.631 98.114
109 0.0000 66.667 100.00 33.103 36.608 99.873
110 33.333 66.667 100.00 36.812 38.520 100.05
111 66.667 66.667 100.00 49.516 45.070 100.64
112 100.00 66.667 100.00 73.933 57.660 101.79
113 0.0000 100.00 100.00 54.276 78.948 106.93
114 33.333 100.00 100.00 57.985 80.860 107.10
115 66.667 100.00 100.00 70.689 87.410 107.70
116 0.0000 12.549 100.00 19.382 9.1699 95.299
117 12.549 0.0000 100.00 19.461 8.4514 95.157
118 0.0000 100.00 12.549 36.663 71.904 14.161
119 12.549 100.00 0.0000 36.995 72.105 12.829
120 100.00 0.0000 12.549 42.088 22.155 4.2728
121 100.00 12.549 0.0000 42.342 23.075 3.0837
122 0.0000 25.098 100.00 20.686 11.777 95.734
123 25.098 0.0000 100.00 20.964 9.2266 95.227
124 0.0000 100.00 25.098 37.321 72.167 17.628
125 25.098 100.00 0.0000 38.499 72.880 12.900
126 100.00 0.0000 25.098 42.746 22.419 7.7392
127 100.00 25.098 0.0000 43.645 25.682 3.5183
END_DATA
CTI1

ORIGINATOR "Argyll targen"
KEYWORD "DENSITY_EXTREME_VALUES"
DENSITY_EXTREME_VALUES "8"
CREATED "October 19, 2008"
DESCRIPTOR "Argyll Calibration Target chart information 1"

KEYWORD "INDEX"
NUMBER_OF_FIELDS 7
BEGIN_DATA_FORMAT
INDEX RGB_R RGB_G RGB_B XYZ_X XYZ_Y XYZ_Z
END_DATA_FORMAT

NUMBER_OF_SETS 8
BEGIN_DATA
0 100.00 100.00 100.00 95.106 100.00 108.84
1 0.0000 47.361 100.00 25.613 21.629 97.376
2 100.00 0.0000 79.351 52.426 26.290 58.722
3 0.0000 0.0000 58.997 6.4858 3.1940 29.894
4 100.00 66.659 0.0000 56.059 50.505 7.6561
5 0.0000 35.601 0.0000 4.6856 8.3702 2.2286
6 84.444 0.0000 0.0000 28.843 15.356 2.3047
7 0.0000 0.0000 0.0000 1.0000 1.0000 1.0000
END_DATA
CTI1

ORIGINATOR "Argyll targen"
CREATED "October 19, 2008"
DESCRIPTOR "Argyll Calibration Target chart information 1"
KEYWORD "DEVICE_COMBINATION_VALUES"
DEVICE_COMBINATION_VALUES "9"

KEYWORD "INDEX"
NUMBER_OF_FIELDS 7
BEGIN_DATA_FORMAT
INDEX RGB_R RGB_G RGB_B XYZ_X XYZ_Y XYZ_Z
END_DATA_FORMAT

NUMBER_OF_SETS 9
BEGIN_DATA
0 100.00 100.00 100.00 95.106 100.00 108.84
1 0.0000 100.00 100.00 54.276 78.948 106.93
2 100.00 0.0000 100.00 59.701 29.199 97.042
3 0.0000 0.0000 100.00 18.871 8.1473 95.129
4 100.00 100.00 0.0000 77.235 92.853 14.715
5 0.0000 100.00 0.0000 36.405 71.801 12.802
6 100.00 0.0000 0.0000 41.830 22.052 2.9132
7 0.0000 0.0000 0.0000 1.0000 1.0000 1.0000
8 60.000 60.000 60.000 30.977 32.536 35.353
END_DATA