dispcalGUI/ti1/d3-e4-s37-g109-m10-b10-f0.ti1
CTI1   

ORIGINATOR "Argyll targen"
KEYWORD "MULTI_DIM_BCC_STEPS"
MULTI_DIM_BCC_STEPS "10"
CREATED "Sat Oct 19 04:41:32 2013"
KEYWORD "COMP_GREY_STEPS"
COMP_GREY_STEPS "109"
KEYWORD "BLACK_COLOR_PATCHES"
BLACK_COLOR_PATCHES "4"
KEYWORD "APPROX_WHITE_POINT"
APPROX_WHITE_POINT "95.106486 100.000000 108.844025"
DESCRIPTOR "Argyll Calibration Target chart information 1"
KEYWORD "MULTI_DIM_STEPS"
MULTI_DIM_STEPS "10"
KEYWORD "WHITE_COLOR_PATCHES"
WHITE_COLOR_PATCHES "4"
KEYWORD "SINGLE_DIM_STEPS"
SINGLE_DIM_STEPS "37"
KEYWORD "COLOR_REP"
COLOR_REP "RGB"

NUMBER_OF_FIELDS 7
BEGIN_DATA_FORMAT
SAMPLE_ID RGB_R RGB_G RGB_B XYZ_X XYZ_Y XYZ_Z
END_DATA_FORMAT

NUMBER_OF_SETS 1906
BEGIN_DATA
1 100.0000 100.0000 100.0000 95.10650 100.0000 108.8440
2 66.66670 55.55560 22.22220 27.66380 28.80500 8.753170
3 77.77780 55.55560 22.22220 34.39540 32.27580 9.068600
4 11.11110 11.11110 0.000000 1.902210 2.087030 1.162310
5 0.925926 0.925926 0.925926 1.067440 1.070950 1.077290
6 11.11110 11.11110 11.11110 2.113710 2.171620 2.276280
7 14.81480 14.81480 14.81480 2.805360 2.899240 3.068910
8 22.22220 11.11110 22.22220 3.793810 2.978720 5.025140
9 22.22220 0.000000 33.33330 4.275260 2.500960 9.628240
10 11.11110 0.000000 11.11110 1.694700 1.333730 2.136610
11 5.555560 0.000000 0.000000 1.181870 1.093770 1.008520
12 8.333330 0.000000 0.000000 1.311460 1.160590 1.014590
13 13.88890 0.000000 0.000000 1.700330 1.361090 1.032820
14 16.66670 0.000000 0.000000 1.965730 1.497930 1.045250
15 19.44440 0.000000 0.000000 2.282070 1.661040 1.060080
16 22.22220 0.000000 0.000000 2.651820 1.851680 1.077400
17 22.22220 11.11110 11.11110 3.282320 2.774160 2.331040
18 27.77780 0.000000 0.000000 3.560620 2.320270 1.119990
19 30.55560 0.000000 0.000000 4.103910 2.600380 1.145440
20 36.11110 0.000000 0.000000 5.378020 3.257320 1.205150
21 38.88890 0.000000 0.000000 6.112500 3.636020 1.239560
22 41.66670 0.000000 0.000000 6.914250 4.049410 1.277130
23 44.44440 11.11110 11.11110 8.415420 5.420800 2.571570
24 44.44440 0.000000 0.000000 7.784920 4.498330 1.317930
25 52.77780 0.000000 0.000000 10.82610 6.066380 1.460440
26 55.55560 11.11110 0.000000 12.40690 7.503300 1.654540
27 55.55560 11.11110 11.11110 12.61840 7.587890 2.768520
28 55.55560 0.000000 0.000000 11.98790 6.665410 1.514880
29 55.55560 0.000000 11.11110 12.19940 6.750000 2.628850
30 66.66670 11.11110 0.000000 17.83180 10.30040 1.908750
31 66.66670 11.11110 11.11110 18.04330 10.38500 3.022720
32 66.66670 0.000000 0.000000 17.41280 9.462500 1.769080
33 66.66670 0.000000 11.11110 17.62430 9.547090 2.883050
34 77.77780 11.11110 0.000000 24.56340 13.77120 2.224170
35 77.77780 11.11110 11.11110 24.77490 13.85580 3.338150
36 77.77780 0.000000 0.000000 24.14440 12.93330 2.084500
37 77.77780 0.000000 11.11110 24.35590 13.01790 3.198480
38 88.88890 11.11110 0.000000 32.67870 17.95550 2.604450
39 88.88890 11.11110 11.11110 32.89020 18.04010 3.718420
40 88.88890 0.000000 0.000000 32.25970 17.11760 2.464780
41 88.88890 0.000000 11.11110 32.47120 17.20220 3.578750
42 100.0000 22.22220 22.22220 43.98550 25.20560 7.198750
43 100.0000 33.33330 22.22220 45.76940 28.77300 7.793400
44 100.0000 44.44440 22.22220 48.43660 34.10650 8.682460
45 100.0000 55.55560 22.22220 52.08120 41.39470 9.897320
46 11.11110 0.000000 0.000000 1.483210 1.249140 1.022640
47 0.000000 5.555560 0.000000 1.157710 1.315370 1.052570
48 0.000000 8.333330 0.000000 1.270080 1.540080 1.090030
49 0.000000 13.88890 0.000000 1.607280 2.214390 1.202430
50 0.000000 16.66670 0.000000 1.837420 2.674600 1.279140
51 0.000000 19.44440 0.000000 2.111730 3.223140 1.370580
52 0.000000 22.22220 0.000000 2.432350 3.864300 1.477450
53 0.000000 22.22220 11.11110 2.643840 3.948880 2.591430
54 0.000000 25.00000 0.000000 2.801280 4.602050 1.600430
55 0.000000 33.33330 11.11110 4.427770 7.516230 3.186070
56 0.000000 33.33330 0.000000 4.216270 7.431640 2.072100
57 0.000000 36.11110 0.000000 4.796330 8.591590 2.265450
58 0.000000 38.88890 0.000000 5.433220 9.865210 2.477750
59 0.000000 44.44440 11.11110 7.094920 12.84980 4.075130
60 0.000000 44.44440 0.000000 6.883430 12.76520 2.961160
61 0.000000 50.00000 0.000000 8.578170 16.15420 3.526080
62 0.000000 52.77780 0.000000 9.520570 18.03870 3.840210
63 0.000000 55.55560 11.11110 10.73950 20.13790 5.290000
64 0.000000 55.55560 0.000000 10.52800 20.05330 4.176030
65 0.000000 63.88890 0.000000 13.95260 26.90160 5.317570
66 0.000000 66.66670 11.11110 15.44360 29.54480 6.858050
67 11.11110 66.66670 11.11110 15.92680 29.79400 6.880690
68 0.000000 66.66670 0.000000 15.23210 29.46020 5.744080
69 11.11110 66.66670 0.000000 15.71530 29.70940 5.766720
70 0.000000 77.77780 0.000000 21.06930 41.13290 7.689810
71 0.000000 77.77780 11.11110 21.28070 41.21750 8.803780
72 0.000000 80.55560 0.000000 22.71350 44.42100 8.237910
73 0.000000 83.33330 0.000000 24.43380 47.86110 8.811350
74 0.000000 86.11110 0.000000 26.23110 51.45520 9.410450
75 0.000000 88.88890 11.11110 28.31790 55.28970 11.14950
76 0.000000 88.88890 0.000000 28.10640 55.20520 10.03550
77 0.000000 91.66670 0.000000 30.06050 59.11280 10.68690
78 0.000000 94.44440 0.000000 32.09440 63.18010 11.36490
79 0.000000 97.22220 0.000000 34.20900 67.40870 12.06980
80 0.000000 100.0000 0.000000 36.40520 71.80050 12.80180
81 0.000000 11.11110 0.000000 1.419000 1.837890 1.139670
82 0.000000 0.000000 2.777780 1.038420 1.015370 1.202380
83 0.000000 0.000000 5.555560 1.079600 1.031840 1.419290
84 0.000000 0.000000 8.333330 1.136320 1.054520 1.718030
85 0.000000 0.000000 13.88890 1.306530 1.122590 2.614520
86 0.000000 0.000000 16.66670 1.422690 1.169050 3.226370
87 0.000000 0.000000 19.44440 1.561150 1.224430 3.955660
88 0.000000 0.000000 22.22220 1.722990 1.289150 4.808070
89 0.000000 0.000000 25.00000 1.909210 1.363630 5.788910
90 0.000000 0.000000 27.77780 2.120770 1.448240 6.903200
91 0.000000 0.000000 30.55560 2.358560 1.543340 8.155680
92 0.000000 0.000000 33.33330 2.623440 1.649270 9.550840
93 0.000000 0.000000 36.11110 2.916230 1.766370 11.09300
94 0.000000 0.000000 38.88890 3.237710 1.894940 12.78620
95 0.000000 0.000000 41.66670 3.588630 2.035290 14.63460
96 0.000000 0.000000 44.44440 3.969720 2.187700 16.64180
97 5.555560 5.555560 50.00000 5.164730 2.938970 21.20860
98 0.000000 0.000000 50.00000 4.825150 2.529820 21.14750
99 0.000000 0.000000 52.77780 5.300830 2.720060 23.65290
100 0.000000 0.000000 55.55560 5.809350 2.923430 26.33130
101 0.000000 0.000000 58.33330 6.351300 3.140180 29.18590
102 0.000000 0.000000 61.11110 6.927310 3.370550 32.21970
103 0.000000 0.000000 63.88890 7.537950 3.614770 35.43600
104 0.000000 0.000000 66.66670 8.183790 3.873060 38.83780
105 0.000000 0.000000 69.44440 8.865390 4.145660 42.42780
106 0.000000 0.000000 72.22220 9.583300 4.432780 46.20910
107 0.000000 0.000000 75.00000 10.33800 4.734630 50.18440
108 0.000000 0.000000 77.77780 11.13010 5.051420 54.35650
109 0.000000 0.000000 80.55560 11.96010 5.383350 58.72800
110 0.000000 0.000000 83.33330 12.82850 5.730630 63.30170
111 0.000000 0.000000 86.11110 13.73570 6.093460 68.08000
112 0.000000 0.000000 88.88890 14.68220 6.472010 73.06550
113 0.000000 0.000000 91.66670 15.66850 6.866490 78.26070
114 0.000000 0.000000 94.44440 16.69520 7.277080 83.66810
115 0.000000 0.000000 97.22220 17.76260 7.703960 89.29010
116 0.000000 0.000000 100.0000 18.87110 8.147310 95.12900
117 0.000000 0.000000 47.22220 4.381660 2.352450 18.81160
118 0.000000 0.000000 11.11110 1.211500 1.084590 2.113970
119 0.000000 11.11110 11.11110 1.630500 1.922480 2.253640
120 1.851850 1.851850 1.851850 1.134880 1.141900 1.154580
121 2.777780 2.777780 2.777780 1.202330 1.212850 1.231860
122 3.703700 3.703700 3.703700 1.269770 1.283800 1.309150
123 4.629630 4.629630 4.629630 1.339810 1.357480 1.389420
124 5.555560 5.555560 5.555560 1.419190 1.440980 1.480380
125 6.481480 6.481480 6.481480 1.508440 1.534880 1.582660
126 0.000000 2.777780 0.000000 1.076120 1.152220 1.025370
127 7.407410 7.407410 7.407410 1.607890 1.639500 1.696630
128 12.96300 12.96300 12.96300 2.435280 2.509920 2.644800
129 8.333330 8.333330 8.333330 1.717860 1.755190 1.822650
130 0.000000 0.000000 0.000000 1.000000 1.000000 1.000000
131 9.259260 9.259260 9.259260 1.838630 1.882230 1.961050
132 10.18520 10.18520 10.18520 1.970480 2.020950 2.112160
133 13.88890 13.88890 13.88890 2.614140 2.698070 2.849770
134 15.74070 15.74070 15.74070 3.009190 3.113670 3.302490
135 17.59260 17.59260 17.59260 3.455550 3.583230 3.814000
136 18.51850 18.51850 18.51850 3.698510 3.838840 4.092440
137 19.44440 19.44440 19.44440 3.954950 4.108610 4.386320
138 20.37040 20.37040 20.37040 4.225080 4.392780 4.695870
139 21.29630 21.29630 21.29630 4.509080 4.691550 5.021330
140 22.22220 22.22220 22.22220 4.807160 5.005130 5.362920
141 23.14810 23.14810 23.14810 5.119510 5.333720 5.720870
142 24.07410 24.07410 24.07410 5.446320 5.677520 6.095380
143 25.00000 25.00000 25.00000 5.787770 6.036730 6.486680
144 25.92590 25.92590 25.92590 6.144050 6.411540 6.894970
145 26.85190 26.85190 26.85190 6.515330 6.802130 7.320450
146 27.77780 27.77780 27.77780 6.901790 7.208690 7.763330
147 28.70370 28.70370 28.70370 7.303610 7.631390 8.223800
148 29.62960 29.62960 29.62960 7.720940 8.070430 8.702060
149 30.55560 30.55560 30.55560 8.153970 8.525970 9.198290
150 31.48150 31.48150 31.48150 8.602840 8.998190 9.712700
151 32.40740 32.40740 32.40740 9.067730 9.487250 10.24540
152 33.33330 33.33330 33.33330 9.548790 9.993330 10.79670
153 34.25930 34.25930 34.25930 10.04620 10.51660 11.36670
154 35.18520 35.18520 35.18520 10.56010 11.05720 11.95560
155 36.11110 36.11110 36.11110 11.09060 11.61530 12.56360
156 37.03700 37.03700 37.03700 11.63790 12.19100 13.19080
157 37.96300 37.96300 37.96300 12.20210 12.78460 13.83740
158 38.88890 38.88890 38.88890 12.78340 13.39620 14.50360
159 39.81480 39.81480 39.81480 13.38200 14.02580 15.18950
160 40.74070 40.74070 40.74070 13.99790 14.67380 15.89530
161 41.66670 41.66670 41.66670 14.63130 15.34020 16.62120
162 42.59260 42.59260 42.59260 15.28240 16.02510 17.36730
163 43.51850 43.51850 43.51850 15.95130 16.72870 18.13380
164 44.44440 44.44440 44.44440 16.63810 17.45120 18.92090
165 45.37040 45.37040 45.37040 17.34290 18.19270 19.72860
166 46.29630 46.29630 46.29630 18.06600 18.95340 20.55720
167 47.22220 47.22220 47.22220 18.80730 19.73330 21.40680
168 48.14810 48.14810 48.14810 19.56710 20.53260 22.27750
169 49.07410 49.07410 49.07410 20.34550 21.35150 23.16960
170 50.00000 50.00000 50.00000 21.14270 22.19010 24.08310
171 50.92590 50.92590 50.92590 21.95860 23.04850 25.01810
172 51.85190 51.85190 51.85190 22.79350 23.92680 25.97490
173 52.77780 52.77780 52.77780 23.64750 24.82520 26.95360
174 53.70370 53.70370 53.70370 24.52070 25.74380 27.95430
175 54.62960 54.62960 54.62960 25.41330 26.68280 28.97710
176 55.55560 55.55560 55.55560 26.32530 27.64220 30.02220
177 56.48150 56.48150 56.48150 27.25680 28.62220 31.08980
178 57.40740 57.40740 57.40740 28.20810 29.62290 32.17990
179 58.33330 58.33330 58.33330 29.17910 30.64440 33.29270
180 59.25930 59.25930 59.25930 30.17010 31.68700 34.42830
181 60.18520 60.18520 60.18520 31.18110 32.75050 35.58690
182 61.11110 61.11110 61.11110 32.21230 33.83530 36.76860
183 62.03700 62.03700 62.03700 33.26370 34.94140 37.97350
184 62.96300 62.96300 62.96300 34.33550 36.06900 39.20180
185 63.88890 63.88890 63.88890 35.42780 37.21810 40.45350
186 64.81480 64.81480 64.81480 36.54070 38.38880 41.72890
187 65.74070 65.74070 65.74070 37.67430 39.58140 43.02800
188 66.66670 66.66670 66.66670 38.82870 40.79580 44.35090
189 67.59260 67.59260 67.59260 40.00410 42.03230 45.69780
190 68.51850 68.51850 68.51850 41.20040 43.29080 47.06880
191 69.44440 69.44440 69.44440 42.41790 44.57160 48.46410
192 70.37040 70.37040 70.37040 43.65670 45.87480 49.88360
193 71.29630 71.29630 71.29630 44.91680 47.20040 51.32770
194 72.22220 72.22220 72.22220 46.19830 48.54860 52.79630
195 73.14810 73.14810 73.14810 47.50140 49.91950 54.28960
196 74.07410 74.07410 74.07410 48.82620 51.31310 55.80780
197 75.00000 75.00000 75.00000 50.17270 52.72960 57.35080
198 75.92590 75.92590 75.92590 51.54100 54.16920 58.91900
199 76.85190 76.85190 76.85190 52.93140 55.63180 60.51220
200 77.77780 77.77780 77.77780 54.34380 57.11760 62.13080
201 78.70370 78.70370 78.70370 55.77830 58.62680 63.77480
202 79.62960 79.62960 79.62960 57.23510 60.15930 65.44420
203 80.55560 80.55560 80.55560 58.71420 61.71540 67.13930
204 81.48150 81.48150 81.48150 60.21590 63.29510 68.86010
205 82.40740 82.40740 82.40740 61.74000 64.89850 70.60670
206 83.33330 83.33330 83.33330 63.28680 66.52570 72.37930
207 84.25930 84.25930 84.25930 64.85630 68.17680 74.17800
208 85.18520 85.18520 85.18520 66.44870 69.85200 76.00280
209 86.11110 86.11110 86.11110 68.06400 71.55130 77.85390
210 87.03700 87.03700 87.03700 69.70230 73.27480 79.73130
211 87.96300 87.96300 87.96300 71.36370 75.02260 81.63530
212 88.88890 88.88890 88.88890 73.04830 76.79480 83.56580
213 89.81480 89.81480 89.81480 74.75620 78.59150 85.52310
214 90.74070 90.74070 90.74070 76.48750 80.41290 87.50710
215 91.66670 91.66670 91.66670 78.24230 82.25890 89.51800
216 92.59260 92.59260 92.59260 80.02060 84.12970 91.55600
217 93.51850 93.51850 93.51850 81.82260 86.02540 93.62100
218 94.44440 94.44440 94.44440 83.64840 87.94610 95.71330
219 95.37040 95.37040 95.37040 85.49800 89.89190 97.83290
220 96.29630 96.29630 96.29630 87.37150 91.86280 99.97990
221 97.22220 97.22220 97.22220 89.26900 93.85900 102.1540
222 98.14810 98.14810 98.14810 91.19060 95.88050 104.3570
223 16.66670 16.66670 16.66670 3.225840 3.341590 3.550770
224 12.03700 12.03700 12.03700 2.268550 2.334520 2.453730
225 25.00000 0.000000 0.000000 3.077280 2.071050 1.097340
226 58.33330 0.000000 0.000000 13.22610 7.303840 1.572900
227 61.11110 0.000000 0.000000 14.54210 7.982370 1.634560
228 63.88890 0.000000 0.000000 15.93730 8.701700 1.699930
229 83.33330 0.000000 0.000000 28.02450 14.93390 2.266320
230 86.11110 0.000000 0.000000 30.09720 16.00260 2.363440
231 100.0000 0.000000 11.11110 42.04170 22.13680 4.027200
232 100.0000 11.11110 11.11110 42.46070 22.97460 4.166870
233 100.0000 11.11110 0.000000 42.24920 22.89010 3.052900
234 100.0000 0.000000 0.000000 41.83020 22.05220 2.913230
235 55.55560 22.22220 0.000000 13.42030 9.529710 1.992330
236 55.55560 22.22220 11.11110 13.63180 9.614290 3.106300
237 0.000000 0.000000 0.000000 1.000000 1.000000 1.000000
238 77.77780 22.22220 11.11110 25.78820 15.88220 3.675930
239 77.77780 22.22220 0.000000 25.57670 15.79760 2.561960
240 100.0000 22.22220 11.11110 43.47400 25.00100 4.504660
241 100.0000 22.22220 0.000000 43.26250 24.91650 3.390680
242 100.0000 33.33330 0.000000 45.04640 28.48380 3.985330
243 33.33330 33.33330 11.11110 8.136850 9.428640 3.359870
244 33.33330 33.33330 0.000000 7.925350 9.344060 2.245900
245 55.55560 33.33330 11.11110 15.41570 13.18160 3.700950
246 55.55560 33.33330 0.000000 15.20420 13.09710 2.586970
247 77.77780 33.33330 11.11110 27.57210 19.44950 4.270580
248 77.77780 33.33330 0.000000 27.36060 19.36490 3.156600
249 100.0000 33.33330 11.11110 45.25790 28.56840 5.099300
250 33.33330 22.22220 11.11110 6.352930 5.861300 2.765230
251 33.33330 22.22220 0.000000 6.141430 5.776710 1.651250
252 33.33330 44.44440 11.11110 10.80400 14.76220 4.248930
253 33.33330 44.44440 0.000000 10.59250 14.67760 3.134960
254 55.55560 44.44440 11.11110 18.08290 18.51520 4.590010
255 55.55560 44.44440 0.000000 17.87140 18.43060 3.476030
256 77.77780 44.44440 11.11110 30.23930 24.78310 5.159640
257 77.77780 44.44440 0.000000 30.02780 24.69850 4.045660
258 100.0000 44.44440 11.11110 47.92510 33.90200 5.988360
259 100.0000 44.44440 0.000000 47.71360 33.81740 4.874390
260 100.0000 66.66670 22.22220 56.78530 50.80160 11.46540
261 33.33330 55.55560 11.11110 14.44860 22.05030 5.463800
262 33.33330 55.55560 0.000000 14.23710 21.96570 4.349830
263 55.55560 55.55560 11.11110 21.72740 25.80330 5.804870
264 55.55560 55.55560 0.000000 21.51590 25.71870 4.690900
265 77.77780 55.55560 11.11110 33.88390 32.07120 6.374500
266 77.77780 55.55560 0.000000 33.67240 31.98660 5.260530
267 100.0000 55.55560 11.11110 51.56970 41.19010 7.203230
268 100.0000 55.55560 0.000000 51.35820 41.10550 6.089260
269 94.44440 61.11110 16.66670 49.02440 43.14040 8.820970
270 33.33330 66.66670 11.11110 19.15270 31.45720 7.031850
271 33.33330 66.66670 0.000000 18.94120 31.37260 5.917880
272 55.55560 66.66670 11.11110 26.43150 35.21020 7.372920
273 55.55560 66.66670 0.000000 26.22000 35.12560 6.258950
274 77.77780 66.66670 11.11110 38.58800 41.47810 7.942550
275 77.77780 66.66670 0.000000 38.37650 41.39350 6.828580
276 100.0000 66.66670 11.11110 56.27380 50.59700 8.771280
277 100.0000 66.66670 0.000000 56.06230 50.51240 7.657310
278 100.0000 77.77780 0.000000 61.89940 62.18510 9.603040
279 33.33330 77.77780 11.11110 24.98980 43.12990 8.977580
280 33.33330 77.77780 0.000000 24.77830 43.04530 7.863610
281 55.55560 77.77780 11.11110 32.26870 46.88290 9.318650
282 55.55560 77.77780 0.000000 32.05720 46.79830 8.204680
283 77.77780 77.77780 11.11110 44.42510 53.15080 9.888280
284 77.77780 77.77780 0.000000 44.21360 53.06620 8.774310
285 100.0000 77.77780 11.11110 62.11090 62.26960 10.71700
286 100.0000 88.88890 11.11110 69.14800 76.34190 13.06270
287 100.0000 88.88890 0.000000 68.93650 76.25730 11.94880
288 33.33330 88.88890 11.11110 32.02690 57.20220 11.32330
289 33.33330 88.88890 0.000000 31.81550 57.11760 10.20930
290 55.55560 88.88890 11.11110 39.30580 60.95520 11.66440
291 55.55560 88.88890 0.000000 39.09430 60.87060 10.55040
292 77.77780 88.88890 11.11110 51.46220 67.22310 12.23400
293 77.77780 88.88890 0.000000 51.25070 67.13850 11.12000
294 0.000000 61.11110 0.000000 12.74280 24.48240 4.914310
295 0.000000 75.00000 0.000000 19.50000 37.99480 7.166710
296 22.22220 100.0000 11.11110 38.26850 72.73680 13.99320
297 22.22220 100.0000 0.000000 38.05700 72.65220 12.87920
298 44.44440 100.0000 11.11110 43.40160 75.38340 14.23370
299 44.44440 100.0000 0.000000 43.19010 75.29880 13.11980
300 66.66670 100.0000 11.11110 53.02950 80.34760 14.68490
301 66.66670 100.0000 0.000000 52.81800 80.26300 13.57090
302 88.88890 100.0000 0.000000 67.66500 87.91810 14.26660
303 100.0000 100.0000 11.11110 77.44690 92.93730 15.82900
304 100.0000 100.0000 0.000000 77.23540 92.85270 14.71510
305 22.22220 11.11110 0.000000 3.070820 2.689570 1.217070
306 22.22220 0.000000 11.11110 2.863320 1.936270 2.191370
307 44.44440 11.11110 0.000000 8.203920 5.336220 1.457600
308 44.44440 0.000000 11.11110 7.996410 4.582910 2.431900
309 47.22220 0.000000 0.000000 8.726100 4.983600 1.362030
310 50.00000 0.000000 0.000000 9.739340 5.506030 1.409510
311 80.55560 0.000000 0.000000 26.04060 13.91100 2.173360
312 91.66670 0.000000 0.000000 34.51330 18.27960 2.570370
313 94.44440 0.000000 0.000000 36.85880 19.48890 2.680280
314 97.22220 0.000000 0.000000 39.29750 20.74630 2.794550
315 38.88890 5.555560 16.66670 6.692910 4.120450 3.518510
316 33.33330 11.11110 11.11110 5.339580 3.834890 2.427440
317 33.33330 11.11110 0.000000 5.128090 3.750310 1.313470
318 33.33330 0.000000 11.11110 4.920580 2.997000 2.287770
319 33.33330 0.000000 0.000000 4.709080 2.912420 1.173800
320 69.44440 0.000000 0.000000 18.97010 10.26540 1.842050
321 72.22220 0.000000 0.000000 20.61030 11.11110 1.918900
322 75.00000 0.000000 0.000000 22.33460 12.00020 1.999700
323 11.11110 22.22220 0.000000 2.915550 4.113440 1.500100
324 11.11110 22.22220 11.11110 3.127050 4.198020 2.614070
325 22.22220 22.22220 11.11110 4.295660 4.800560 2.668830
326 22.22220 22.22220 0.000000 4.084170 4.715980 1.554850
327 44.44440 22.22220 11.11110 9.428760 7.447210 2.909350
328 44.44440 22.22220 0.000000 9.217260 7.362620 1.795380
329 66.66670 22.22220 11.11110 19.05670 12.41140 3.360500
330 66.66670 22.22220 0.000000 18.84520 12.32680 2.246530
331 88.88890 22.22220 11.11110 33.90360 20.06650 4.056200
332 88.88890 22.22220 0.000000 33.69210 19.98190 2.942230
333 11.11110 33.33330 0.000000 4.699480 7.680780 2.094740
334 11.11110 33.33330 11.11110 4.910970 7.765370 3.208710
335 22.22220 33.33330 11.11110 6.079590 8.367910 3.263470
336 22.22220 33.33330 0.000000 5.868090 8.283320 2.149500
337 44.44440 33.33330 11.11110 11.21270 11.01460 3.504000
338 44.44440 33.33330 0.000000 11.00120 10.93000 2.390030
339 66.66670 33.33330 11.11110 20.84060 15.97870 3.955150
340 66.66670 33.33330 0.000000 20.62910 15.89410 2.841180
341 88.88890 33.33330 11.11110 35.68750 23.63380 4.650850
342 88.88890 33.33330 0.000000 35.47600 23.54930 3.536880
343 11.11110 44.44440 0.000000 7.366630 13.01440 2.983800
344 11.11110 44.44440 11.11110 7.578130 13.09890 4.097770
345 22.22220 44.44440 11.11110 8.746740 13.70150 4.152530
346 22.22220 44.44440 0.000000 8.535250 13.61690 3.038560
347 44.44440 44.44440 11.11110 13.87980 16.34810 4.393060
348 44.44440 44.44440 0.000000 13.66830 16.26350 3.279090
349 66.66670 44.44440 11.11110 23.50770 21.31230 4.844210
350 66.66670 44.44440 0.000000 23.29620 21.22770 3.730240
351 88.88890 44.44440 11.11110 38.35470 28.96740 5.539910
352 88.88890 44.44440 0.000000 38.14320 28.88280 4.425940
353 11.11110 55.55560 0.000000 11.01120 20.30250 4.198670
354 11.11110 55.55560 11.11110 11.22270 20.38710 5.312640
355 22.22220 55.55560 11.11110 12.39130 20.98960 5.367400
356 22.22220 55.55560 0.000000 12.17980 20.90500 4.253430
357 44.44440 55.55560 11.11110 17.52440 23.63620 5.607930
358 44.44440 55.55560 0.000000 17.31290 23.55170 4.493960
359 66.66670 55.55560 11.11110 27.15230 28.60040 6.059070
360 66.66670 55.55560 0.000000 26.94080 28.51580 4.945100
361 88.88890 55.55560 11.11110 41.99920 36.25550 6.754780
362 88.88890 55.55560 0.000000 41.78770 36.17100 5.640800
363 88.88890 88.88890 11.11110 59.57760 71.40740 12.61430
364 88.88890 88.88890 0.000000 59.36610 71.32280 11.50030
365 22.22220 66.66670 11.11110 17.09540 30.39650 6.935450
366 22.22220 66.66670 0.000000 16.88390 30.31190 5.821480
367 44.44440 66.66670 11.11110 22.22850 33.04310 7.175980
368 44.44440 66.66670 0.000000 22.01700 32.95860 6.062000
369 66.66670 66.66670 11.11110 31.85640 38.00730 7.627120
370 66.66670 66.66670 0.000000 31.64490 37.92270 6.513150
371 88.88890 66.66670 11.11110 46.70330 45.66240 8.322820
372 88.88890 66.66670 0.000000 46.49180 45.57790 7.208850
373 11.11110 77.77780 0.000000 21.55250 41.38200 7.712450
374 11.11110 77.77780 11.11110 21.76400 41.46660 8.826420
375 22.22220 77.77780 11.11110 22.93260 42.06920 8.881180
376 22.22220 77.77780 0.000000 22.72110 41.98460 7.767210
377 44.44440 77.77780 11.11110 28.06570 44.71580 9.121710
378 44.44440 77.77780 0.000000 27.85420 44.63120 8.007740
379 66.66670 77.77780 11.11110 37.69360 49.68000 9.572850
380 66.66670 77.77780 0.000000 37.48210 49.59540 8.458880
381 88.88890 77.77780 11.11110 52.54050 57.33510 10.26860
382 88.88890 77.77780 0.000000 52.32900 57.25050 9.154580
383 11.11110 88.88890 0.000000 28.58960 55.45430 10.05820
384 11.11110 88.88890 11.11110 28.80110 55.53890 11.17210
385 22.22220 88.88890 11.11110 29.96970 56.14140 11.22690
386 22.22220 88.88890 0.000000 29.75820 56.05680 10.11290
387 44.44440 88.88890 11.11110 35.10280 58.78810 11.46740
388 44.44440 88.88890 0.000000 34.89130 58.70350 10.35350
389 66.66670 88.88890 11.11110 44.73070 63.75220 11.91860
390 66.66670 88.88890 0.000000 44.51920 63.66770 10.80460
391 0.000000 69.44440 0.000000 16.58250 32.16060 6.194200
392 0.000000 72.22220 0.000000 18.00470 35.00470 6.668290
393 0.000000 100.0000 11.11110 36.61670 71.88510 13.91580
394 11.11110 100.0000 11.11110 37.09990 72.13420 13.93840
395 11.11110 100.0000 0.000000 36.88840 72.04970 12.82450
396 33.33330 100.0000 11.11110 40.32580 73.79750 14.08960
