dispcalGUI/ti1/d3-e4-s33-g97-m0-f1399-cRec709_Gamma22.ti1
CTI1   

ORIGINATOR "Argyll targen"
KEYWORD "OFPS_PATCHES"
OFPS_PATCHES "1200"
CREATED "Sat Oct 19 13:31:06 2013"
KEYWORD "COMP_GREY_STEPS"
COMP_GREY_STEPS "97"
KEYWORD "BLACK_COLOR_PATCHES"
BLACK_COLOR_PATCHES "4"
KEYWORD "APPROX_WHITE_POINT"
APPROX_WHITE_POINT "95.045781 100.000003 108.905751"
DESCRIPTOR "Argyll Calibration Target chart information 1"
KEYWORD "ACCURATE_EXPECTED_VALUES"
ACCURATE_EXPECTED_VALUES "true"
KEYWORD "WHITE_COLOR_PATCHES"
WHITE_COLOR_PATCHES "4"
KEYWORD "SINGLE_DIM_STEPS"
SINGLE_DIM_STEPS "33"
KEYWORD "COLOR_REP"
COLOR_REP "RGB"

NUMBER_OF_FIELDS 7
BEGIN_DATA_FORMAT
SAMPLE_ID RGB_R RGB_G RGB_B XYZ_X XYZ_Y XYZ_Z
END_DATA_FORMAT

NUMBER_OF_SETS 1399
BEGIN_DATA
1 100.0000000 100.0000000 100.0000000 95.04580000 100.0000000 108.9060000
2 7.291670000 7.291670000 7.291670000 0.299944000 0.315578000 0.343683000
3 0.000000000 9.375000000 0.000000000 0.196112000 0.392253000 0.065378800
4 0.000000000 6.250000000 0.000000000 0.080397300 0.160807000 0.026802400
5 9.375000000 0.000000000 0.000000000 0.226174000 0.116599000 0.010588200
6 13.76450000 0.000000000 10.04100000 0.641445000 0.317387000 0.630902000
7 21.87500000 0.000000000 0.000000000 1.457820000 0.751549000 0.068247200
8 37.08160000 58.71910000 42.62570000 18.50900000 25.68400000 18.48710000
9 63.02070000 71.56810000 69.87930000 40.27980000 45.25510000 49.62920000
10 63.91480000 100.0000000 70.17400000 59.44940000 82.77710000 56.26150000
11 42.70830000 72.18960000 57.16630000 29.08910000 40.31270000 33.90790000
12 42.45570000 81.95150000 83.87040000 41.60760000 54.30060000 72.54940000
13 0.000000000 25.91040000 82.07200000 13.52320000 8.344690000 62.16730000
14 0.000000000 35.67810000 100.0000000 21.75680000 14.63460000 96.29040000
15 49.22510000 75.79050000 100.0000000 46.16290000 50.56890000 101.9400000
16 28.12330000 48.03000000 57.11340000 14.92690000 17.66870000 30.22710000
17 36.47900000 47.42740000 58.38320000 16.94830000 18.39090000 31.62770000
18 16.72140000 22.62410000 24.22230000 2.967070000 3.458260000 4.696230000
19 40.33880000 47.15590000 26.18870000 13.39350000 16.95810000 7.536290000
20 43.20910000 57.99390000 26.60370000 18.28460000 25.33080000 9.069500000
21 31.82400000 21.44140000 9.791140000 4.643230000 4.176950000 1.132480000
22 35.92990000 18.83430000 0.000000000 5.251160000 4.057440000 0.506467000
23 48.58290000 22.67840000 0.000000000 9.798080000 7.082770000 0.850824000
24 100.0000000 40.12250000 30.82010000 47.39340000 31.40030000 10.67210000
25 100.0000000 42.32400000 54.18180000 51.32530000 33.93040000 28.42760000
26 100.0000000 50.53270000 75.11520000 58.82840000 41.04900000 55.24830000
27 58.75920000 47.64550000 86.97740000 33.09040000 25.92140000 72.87220000
28 58.79760000 53.20350000 100.0000000 39.80130000 31.68530000 98.63070000
29 57.37990000 0.000000000 55.27470000 17.05570000 8.226680000 26.37570000
30 73.43950000 0.000000000 57.67480000 26.29540000 12.93460000 29.31450000
31 100.0000000 61.40910000 67.68770000 61.12580000 48.79430000 46.30250000
32 75.00000000 0.000000000 0.000000000 21.90460000 11.29250000 1.025450000
33 78.12500000 0.000000000 0.000000000 23.96210000 12.35320000 1.121770000
34 81.25000000 0.000000000 0.000000000 26.12070000 13.46600000 1.222830000
35 84.37500000 0.000000000 0.000000000 28.38120000 14.63130000 1.328650000
36 87.50000000 0.000000000 0.000000000 30.74440000 15.84960000 1.439280000
37 90.62500000 0.000000000 0.000000000 33.21100000 17.12120000 1.554760000
38 93.75000000 0.000000000 0.000000000 35.78170000 18.44650000 1.675110000
39 100.0000000 0.000000000 56.92610000 46.46670000 23.35110000 29.46330000
40 100.0000000 0.000000000 67.38200000 48.81390000 24.29000000 41.82420000
41 100.0000000 0.000000000 82.74360000 53.13880000 26.02010000 64.59970000
42 15.62500000 0.000000000 0.000000000 0.695563000 0.358583000 0.032562500
43 12.50000000 0.000000000 0.000000000 0.425804000 0.219515000 0.019933800
44 12.34900000 8.888010000 0.000000000 0.588979000 0.562559000 0.077549900
45 4.166670000 4.166670000 4.166670000 0.087608500 0.092175100 0.100384000
46 0.000000000 12.50000000 0.000000000 0.369209000 0.738473000 0.123085000
47 0.000000000 15.62500000 0.000000000 0.603113000 1.206320000 0.201062000
48 0.000000000 18.75000000 0.000000000 0.900607000 1.801350000 0.300239000
49 0.000000000 16.22650000 11.08470000 0.798444000 1.368040000 0.972029000
50 0.000000000 31.25000000 0.000000000 2.769680000 5.539770000 0.923340000
51 0.000000000 34.37500000 0.000000000 3.415550000 6.831610000 1.138660000
52 0.000000000 37.50000000 0.000000000 4.135860000 8.272340000 1.378790000
53 0.000000000 40.62500000 0.000000000 4.931920000 9.864560000 1.644170000
54 0.000000000 43.75000000 0.000000000 5.804930000 11.61070000 1.935210000
55 0.000000000 46.87500000 0.000000000 6.756050000 13.51310000 2.252290000
56 0.000000000 50.00000000 0.000000000 7.786350000 15.57390000 2.595770000
57 0.000000000 53.12500000 0.000000000 8.896870000 17.79500000 2.965990000
58 0.000000000 56.25000000 0.000000000 10.08860000 20.17860000 3.363270000
59 0.000000000 59.37500000 0.000000000 11.36240000 22.72650000 3.787930000
60 0.000000000 62.50000000 0.000000000 12.71920000 25.44030000 4.240260000
61 0.000000000 65.62500000 0.000000000 14.15990000 28.32190000 4.720550000
62 0.000000000 71.87500000 0.000000000 17.29610000 34.59470000 5.766070000
63 0.000000000 75.00000000 0.000000000 18.99320000 37.98910000 6.331830000
64 0.000000000 78.12500000 0.000000000 20.77720000 41.55740000 6.926580000
65 0.000000000 81.25000000 0.000000000 22.64890000 45.30110000 7.550550000
66 0.000000000 84.37500000 0.000000000 24.60890000 49.22150000 8.203990000
67 0.000000000 87.50000000 0.000000000 26.65800000 53.32000000 8.887100000
68 0.000000000 90.62500000 0.000000000 28.79680000 57.59780000 9.600100000
69 0.000000000 93.75000000 0.000000000 31.02580000 62.05630000 10.34320000
70 0.000000000 96.87500000 0.000000000 33.34580000 66.69660000 11.11660000
71 0.000000000 100.0000000 0.000000000 35.75730000 71.51990000 11.92060000
72 26.43830000 100.0000000 49.49840000 41.81300000 74.19770000 32.26880000
73 32.67810000 100.0000000 100.0000000 57.33140000 80.55710000 107.1400000
74 0.000000000 66.43140000 55.86090000 19.56090000 31.09920000 31.26140000
75 0.000000000 87.45170000 71.99730000 35.38930000 56.76100000 55.02720000
76 64.21420000 56.14730000 34.41640000 27.34510000 28.81510000 13.18230000
77 93.10680000 78.54370000 35.77750000 58.14950000 60.97130000 18.57280000
78 0.000000000 0.000000000 15.62500000 0.304447000 0.121786000 1.603270000
79 0.000000000 0.000000000 18.75000000 0.454619000 0.181859000 2.394110000
80 0.000000000 10.59460000 27.27530000 1.293230000 0.927971000 5.544470000
81 0.000000000 0.000000000 28.12500000 1.108950000 0.443608000 5.839920000
82 0.000000000 0.000000000 34.37500000 1.724140000 0.689702000 9.079660000
83 0.000000000 12.18160000 38.16050000 2.518320000 1.565580000 11.54120000
84 0.000000000 0.000000000 37.50000000 2.087750000 0.835154000 10.99450000
85 0.000000000 0.000000000 40.62500000 2.489590000 0.995901000 13.11070000
86 0.000000000 0.000000000 43.75000000 2.930280000 1.172190000 15.43140000
87 0.000000000 0.000000000 46.87500000 3.410400000 1.364250000 17.95980000
88 0.000000000 0.000000000 50.00000000 3.930490000 1.572300000 20.69870000
89 0.000000000 0.000000000 53.12500000 4.491070000 1.796540000 23.65080000
90 0.000000000 0.000000000 56.25000000 5.092630000 2.037180000 26.81870000
91 0.000000000 0.000000000 59.37500000 5.735640000 2.294400000 30.20490000
92 0.000000000 0.000000000 62.50000000 6.420560000 2.568390000 33.81180000
93 0.000000000 0.000000000 65.62500000 7.147800000 2.859310000 37.64170000
94 0.000000000 0.000000000 68.75000000 7.917800000 3.167320000 41.69660000
95 0.000000000 0.000000000 71.87500000 8.730930000 3.492600000 45.97870000
96 0.000000000 0.000000000 75.00000000 9.587590000 3.835280000 50.49000000
97 0.000000000 0.000000000 78.12500000 10.48820000 4.195530000 55.23250000
98 0.000000000 0.000000000 81.25000000 11.43300000 4.573480000 60.20810000
99 0.000000000 0.000000000 84.37500000 12.42240000 4.969280000 65.41860000
100 0.000000000 0.000000000 87.50000000 13.45680000 5.383050000 70.86570000
101 0.000000000 0.000000000 90.62500000 14.53640000 5.814930000 76.55130000
102 0.000000000 0.000000000 93.75000000 15.66160000 6.265040000 82.47680000
103 0.000000000 0.000000000 96.87500000 16.83270000 6.733510000 88.64410000
104 0.000000000 0.000000000 100.0000000 18.05000000 7.220460000 95.05460000
105 49.30780000 0.000000000 100.0000000 26.75880000 11.71010000 95.46230000
106 86.53540000 45.56420000 100.0000000 54.40150000 35.38430000 98.57530000
107 0.000000000 0.000000000 12.50000000 0.186374000 0.074554300 0.981479000
108 0.000000000 0.000000000 3.125000000 0.008837370 0.003535180 0.046539200
109 0.000000000 3.125000000 0.000000000 0.017507000 0.035016500 0.005836370
110 6.250000000 0.000000000 0.000000000 0.092721300 0.047800500 0.004340700
111 1.041670000 1.041670000 1.041670000 0.004154170 0.004370710 0.004759950
112 2.083330000 2.083330000 2.083330000 0.019077200 0.020071600 0.021859200
113 3.125000000 3.125000000 3.125000000 0.046534900 0.048960500 0.053320800
114 0.000000000 0.000000000 6.250000000 0.040583900 0.016234600 0.213722000
115 5.208330000 5.208330000 5.208330000 0.143111000 0.150570000 0.163980000
116 6.250000000 6.250000000 6.250000000 0.213702000 0.224842000 0.244865000
117 12.50000000 12.50000000 12.50000000 0.981387000 1.032540000 1.124500000
118 14.58330000 14.58330000 14.58330000 1.377430000 1.449230000 1.578300000
119 15.62500000 15.62500000 15.62500000 1.603120000 1.686680000 1.836900000
120 16.66670000 16.66670000 16.66670000 1.847600000 1.943910000 2.117030000
121 17.70830000 17.70830000 17.70830000 2.111110000 2.221150000 2.418960000
122 18.75000000 18.75000000 18.75000000 2.393890000 2.518670000 2.742970000
123 19.79170000 19.79170000 19.79170000 2.696150000 2.836680000 3.089310000
124 20.83330000 20.83330000 20.83330000 3.018100000 3.175420000 3.458220000
125 21.87500000 21.87500000 21.87500000 3.359960000 3.535100000 3.849920000
126 22.91670000 22.91670000 22.91670000 3.721910000 3.915910000 4.264650000
127 23.95830000 23.95830000 23.95830000 4.104140000 4.318070000 4.702620000
128 25.00000000 25.00000000 25.00000000 4.506830000 4.741750000 5.164040000
129 26.04170000 26.04170000 26.04170000 4.930160000 5.187140000 5.649090000
130 27.08330000 27.08330000 27.08330000 5.374290000 5.654420000 6.157990000
131 28.12500000 28.12500000 28.12500000 5.839380000 6.143760000 6.690900000
132 29.16670000 29.16670000 29.16670000 6.325600000 6.655320000 7.248030000
133 30.20830000 30.20830000 30.20830000 6.833100000 7.189270000 7.829530000
134 31.25000000 31.25000000 31.25000000 7.362030000 7.745770000 8.435590000
135 32.29170000 32.29170000 32.29170000 7.912530000 8.324970000 9.066370000
136 33.33330000 33.33330000 33.33330000 8.484750000 8.927010000 9.722030000
137 34.37500000 34.37500000 34.37500000 9.078810000 9.552040000 10.40270000
138 35.41670000 35.41670000 35.41670000 9.694870000 10.20020000 11.10860000
139 36.45830000 36.45830000 36.45830000 10.33300000 10.87160000 11.83980000
140 37.50000000 37.50000000 37.50000000 10.99350000 11.56650000 12.59660000
141 38.54170000 38.54170000 38.54170000 11.67630000 12.28490000 13.37890000
142 39.58330000 39.58330000 39.58330000 12.38150000 13.02690000 14.18710000
143 40.62500000 40.62500000 40.62500000 13.10940000 13.79280000 15.02110000
144 41.66670000 41.66670000 41.66670000 13.86010000 14.58250000 15.88120000
145 42.70830000 42.70830000 42.70830000 14.63350000 15.39630000 16.76750000
146 43.75000000 43.75000000 43.75000000 15.43000000 16.23420000 17.68000000
147 44.79170000 44.79170000 44.79170000 16.24950000 17.09650000 18.61900000
148 45.83330000 45.83330000 45.83330000 17.09220000 17.98310000 19.58460000
149 46.87500000 46.87500000 46.87500000 17.95810000 18.89420000 20.57680000
150 47.91670000 47.91670000 47.91670000 18.84750000 19.82990000 21.59590000
151 48.95830000 48.95830000 48.95830000 19.76030000 20.79030000 22.64180000
152 50.00000000 50.00000000 50.00000000 20.69670000 21.77560000 23.71480000
153 51.04170000 51.04170000 51.04170000 21.65690000 22.78570000 24.81500000
154 52.08330000 52.08330000 52.08330000 22.64080000 23.82090000 25.94240000
155 53.12500000 53.12500000 53.12500000 23.64860000 24.88130000 27.09710000
156 54.16670000 54.16670000 54.16670000 24.68040000 25.96680000 28.27940000
157 55.20830000 55.20830000 55.20830000 25.73620000 27.07770000 29.48920000
158 56.25000000 56.25000000 56.25000000 26.81620000 28.21400000 30.72670000
159 57.29170000 57.29170000 57.29170000 27.92050000 29.37580000 31.99200000
160 58.33330000 58.33330000 58.33330000 29.04910000 30.56330000 33.28520000
161 59.37500000 59.37500000 59.37500000 30.20210000 31.77640000 34.60630000
162 60.41670000 60.41670000 60.41670000 31.37970000 33.01530000 35.95560000
163 61.45830000 61.45830000 61.45830000 32.58180000 34.28020000 37.33310000
164 62.50000000 62.50000000 62.50000000 33.80870000 35.57100000 38.73880000
165 63.54170000 63.54170000 63.54170000 35.06030000 36.88780000 40.17290000
166 64.58330000 64.58330000 64.58330000 36.33680000 38.23080000 41.63550000
167 65.62500000 65.62500000 65.62500000 37.63810000 39.60000000 43.12670000
168 66.66670000 66.66670000 66.66670000 38.96450000 40.99560000 44.64650000
169 67.70830000 67.70830000 67.70830000 40.31600000 42.41750000 46.19510000
170 68.75000000 68.75000000 68.75000000 41.69270000 43.86590000 47.77250000
171 69.79170000 69.79170000 69.79170000 43.09460000 45.34090000 49.37880000
172 70.83330000 70.83330000 70.83330000 44.52180000 46.84250000 51.01420000
173 71.87500000 71.87500000 71.87500000 45.97440000 48.37080000 52.67860000
174 72.91670000 72.91670000 72.91670000 47.45250000 49.92590000 54.37220000
175 73.95830000 73.95830000 73.95830000 48.95610000 51.50790000 56.09510000
176 75.00000000 75.00000000 75.00000000 50.48530000 53.11690000 57.84730000
177 76.04170000 76.04170000 76.04170000 52.04020000 54.75280000 59.62900000
178 77.08330000 77.08330000 77.08330000 53.62090000 56.41590000 61.44010000
179 78.12500000 78.12500000 78.12500000 55.22740000 58.10610000 63.28090000
180 79.16670000 79.16670000 79.16670000 56.85980000 59.82360000 65.15130000
181 80.20830000 80.20830000 80.20830000 58.51810000 61.56840000 67.05150000
182 81.25000000 81.25000000 81.25000000 60.20250000 63.34060000 68.98150000
183 82.29170000 82.29170000 82.29170000 61.91300000 65.14020000 70.94140000
184 83.33330000 83.33330000 83.33330000 63.64960000 66.96740000 72.93130000
185 84.37500000 84.37500000 84.37500000 65.41250000 68.82210000 74.95120000
186 85.41670000 85.41670000 85.41670000 67.20170000 70.70450000 77.00130000
187 86.45830000 86.45830000 86.45830000 69.01720000 72.61470000 79.08160000
188 87.50000000 87.50000000 87.50000000 70.85910000 74.55260000 81.19210000
189 88.54170000 88.54170000 88.54170000 72.72760000 76.51850000 83.33300000
190 89.58330000 89.58330000 89.58330000 74.62250000 78.51220000 85.50430000
191 90.62500000 90.62500000 90.62500000 76.54410000 80.53400000 87.70610000
192 91.66670000 91.66670000 91.66670000 78.49240000 82.58380000 89.93850000
193 92.70830000 92.70830000 92.70830000 80.46740000 84.66170000 92.20150000
194 93.75000000 93.75000000 93.75000000 82.46920000 86.76780000 94.49520000
195 94.79170000 94.79170000 94.79170000 84.49780000 88.90220000 96.81960000
196 95.83330000 95.83330000 95.83330000 86.55330000 91.06490000 99.17490000
197 96.87500000 96.87500000 96.87500000 88.63580000 93.25600000 101.5610000
198 20.48800000 26.98370000 18.49520000 3.708920000 4.838580000 3.050840000
199 22.21930000 37.17900000 37.69720000 7.679150000 9.740080000 12.54560000
200 0.000000000 17.86590000 17.72050000 1.211370000 1.780430000 2.384490000
201 0.000000000 27.77230000 21.60190000 2.757410000 4.522040000 3.981040000
202 25.07930000 25.57230000 54.14450000 8.433940000 6.452730000 25.34680000
203 44.64170000 35.69600000 65.35220000 17.79200000 13.86350000 38.86320000
204 44.21070000 64.50760000 70.22420000 28.78190000 34.12260000 48.55450000
205 44.44970000 82.51560000 100.0000000 48.41450000 57.66180000 103.1910000
206 0.000000000 100.0000000 53.06930000 40.23800000 73.31230000 35.51680000
207 0.000000000 100.0000000 87.95570000 49.36870000 76.96480000 83.60050000
208 54.47200000 100.0000000 100.0000000 64.64880000 84.32950000 107.4830000
209 8.333330000 8.333330000 8.333330000 0.402325000 0.423296000 0.460994000
210 13.54170000 13.54170000 13.54170000 1.170280000 1.231280000 1.340940000
211 13.16020000 48.39400000 20.86390000 8.298750000 14.97070000 5.466390000
212 20.05330000 74.93920000 85.08530000 32.81690000 43.60390000 73.01270000
213 26.72820000 76.29820000 100.0000000 40.03880000 47.83850000 101.7360000
214 34.78040000 91.27060000 100.0000000 51.34180000 67.80820000 104.9950000
215 58.65190000 59.70030000 30.15330000 25.54790000 30.09410000 11.23720000
216 66.72050000 70.63200000 31.08340000 34.96280000 42.57630000 13.61850000
217 100.0000000 80.54740000 64.65720000 70.37690000 68.47110000 45.76990000
218 100.0000000 84.20530000 79.50340000 76.63810000 74.62370000 67.49660000
219 19.37950000 0.000000000 18.34790000 1.550350000 0.749184000 2.334940000
220 70.19310000 0.000000000 85.02080000 31.56770000 14.81500000 67.41120000
221 86.02990000 0.000000000 100.0000000 47.66980000 22.49040000 96.44130000
222 100.0000000 0.000000000 100.0000000 59.28850000 28.48010000 96.98520000
223 100.0000000 57.27120000 100.0000000 69.78420000 49.47320000 100.4840000
224 100.0000000 70.92770000 100.0000000 76.08720000 62.08000000 102.5850000
225 44.43320000 0.000000000 23.79500000 7.694590000 3.878110000 4.367500000
226 69.13550000 0.000000000 24.60500000 19.13990000 9.771720000 5.209450000
227 100.0000000 0.000000000 26.26360000 42.19240000 21.64120000 6.954040000
228 100.0000000 16.89740000 89.26570000 56.01610000 28.31740000 76.21820000
229 100.0000000 23.28510000 100.0000000 60.73870000 31.38080000 97.46860000
230 19.70500000 46.04490000 0.000000000 7.654300000 13.58970000 2.219750000
231 25.13620000 73.92480000 0.000000000 20.37840000 37.82190000 6.226560000
232 31.81310000 86.87020000 0.000000000 29.56000000 54.19230000 8.902550000
233 27.68500000 50.29310000 50.30080000 14.31700000 18.63010000 23.71750000
234 40.95410000 51.18000000 83.27850000 26.05610000 24.20680000 66.56690000
235 41.03210000 56.30670000 100.0000000 33.97500000 30.44120000 98.69750000
236 21.44570000 0.000000000 54.43430000 6.133730000 2.614850000 25.01700000
237 37.07580000 0.000000000 66.63840000 12.04480000 5.355540000 39.14960000
238 55.00370000 0.000000000 69.41120000 19.16190000 8.944510000 43.10210000
239 58.22700000 66.79490000 77.62210000 37.61460000 40.05220000 59.94890000
240 10.99510000 47.09410000 49.37360000 10.96980000 15.34720000 22.42320000
241 0.000000000 49.74220000 55.88670000 12.71890000 17.40620000 29.00570000
242 0.000000000 63.44540000 64.11940000 19.93830000 29.01130000 40.15110000
243 0.000000000 61.94440000 71.07360000 20.99010000 28.35310000 49.01650000
244 0.000000000 71.92070000 76.46280000 27.32400000 38.64490000 58.45520000
245 0.000000000 0.000000000 9.375000000 0.098995900 0.039600900 0.521331000
246 0.000000000 0.000000000 0.000000000 0.000000000 0.000000000 0.000000000
247 11.45830000 11.45830000 11.45830000 0.810467000 0.852712000 0.928652000
248 0.000000000 0.000000000 21.87500000 0.638085000 0.255250000 3.360270000
249 0.000000000 52.12300000 74.19210000 17.89390000 20.81020000 52.14600000
250 0.000000000 66.25390000 83.75150000 26.68140000 33.81110000 69.18080000
251 0.000000000 78.79550000 100.0000000 39.22140000 49.56630000 102.1130000
252 0.000000000 89.09800000 100.0000000 45.79040000 62.70540000 104.3030000
253 0.000000000 100.0000000 100.0000000 53.80730000 78.74040000 106.9750000
254 25.00000000 0.000000000 0.000000000 1.955420000 1.008080000 0.091542300
255 26.11490000 18.58880000 0.000000000 3.036020000 2.877060000 0.395352000
256 32.27530000 25.50500000 0.000000000 5.201030000 5.311670000 0.751200000
257 68.79560000 57.98470000 72.00990000 37.66850000 34.41890000 50.61230000
258 79.11540000 59.97630000 77.39920000 46.52730000 40.04610000 59.13640000
259 100.0000000 77.03840000 87.44720000 74.82430000 66.93240000 79.41880000
260 100.0000000 82.41160000 100.0000000 82.65560000 75.21780000 104.7750000
261 9.375000000 9.375000000 9.375000000 0.521282000 0.548454000 0.597298000
262 12.22760000 13.21590000 0.000000000 0.822983000 1.043830000 0.158114000
263 10.41670000 10.41670000 10.41670000 0.657209000 0.691466000 0.753046000
264 44.12540000 0.000000000 42.31340000 9.544580000 4.606020000 14.65830000
265 43.07100000 0.000000000 55.47490000 11.40800000 5.310600000 26.31560000
266 65.36600000 40.11650000 69.80570000 29.17390000 21.21630000 45.47480000
267 68.73670000 47.75840000 100.0000000 43.17120000 30.62170000 98.24780000
268 77.32760000 74.79350000 100.0000000 60.35580000 57.05750000 102.4450000
269 80.07160000 85.75010000 100.0000000 68.84430000 71.26360000 104.7400000
270 0.000000000 64.14410000 30.77810000 14.81880000 27.47620000 11.60990000
271 0.000000000 86.90320000 40.98810000 28.79860000 53.53900000 22.12400000
272 48.34400000 100.0000000 63.01860000 50.63440000 78.43430000 46.74290000
273 47.75850000 100.0000000 75.82670000 53.69710000 79.63400000 64.02270000
274 77.13820000 100.0000000 80.79440000 70.35120000 88.04980000 72.47950000
275 49.25120000 63.55790000 44.63690000 24.94680000 32.10030000 20.93410000
276 75.01040000 82.10090000 56.48790000 50.22520000 59.70310000 35.82010000
277 84.35400000 100.0000000 59.68380000 69.92440000 88.46390000 43.80000000
278 61.23170000 58.37150000 50.80110000 29.03690000 30.74740000 25.74000000
279 78.72560000 60.67590000 56.82740000 41.49450000 38.48230000 32.54160000
280 33.15490000 22.58050000 32.74330000 6.542880000 5.206430000 8.780920000
281 52.11920000 19.96370000 72.61160000 19.80100000 10.71150000 47.82650000
282 71.14580000 17.01940000 77.10610000 30.42260000 15.58740000 54.81650000
283 72.62350000 62.47080000 100.0000000 51.16320000 43.15510000 100.2460000
284 14.69150000 0.000000000 24.76360000 1.445620000 0.648447000 4.442500000
285 17.87430000 0.000000000 37.74360000 3.052650000 1.329130000 11.19590000
286 35.48240000 19.79100000 58.59770000 10.80970000 6.434900000 29.87800000
287 46.83880000 19.65740000 100.0000000 26.82770000 13.22910000 95.75190000
288 83.16250000 20.36820000 100.0000000 46.62240000 23.55440000 96.70180000
289 22.50850000 0.000000000 73.43420000 10.70520000 4.461650000 48.27350000
290 36.26920000 9.615000000 77.09570000 14.82630000 6.774590000 53.92140000
291 26.51430000 0.000000000 100.0000000 20.27540000 8.367730000 95.15880000
292 24.47900000 27.68470000 100.0000000 22.03880000 12.42710000 95.84940000
293 42.04070000 33.53800000 100.0000000 27.41830000 16.85330000 96.42030000
294 22.46840000 16.38610000 40.49400000 4.687800000 3.125300000 13.31350000
295 81.50140000 25.35080000 49.40740000 31.87580000 18.58620000 21.97700000
296 85.74900000 31.90000000 62.55020000 38.73740000 23.52970000 36.21440000
297 100.0000000 36.20470000 74.32280000 54.46490000 32.67610000 52.69970000
298 100.0000000 42.33790000 100.0000000 64.68930000 39.28260000 98.78570000
299 100.0000000 92.20940000 100.0000000 89.20410000 88.31570000 106.9580000
300 0.000000000 12.59870000 22.25710000 1.038510000 1.016520000 3.615960000
301 0.000000000 39.95890000 51.03280000 8.867060000 11.15690000 23.23600000
302 0.000000000 39.35570000 65.62680000 11.74760000 12.05890000 39.17730000
303 13.98040000 34.92670000 59.57380000 9.859880000 9.667180000 31.63260000
