dispcalGUI/ti1/d3-e4-s33-g97-m0-f1399-csRGB.ti1
CTI1   

ORIGINATOR "Argyll targen"
KEYWORD "OFPS_PATCHES"
OFPS_PATCHES "1200"
CREATED "Wed Dec 18 02:51:42 2013"
KEYWORD "COMP_GREY_STEPS"
COMP_GREY_STEPS "97"
KEYWORD "BLACK_COLOR_PATCHES"
BLACK_COLOR_PATCHES "4"
KEYWORD "APPROX_WHITE_POINT"
APPROX_WHITE_POINT "95.045781 100.000003 108.905751"
DESCRIPTOR "Argyll Calibration Target chart information 1"
KEYWORD "DARK_REGION_EMPHASIS"
DARK_REGION_EMPHASIS "1.6"
KEYWORD "ACCURATE_EXPECTED_VALUES"
ACCURATE_EXPECTED_VALUES "true"
KEYWORD "WHITE_COLOR_PATCHES"
WHITE_COLOR_PATCHES "4"
KEYWORD "SINGLE_DIM_STEPS"
SINGLE_DIM_STEPS "33"
KEYWORD "COLOR_REP"
COLOR_REP "RGB"

NUMBER_OF_FIELDS 7
BEGIN_DATA_FORMAT
SAMPLE_ID RGB_R RGB_G RGB_B XYZ_X XYZ_Y XYZ_Z
END_DATA_FORMAT

NUMBER_OF_SETS 1399
BEGIN_DATA
1 100.000000 100.000000 100.000000 95.0458000 100.000000 108.906000
2 0.00000000 100.000000 19.1348000 36.3074000 71.7399000 14.8174000
3 23.2090000 100.000000 25.1681000 38.5021000 72.8274000 16.9054000
4 43.9719000 100.000000 38.0742000 44.6173000 75.8378000 23.6186000
5 13.4272000 23.1704000 0.00000000 2.23545000 3.48033000 0.55397800
6 64.8192000 22.7815000 40.9548000 19.6152000 12.0740000 14.5103000
7 70.4989000 40.1588000 52.8687000 27.9199000 21.0028000 25.4368000
8 100.000000 38.8935000 67.3430000 53.1368000 33.1852000 42.4983000
9 100.000000 69.3010000 100.000000 74.9535000 59.8125000 102.208000
10 100.000000 92.8920000 100.000000 89.5343000 88.9762000 107.068000
11 41.2621000 37.6691000 68.6778000 17.7891000 14.4926000 42.4854000
12 15.7658000 15.7658000 15.7658000 2.03515000 2.14123000 2.33193000
13 10.6838000 10.6838000 10.6838000 1.05618000 1.11123000 1.21019000
14 15.1007000 15.1007000 15.1007000 1.88568000 1.98398000 2.16066000
15 18.0810000 22.0477000 13.4899000 2.85077000 3.55070000 2.07848000
16 22.4501000 53.8074000 46.8628000 14.0361000 20.1716000 20.7654000
17 0.00000000 15.1007000 0.00000000 0.70941600 1.41894000 0.23650100
18 0.00000000 11.2903000 0.00000000 0.43404200 0.86814800 0.14469800
19 2.94118000 0.00000000 0.00000000 0.09403720 0.04847890 0.00440231
20 0.00000000 0.00000000 0.00000000 0.00000000 0.00000000 0.00000000
21 8.33333000 8.33333000 8.33333000 0.72515300 0.76295100 0.83089800
22 11.9048000 11.9048000 11.9048000 1.25804000 1.32361000 1.44149000
23 18.1454000 0.00000000 15.3721000 1.50873000 0.73510500 1.99961000
24 69.7042000 0.00000000 44.1013000 21.2515000 10.6150000 16.3936000
25 72.2578000 0.00000000 57.7919000 25.1240000 12.3405000 28.8159000
26 15.1007000 0.00000000 0.00000000 0.81816100 0.42178600 0.03830180
27 13.4594000 0.00000000 8.13422000 0.80308500 0.39865800 0.73150600
28 50.0000000 0.00000000 0.00000000 8.82693000 4.55054000 0.41322900
29 53.7383000 0.00000000 0.00000000 10.3213000 5.32093000 0.48318600
30 66.3690000 48.4891000 0.00000000 23.5763000 22.7888000 3.15639000
31 66.0177000 57.9625000 0.00000000 26.7797000 29.4808000 4.27926000
32 62.8987000 60.5163000 42.8355000 28.9550000 31.8390000 19.1536000
33 64.9515000 86.8763000 100.000000 59.6926000 67.2820000 104.453000
34 0.00000000 15.0643000 26.7722000 1.75812000 1.83357000 5.77417000
35 0.00000000 41.0376000 49.2125000 8.74824000 11.5242000 21.3315000
36 0.00000000 50.6622000 51.1454000 11.9323000 17.3737000 23.9935000
37 0.00000000 65.5852000 73.7227000 22.9383000 31.3567000 52.4190000
38 60.5048000 66.4766000 100.000000 45.7139000 42.6870000 100.443000
39 42.2480000 0.00000000 34.5520000 7.91789000 3.87793000 9.58788000
40 70.6499000 0.00000000 33.7018000 20.5354000 10.3929000 9.71556000
41 100.000000 0.00000000 48.4358000 44.8458000 22.7027000 20.9276000
42 100.000000 0.00000000 58.5230000 46.6819000 23.4372000 30.5966000
43 11.2903000 0.00000000 0.00000000 0.50057500 0.25806100 0.02343420
44 4.49102000 0.00000000 0.00000000 0.14392100 0.07419570 0.00673761
45 0.00000000 4.49102000 0.00000000 0.12479200 0.24960300 0.04160250
46 9.24638000 7.97181000 0.00000000 0.62292000 0.70137600 0.10255600
47 10.0849000 10.0849000 10.0849000 0.96545100 1.01577000 1.10624000
48 0.00000000 9.49367000 0.00000000 0.33075700 0.66156300 0.11026600
49 0.00000000 13.1579000 0.00000000 0.55919000 1.11846000 0.18642000
50 0.00000000 17.1233000 0.00000000 0.88822300 1.77658000 0.29611100
51 0.00000000 19.2308000 0.00000000 1.09991000 2.19998000 0.36668200
52 0.00000000 21.4286000 0.00000000 1.34917000 2.69853000 0.44977700
53 0.00000000 23.7226000 0.00000000 1.64144000 3.28312000 0.54721300
54 0.00000000 26.1194000 0.00000000 1.98357000 3.96744000 0.66127300
55 0.00000000 28.6260000 0.00000000 2.38235000 4.76505000 0.79421400
56 0.00000000 31.2500000 0.00000000 2.84579000 5.69200000 0.94871400
57 0.00000000 34.0000000 0.00000000 3.38358000 6.76767000 1.12800000
58 0.00000000 36.8852000 0.00000000 4.00747000 8.01553000 1.33599000
59 0.00000000 39.9160000 0.00000000 4.73016000 9.46103000 1.57692000
60 0.00000000 43.1034000 0.00000000 5.56614000 11.1331000 1.85561000
61 0.00000000 46.4602000 0.00000000 6.53372000 13.0684000 2.17817000
62 0.00000000 50.0000000 0.00000000 7.65371000 15.3085000 2.55155000
63 0.00000000 53.7383000 0.00000000 8.94944000 17.9002000 2.98351000
64 0.00000000 57.6923000 0.00000000 10.4508000 20.9030000 3.48401000
65 0.00000000 61.8812000 0.00000000 12.1911000 24.3840000 4.06419000
66 0.00000000 66.3265000 0.00000000 14.2114000 28.4249000 4.73771000
67 0.00000000 71.0526000 0.00000000 16.5600000 33.1225000 5.52069000
68 0.00000000 76.0870000 0.00000000 19.2952000 38.5932000 6.43252000
69 0.00000000 81.4607000 0.00000000 22.4873000 44.9779000 7.49668000
70 0.00000000 87.2093000 0.00000000 26.2212000 52.4462000 8.74147000
71 0.00000000 93.3735000 0.00000000 30.6023000 61.2091000 10.2020000
72 24.4173000 100.000000 89.6481000 51.8480000 78.1880000 86.2009000
73 44.6931000 100.000000 93.0039000 58.0018000 81.2193000 92.8677000
74 54.8807000 100.000000 100.000000 64.6128000 84.3109000 107.481000
75 9.49367000 9.49367000 9.49367000 0.87917900 0.92500600 1.00738000
76 7.76398000 0.00000000 0.00000000 0.28467900 0.14676000 0.01332710
77 9.49367000 0.00000000 0.00000000 0.38145800 0.19665300 0.01785780
78 0.00000000 0.00000000 2.94118000 0.04115990 0.01646500 0.21675600
79 0.00000000 0.00000000 4.49102000 0.06299410 0.02519920 0.33173800
80 0.00000000 0.00000000 6.09756000 0.09024210 0.03609920 0.47523200
81 0.00000000 0.00000000 13.1579000 0.28227500 0.11291700 1.48651000
82 0.00000000 0.00000000 17.1233000 0.44836800 0.17935900 2.36119000
83 0.00000000 0.00000000 19.2308000 0.55522600 0.22210500 2.92392000
84 0.00000000 0.00000000 21.4286000 0.68104800 0.27243700 3.58653000
85 0.00000000 0.00000000 23.7226000 0.82858400 0.33145500 4.36348000
86 0.00000000 0.00000000 26.1194000 1.00129000 0.40054300 5.27299000
87 0.00000000 8.74335000 25.0667000 1.21563000 0.95424200 4.95909000
88 0.00000000 0.00000000 28.6260000 1.20259000 0.48106700 6.33307000
89 0.00000000 0.00000000 31.2500000 1.43653000 0.57465000 7.56504000
90 0.00000000 0.00000000 39.9160000 2.38775000 0.95516100 12.5743000
91 0.00000000 0.00000000 43.1034000 2.80974000 1.12397000 14.7966000
92 0.00000000 0.00000000 46.4602000 3.29817000 1.31935000 17.3688000
93 0.00000000 10.7805000 50.7525000 4.39362000 2.40287000 21.1483000
94 0.00000000 0.00000000 50.0000000 3.86353000 1.54551000 20.3461000
95 0.00000000 0.00000000 53.7383000 4.51761000 1.80716000 23.7906000
96 0.00000000 0.00000000 57.6923000 5.27546000 2.11032000 27.7815000
97 0.00000000 0.00000000 61.8812000 6.15396000 2.46174000 32.4079000
98 0.00000000 0.00000000 66.3265000 7.17379000 2.86970000 37.7785000
99 0.00000000 0.00000000 71.0526000 8.35937000 3.34396000 44.0220000
100 0.00000000 0.00000000 76.0870000 9.74006000 3.89627000 51.2929000
101 0.00000000 0.00000000 81.4607000 11.3514000 4.54085000 59.7785000
102 0.00000000 0.00000000 87.2093000 13.2362000 5.29484000 69.7045000
103 0.00000000 0.00000000 93.3735000 15.4478000 6.17951000 81.3509000
104 49.9052000 13.6977000 100.000000 27.4395000 12.9502000 95.6658000
105 0.00000000 0.00000000 11.2903000 0.21910100 0.08764600 1.15383000
106 0.00000000 0.00000000 1.44509000 0.02008300 0.00803370 0.10576100
107 0.00000000 6.09756000 0.00000000 0.17877100 0.35756800 0.05959760
108 0.47619000 0.47619000 0.47619000 0.03532530 0.03716660 0.04047660
109 0.95785400 0.95785400 0.95785400 0.07105660 0.07476040 0.08141840
110 1.44509000 1.44509000 1.44509000 0.10575100 0.11126300 0.12117200
111 0.00000000 0.00000000 9.49367000 0.16696400 0.06678970 0.87926100
112 1.93798000 1.93798000 1.93798000 0.14231500 0.14973400 0.16306800
113 2.43665000 2.43665000 2.43665000 0.17930800 0.18865400 0.20545500
114 2.94118000 2.94118000 2.94118000 0.21673500 0.22803300 0.24834100
115 3.45168000 3.45168000 3.45168000 0.25415500 0.26740300 0.29121700
116 3.96825000 3.96825000 3.96825000 0.29147700 0.30667000 0.33398100
117 4.49102000 4.49102000 4.49102000 0.33170700 0.34899800 0.38007800
118 5.02008000 5.02008000 5.02008000 0.37582100 0.39541100 0.43062500
119 5.55556000 5.55556000 5.55556000 0.42348900 0.44556300 0.48524400
120 0.00000000 7.76398000 0.00000000 0.24684100 0.49371900 0.08229050
121 0.00000000 13.4276000 8.69734000 0.72522600 1.21619000 0.96427300
122 6.09756000 6.09756000 6.09756000 0.47518700 0.49995600 0.54448100
123 6.64622000 6.64622000 6.64622000 0.53071800 0.55838200 0.60811000
124 0.00000000 0.00000000 7.76398000 0.12460300 0.04984460 0.65618500
125 0.00000000 1.44509000 0.00000000 0.03978460 0.07957520 0.01326320
126 6.09756000 0.00000000 0.00000000 0.20617400 0.10628900 0.00965196
127 0.00000000 2.94118000 0.00000000 0.08153830 0.16308900 0.02718280
128 7.20165000 7.20165000 7.20165000 0.59082900 0.62162600 0.67698700
129 7.76398000 7.76398000 7.76398000 0.65612400 0.69032400 0.75180200
130 12.5272000 12.5272000 12.5272000 1.36886000 1.44021000 1.56847000
131 13.1579000 13.1579000 13.1579000 1.48637000 1.56385000 1.70312000
132 14.4444000 14.4444000 14.4444000 1.74433000 1.83525000 1.99870000
133 13.7969000 13.7969000 13.7969000 1.61128000 1.69527000 1.84624000
134 16.4399000 16.4399000 16.4399000 2.19296000 2.30726000 2.51274000
135 17.1233000 17.1233000 17.1233000 2.36097000 2.48403000 2.70525000
136 17.8161000 17.8161000 17.8161000 2.53753000 2.66980000 2.90757000
137 18.5185000 18.5185000 18.5185000 2.72512000 2.86717000 3.12251000
138 19.2308000 19.2308000 19.2308000 2.92365000 3.07604000 3.34999000
139 19.9531000 19.9531000 19.9531000 3.13323000 3.29655000 3.59013000
140 20.6856000 20.6856000 20.6856000 3.35294000 3.52771000 3.84188000
141 21.4286000 21.4286000 21.4286000 3.58619000 3.77312000 4.10914000
142 22.1823000 22.1823000 22.1823000 3.83209000 4.03183000 4.39090000
143 22.9469000 22.9469000 22.9469000 4.09119000 4.30444000 4.68778000
144 23.7226000 23.7226000 23.7226000 4.36307000 4.59049000 4.99931000
145 24.5098000 24.5098000 24.5098000 4.65168000 4.89415000 5.33001000
146 25.3086000 25.3086000 25.3086000 4.95365000 5.21186000 5.67602000
147 26.1194000 26.1194000 26.1194000 5.27250000 5.54733000 6.04136000
148 26.9424000 26.9424000 26.9424000 5.60742000 5.89970000 6.42511000
149 27.7778000 27.7778000 27.7778000 5.96051000 6.27120000 6.82970000
150 28.6260000 28.6260000 28.6260000 6.33248000 6.66256000 7.25591000
151 29.4872000 29.4872000 29.4872000 6.72256000 7.07297000 7.70287000
152 30.3618000 30.3618000 30.3618000 7.13293000 7.50473000 8.17308000
153 32.1522000 32.1522000 32.1522000 8.01744000 8.43535000 9.18658000
154 33.0688000 33.0688000 33.0688000 8.49382000 8.93656000 9.73242000
155 34.0000000 34.0000000 34.0000000 8.99384000 9.46264000 10.3054000
156 34.9462000 34.9462000 34.9462000 9.51981000 10.0160000 10.9080000
157 35.9079000 35.9079000 35.9079000 10.0726000 10.5976000 11.5414000
158 36.8852000 36.8852000 36.8852000 10.6522000 11.2074000 12.2055000
159 37.8788000 37.8788000 37.8788000 11.2616000 11.8486000 12.9038000
160 38.8889000 38.8889000 38.8889000 11.9010000 12.5213000 13.6364000
161 39.9160000 39.9160000 39.9160000 12.5732000 13.2285000 14.4066000
162 40.9605000 40.9605000 40.9605000 13.2778000 13.9699000 15.2140000
163 42.0228000 42.0228000 42.0228000 14.0185000 14.7492000 16.0627000
164 43.1034000 43.1034000 43.1034000 14.7952000 15.5664000 16.9527000
165 44.2029000 44.2029000 44.2029000 15.6111000 16.4248000 17.8875000
166 45.3216000 45.3216000 45.3216000 16.4681000 17.3265000 18.8696000
167 46.4602000 46.4602000 46.4602000 17.3671000 18.2724000 19.8997000
168 47.6190000 47.6190000 47.6190000 18.3116000 19.2660000 20.9818000
169 48.7988000 48.7988000 48.7988000 19.3025000 20.3087000 22.1173000
170 50.0000000 50.0000000 50.0000000 20.3442000 21.4046000 23.3108000
171 51.2232000 51.2232000 51.2232000 21.4367000 22.5541000 24.5627000
172 52.4691000 52.4691000 52.4691000 22.5839000 23.7611000 25.8772000
173 53.7383000 53.7383000 53.7383000 23.7883000 25.0283000 27.2573000
174 55.0314000 55.0314000 55.0314000 25.0542000 26.3601000 28.7077000
175 56.3492000 56.3492000 56.3492000 26.3828000 27.7580000 30.2301000
176 57.6923000 57.6923000 57.6923000 27.7789000 29.2269000 31.8298000
177 59.0615000 59.0615000 59.0615000 29.2462000 30.7706000 33.5110000
178 60.4575000 60.4575000 60.4575000 30.7864000 32.3911000 35.2758000
179 61.8812000 61.8812000 61.8812000 32.4049000 34.0940000 37.1303000
180 63.3333000 63.3333000 63.3333000 34.1068000 35.8846000 39.0804000
181 64.8148000 64.8148000 64.8148000 35.8959000 37.7669000 41.1304000
182 66.3265000 66.3265000 66.3265000 37.7750000 39.7440000 43.2835000
183 67.8694000 67.8694000 67.8694000 39.7525000 41.8246000 45.5494000
184 69.4444000 69.4444000 69.4444000 41.8319000 44.0124000 47.9320000
185 71.0526000 71.0526000 71.0526000 44.0179000 46.3123000 50.4368000
186 72.6950000 72.6950000 72.6950000 46.3189000 48.7333000 53.0733000
187 74.3728000 74.3728000 74.3728000 48.7397000 51.2802000 55.8471000
188 76.0870000 76.0870000 76.0870000 51.2882000 53.9615000 58.7672000
189 77.8388000 77.8388000 77.8388000 53.9711000 56.7843000 61.8413000
190 79.6296000 79.6296000 79.6296000 56.7969000 59.7574000 65.0792000
191 81.4607000 81.4607000 81.4607000 59.7730000 62.8886000 68.4893000
192 83.3333000 83.3333000 83.3333000 62.9085000 66.1875000 72.0820000
193 85.2490000 85.2490000 85.2490000 66.2132000 69.6645000 75.8686000
194 87.2093000 87.2093000 87.2093000 69.6980000 73.3310000 79.8616000
195 91.2698000 91.2698000 91.2698000 77.2506000 81.2773000 88.5156000
196 93.3735000 93.3735000 93.3735000 81.3434000 85.5833000 93.2052000
197 0.00000000 8.26484000 16.2106000 0.67558200 0.70149300 2.22831000
198 0.00000000 0.00000000 15.1007000 0.35810800 0.14325200 1.88586000
199 8.87450000 0.00000000 10.5284000 0.54100000 0.25624900 1.04895000
200 12.4894000 0.00000000 27.0378000 1.66342000 0.73367400 5.67524000
201 39.7859000 18.0465000 27.4062000 7.49722000 5.18943000 6.38220000
202 30.0491000 0.00000000 17.2602000 3.48536000 1.74426000 2.53760000
203 33.7048000 11.4389000 14.2263000 4.59906000 2.99243000 2.02652000
204 44.0269000 0.00000000 10.3780000 6.90784000 3.53906000 1.32368000
205 43.1034000 0.00000000 0.00000000 6.41936000 3.30937000 0.30051900
206 100.000000 89.8809000 0.00000000 69.3100000 77.4068000 11.2889000
207 100.000000 100.000000 0.00000000 76.9958000 92.7795000 13.8511000
208 28.3367000 28.4597000 0.00000000 5.04618000 6.09701000 0.91094300
209 31.2500000 31.2500000 31.2500000 7.56434000 7.95863000 8.66740000
210 48.0180000 43.7574000 31.0246000 15.2518000 16.2322000 9.74800000
211 58.8104000 100.000000 34.1552000 50.0529000 78.6905000 21.5890000
212 23.6808000 52.4560000 0.00000000 10.3783000 17.9573000 2.91924000
213 28.1628000 100.000000 67.3122000 45.8284000 75.8557000 51.0801000
214 47.4431000 100.000000 83.9682000 55.7920000 80.4447000 76.2879000
215 0.00000000 22.9101000 31.9648000 3.03861000 3.67048000 8.43380000
216 0.00000000 23.0123000 41.0478000 4.08057000 4.10883000 13.8546000
217 76.0448000 43.2310000 42.1823000 30.5102000 23.7345000 17.0411000
218 27.2075000 82.4296000 0.00000000 25.5747000 47.4693000 7.81489000
219 25.6842000 100.000000 0.00000000 37.9701000 72.6606000 12.0242000
220 46.9857000 100.000000 63.9244000 50.0882000 78.1443000 47.0993000
221 0.00000000 32.1552000 14.4848000 3.34968000 6.16725000 2.75860000
222 0.00000000 42.8461000 18.8042000 6.02816000 11.2053000 4.63582000
223 0.00000000 100.000000 45.6618000 38.9353000 72.7912000 28.6563000
224 0.00000000 100.000000 59.0502000 41.3091000 73.7407000 41.1572000
225 0.00000000 100.000000 70.9482000 44.0893000 74.8529000 55.7985000
226 68.5537000 100.000000 72.8416000 62.2296000 84.1466000 59.2782000
227 57.6923000 0.00000000 0.00000000 12.0527000 6.21353000 0.56424300
228 93.3735000 0.00000000 0.00000000 35.2933000 18.1947000 1.65224000
229 100.000000 0.00000000 0.00000000 41.2385000 21.2596000 1.93056000
230 100.000000 0.00000000 15.8540000 41.6287000 21.4158000 3.98581000
231 100.000000 0.00000000 37.2421000 43.3026000 22.0854000 12.8008000
232 100.000000 0.00000000 71.2229000 49.6426000 24.6215000 46.1884000
233 100.000000 0.00000000 84.3269000 53.5086000 26.1680000 66.5473000
234 0.00000000 15.6958000 20.0851000 1.36203000 1.76023000 3.42594000
235 18.3654000 11.2792000 20.5298000 2.22580000 1.71832000 3.50513000
236 26.2280000 18.4091000 36.5642000 5.30712000 4.01229000 10.9068000
237 73.6972000 34.2141000 66.5938000 31.3865000 20.4336000 40.2302000
238 76.5347000 50.6188000 91.7928000 45.2685000 33.2900000 81.9391000
239 58.1607000 30.7359000 73.7896000 24.1145000 15.4656000 49.3865000
240 76.5772000 31.3811000 85.4851000 38.0982000 22.4400000 68.6476000
241 100.000000 37.2933000 88.3694000 58.9765000 34.9172000 75.1138000
242 26.1194000 0.00000000 0.00000000 2.28763000 1.17934000 0.10709400
243 23.7226000 0.00000000 0.00000000 1.89305000 0.97592300 0.08862220
244 22.2528000 0.00000000 89.8440000 15.8299000 6.52556000 74.6326000
245 28.0836000 100.000000 100.000000 56.4512000 80.1033000 107.099000
246 0.00000000 31.8379000 28.9445000 4.18564000 6.40448000 7.46050000
247 0.00000000 33.0507000 69.7292000 11.2086000 9.59109000 43.2820000
248 0.00000000 36.3014000 100.000000 21.9264000 14.9738000 96.3469000
249 88.5681000 71.6202000 100.000000 66.2215000 57.0792000 102.140000
250 28.9171000 15.4359000 0.00000000 3.54124000 2.92049000 0.37711400
251 68.0512000 29.6287000 0.00000000 19.9044000 14.0524000 1.66357000
252 84.1269000 37.7655000 0.00000000 32.0937000 22.7958000 2.70892000
253 100.000000 38.4231000 0.00000000 45.6040000 29.9913000 3.38590000
254 100.000000 50.9704000 0.00000000 49.2171000 37.2181000 4.59044000
255 100.000000 52.6799000 40.5883000 52.2822000 39.3912000 17.8127000
256 100.000000 73.3962000 47.0799000 62.4348000 58.2257000 25.7358000
257 100.000000 74.3984000 59.6829000 65.2723000 60.2370000 37.9768000
258 100.000000 78.6331000 100.000000 80.0604000 70.0269000 103.910000
259 100.000000 86.8043000 100.000000 85.2355000 80.3780000 105.635000
260 0.00000000 52.7833000 14.6690000 8.94773000 17.3521000 4.66207000
261 0.00000000 69.2117000 20.0708000 16.2218000 31.4833000 8.37583000
262 25.2421000 71.4450000 100.000000 36.9529000 41.8547000 100.744000
263 0.00000000 27.1401000 86.3106000 15.0712000 9.45446000 68.8074000
264 0.00000000 26.6906000 100.000000 20.1208000 11.3623000 95.7450000
265 86.4240000 42.3309000 100.000000 53.0359000 33.2090000 98.2274000
266 100.000000 59.2060000 100.000000 70.3501000 50.6050000 100.673000
267 35.2455000 18.5016000 32.6664000 6.80082000 4.84388000 8.82178000
268 35.6747000 34.4323000 52.1691000 12.0204000 10.8643000 23.6668000
269 59.1188000 49.5159000 60.7281000 26.1148000 23.9072000 34.1867000
270 67.4142000 50.4586000 65.0893000 31.6790000 27.1257000 39.6336000
271 75.0155000 56.5366000 77.1401000 41.6008000 35.1298000 57.2384000
272 75.5069000 63.7712000 100.000000 52.9531000 44.5560000 100.422000
273 50.2406000 31.3702000 60.2528000 17.5900000 12.6557000 31.9343000
274 59.9063000 30.3832000 62.9219000 22.1633000 14.6780000 35.1318000
275 81.6226000 100.000000 71.5472000 70.2968000 88.3455000 57.8474000
276 92.0881000 100.000000 82.6130000 81.6751000 93.8387000 75.2188000
277 100.000000 100.000000 89.7259000 91.1107000 98.4259000 88.1831000
278 26.5089000 61.8104000 26.0151000 15.5099000 25.9350000 9.39552000
279 32.6678000 74.6238000 46.0858000 25.3108000 40.1026000 23.3980000
280 0.00000000 15.9253000 37.5679000 2.88158000 2.40001000 11.3298000
281 0.00000000 13.3150000 64.6595000 7.35137000 3.85376000 35.8991000
282 0.00000000 75.6633000 100.000000 37.1056000 45.3345000 101.407000
283 0.00000000 83.2491000 100.000000 41.6631000 54.4501000 102.927000
284 25.2767000 42.4776000 50.1408000 11.4266000 13.4525000 22.3685000
285 39.7524000 49.2716000 63.7991000 19.4059000 20.2523000 37.3919000
286 40.4516000 63.4565000 70.3593000 26.6763000 31.9392000 47.6300000
287 45.7283000 69.9719000 100.000000 41.3380000 42.9870000 100.731000
288 44.8702000 78.9507000 100.000000 46.0044000 52.7504000 102.370000
289 18.8533000 28.1148000 32.2790000 5.05466000 5.83948000 8.90571000
290 47.7644000 32.1542000 33.3399000 12.6543000 10.8128000 10.0180000
291 48.8115000 34.9187000 43.9382000 14.8824000 12.6427000 16.9987000
292 62.8504000 100.000000 49.2003000 54.0387000 80.5135000 32.2506000
293 75.2837000 100.000000 59.0394000 63.0378000 84.9428000 42.1628000
294 56.0159000 58.1353000 33.0058000 23.5339000 27.7249000 12.5329000
295 79.6415000 62.4575000 38.0555000 39.2539000 38.4603000 16.6750000
296 100.000000 64.4474000 46.1404000 57.8239000 49.2330000 23.4899000
297 51.5426000 28.0015000 20.0266000 12.3053000 9.65778000 4.35639000
298 100.000000 62.9954000 19.7733000 54.5042000 46.8571000 9.23820000
299 100.000000 92.3338000 21.5691000 71.7633000 81.2104000 15.5083000
300 25.5033000 18.1415000 57.9369000 8.49383000 5.22963000 28.4717000
301 23.7939000 14.8283000 100.000000 20.6415000 9.57661000 95.3729000
302 66.0034000 15.7685000 100.000000 35.0295000 17.1109000 96.0690000
303 100.000000 19.4560000 100.000000 60.4123000 30.7279000 97.3598000
304 0.00000000 0.00000000 0.00000000 0.00000000 0.00000000 0.00000000
305 8.90985000 8.90985000 8.90985000 0.79959700 0.84127600 0.91619800
306 0.00000000 15.5700000 81.8100000 12.2099000 6.08230000 60.6063000
307 0.00000000 50.6605000 82.5477000 19.5690000 20.4276000 64.2127000
308 0.00000000 77.4371000 85.3754000 32.6873000 45.1912000 73.1329000
309 0.00000000 74.7664000 72.5274000 27.3050000 40.6112000 52.2699000
310 0.00000000 88.0286000 79.5390000 37.5397000 57.8697000 65.5850000
311 64.1637000 100.000000 92.5572000 66.1312000 85.4294000 92.3812000
312 79.3721000 100.000000 92.4357000 75.3197000 90.1716000 92.5767000
313 68.8573000 80.4147000 91.4949000 54.4063000 58.7732000 85.8059000
314 95.5285000 95.5285000 95.5285000 85.6624000 90.1275000 98.1541000
315 97.7366000 97.7366000 97.7366000 90.2253000 94.9283000 103.382000
316 100.000000 100.000000 100.000000 95.0458000 100.000000 108.906000
317 28.0834000 31.7788000 83.6638000 17.6425000 12.0750000 64.5830000
318 41.6586000 37.2643000 100.000000 28.1152000 18.4877000 96.6991000
319 41.7861000 92.7940000 100.000000 54.2334000 70.6704000 105.395000
320 0.00000000 41.4317000 29.9692000 6.43703000 10.7641000 8.65337000
321 0.00000000 66.6792000 34.9204000 16.1849000 29.4838000 14.3000000
322 0.00000000 81.3787000 34.4637000 24.1931000 45.5790000 16.7304000
323 0.00000000 100.000000 33.6219000 37.4264000 72.1876000 20.7106000
324 0.00000000 100.000000 0.00000000 35.7573000 71.5199000 11.9206000
325 44.5628000 100.000000 0.00000000 42.6493000 75.0729000 12.2432000
326 69.4445000 100.000000 20.0194000 54.5061000 81.1163000 15.9235000
327 20.0892000 31.3228000 0.00000000 4.23619000 6.42871000 1.01765000
328 31.6988000 44.5435000 0.00000000 9.34919000 13.6835000 2.14855000
