dispcalGUI/ti1/d3-e4-s33-g97-m9-b9-f0.ti1
CTI1   

ORIGINATOR "Argyll targen"
KEYWORD "MULTI_DIM_BCC_STEPS"
MULTI_DIM_BCC_STEPS "9"
CREATED "Sat Oct 19 04:48:08 2013"
KEYWORD "COMP_GREY_STEPS"
COMP_GREY_STEPS "97"
KEYWORD "BLACK_COLOR_PATCHES"
BLACK_COLOR_PATCHES "4"
KEYWORD "APPROX_WHITE_POINT"
APPROX_WHITE_POINT "95.106486 100.000000 108.844025"
DESCRIPTOR "Argyll Calibration Target chart information 1"
KEYWORD "MULTI_DIM_STEPS"
MULTI_DIM_STEPS "9"
KEYWORD "WHITE_COLOR_PATCHES"
WHITE_COLOR_PATCHES "4"
KEYWORD "SINGLE_DIM_STEPS"
SINGLE_DIM_STEPS "33"
KEYWORD "COLOR_REP"
COLOR_REP "RGB"

NUMBER_OF_FIELDS 7
BEGIN_DATA_FORMAT
SAMPLE_ID RGB_R RGB_G RGB_B XYZ_X XYZ_Y XYZ_Z
END_DATA_FORMAT

NUMBER_OF_SETS 1399
BEGIN_DATA
1 100.000 100.000 100.000 95.1065 100.000 108.844
2 0.00000 50.0000 25.0000 9.48738 16.5179 8.31499
3 0.00000 62.5000 37.5000 15.4124 26.5039 16.0335
4 37.5000 62.5000 37.5000 20.1494 28.9463 16.2555
5 68.7500 56.2500 6.25000 28.4553 29.6752 5.57215
6 87.5000 75.0000 12.5000 49.9236 53.6516 9.93103
7 73.9583 73.9583 73.9583 48.6594 51.1377 55.6166
8 75.0000 75.0000 75.0000 50.1727 52.7296 57.3508
9 10.4167 10.4167 10.4167 2.00521 2.05749 2.15195
10 0.00000 0.00000 9.37500 1.16227 1.06490 1.85470
11 6.25000 0.00000 0.00000 1.21051 1.10854 1.00986
12 12.5000 0.00000 0.00000 1.58591 1.30210 1.02745
13 15.6250 0.00000 0.00000 1.86037 1.44361 1.04032
14 18.7500 0.00000 0.00000 2.19807 1.61773 1.05614
15 21.8750 0.00000 0.00000 2.60260 1.82631 1.07510
16 25.0000 0.00000 0.00000 3.07728 2.07105 1.09734
17 28.1250 0.00000 0.00000 3.62521 2.35357 1.12301
18 31.2500 0.00000 0.00000 4.24932 2.67536 1.15226
19 34.3750 0.00000 0.00000 4.95236 3.03785 1.18520
20 37.5000 0.00000 0.00000 5.73696 3.44239 1.22197
21 40.6250 0.00000 0.00000 6.60561 3.89027 1.26267
22 43.7500 0.00000 0.00000 7.56070 4.38272 1.30742
23 46.8750 0.00000 0.00000 8.60454 4.92093 1.35634
24 50.0000 0.00000 0.00000 9.73934 5.50603 1.40951
25 53.1250 0.00000 0.00000 10.9672 6.13913 1.46705
26 56.2500 0.00000 0.00000 12.2903 6.82130 1.52904
27 59.3750 0.00000 0.00000 13.7105 7.55355 1.59559
28 62.5000 0.00000 0.00000 15.2297 8.33690 1.66678
29 65.6250 0.00000 0.00000 16.8500 9.17230 1.74270
30 68.7500 0.00000 0.00000 18.5730 10.0607 1.82344
31 71.8750 0.00000 0.00000 20.4007 11.0031 1.90908
32 75.0000 0.00000 0.00000 22.3346 12.0002 1.99970
33 78.1250 0.00000 0.00000 24.3766 13.0531 2.09539
34 81.2500 0.00000 0.00000 26.5283 14.1625 2.19621
35 84.3750 0.00000 0.00000 28.7913 15.3293 2.30225
36 87.5000 0.00000 0.00000 31.1672 16.5543 2.41358
37 90.6250 0.00000 0.00000 33.6575 17.8383 2.53027
38 93.7500 0.00000 0.00000 36.2638 19.1821 2.65240
39 96.8750 0.00000 0.00000 38.9875 20.5865 2.78003
40 100.000 0.00000 0.00000 41.8302 22.0522 2.91323
41 9.37500 0.00000 0.00000 1.37074 1.19116 1.01737
42 0.00000 0.00000 3.12500 1.04323 1.01729 1.22767
43 0.00000 6.25000 0.00000 1.18254 1.36502 1.06085
44 0.00000 12.5000 0.00000 1.50806 2.01598 1.16935
45 0.00000 15.6250 0.00000 1.74606 2.49191 1.24869
46 0.00000 18.7500 0.00000 2.03889 3.07749 1.34630
47 0.00000 21.8750 0.00000 2.38967 3.77895 1.46323
48 0.00000 25.0000 0.00000 2.80128 4.60205 1.60043
49 0.00000 28.1250 0.00000 3.27641 5.55219 1.75881
50 0.00000 31.2500 0.00000 3.81760 6.63441 1.93921
51 0.00000 34.3750 0.00000 4.42723 7.85350 2.14242
52 0.00000 37.5000 0.00000 5.10758 9.21400 2.36920
53 0.00000 40.6250 0.00000 5.86081 10.7203 2.62028
54 0.00000 43.7500 0.00000 6.68900 12.3764 2.89635
55 0.00000 46.8750 0.00000 7.59415 14.1865 3.19807
56 0.00000 50.0000 0.00000 8.57817 16.1542 3.52608
57 0.00000 53.1250 0.00000 9.64291 18.2834 3.88099
58 0.00000 56.2500 0.00000 10.7902 20.5776 4.26342
59 0.00000 59.3750 0.00000 12.0217 23.0402 4.67392
60 0.00000 62.5000 0.00000 13.3391 25.6747 5.11306
61 0.00000 65.6250 0.00000 14.7441 28.4843 5.58139
62 0.00000 68.7500 0.00000 16.2382 31.4721 6.07943
63 0.00000 71.8750 0.00000 17.8230 34.6412 6.60771
64 0.00000 75.0000 0.00000 19.5000 37.9948 7.16671
65 0.00000 78.1250 0.00000 21.2707 41.5357 7.75694
66 0.00000 81.2500 0.00000 23.1365 45.2667 8.37888
67 0.00000 84.3750 0.00000 25.0988 49.1908 9.03299
68 0.00000 87.5000 0.00000 27.1590 53.3106 9.71972
69 0.00000 90.6250 0.00000 29.3184 57.6289 10.4395
70 0.00000 93.7500 0.00000 31.5784 62.1482 11.1929
71 0.00000 96.8750 0.00000 33.9402 66.8713 11.9802
72 0.00000 100.000 0.00000 36.4052 71.8005 12.8018
73 0.00000 9.37500 0.00000 1.32148 1.64288 1.10716
74 1.04167 1.04167 1.04167 1.07587 1.07982 1.08695
75 0.00000 0.00000 6.25000 1.09214 1.03685 1.48530
76 11.4583 11.4583 11.4583 2.17040 2.23126 2.34125
77 0.00000 0.00000 15.6250 1.37658 1.15061 2.98349
78 0.00000 0.00000 18.7500 1.52439 1.20972 3.76201
79 0.00000 0.00000 21.8750 1.70145 1.28053 4.69460
80 0.00000 0.00000 25.0000 1.90921 1.36363 5.78891
81 0.00000 0.00000 28.1250 2.14904 1.45954 7.05211
82 0.00000 0.00000 31.2500 2.42221 1.56879 8.49092
83 0.00000 0.00000 34.3750 2.72992 1.69186 10.1117
84 0.00000 0.00000 37.5000 3.07334 1.82920 11.9205
85 0.00000 0.00000 40.6250 3.45354 1.98126 13.9230
86 0.00000 0.00000 43.7500 3.87158 2.14845 16.1249
87 0.00000 0.00000 46.8750 4.32846 2.33117 18.5313
88 0.00000 0.00000 50.0000 4.82515 2.52982 21.1475
89 0.00000 0.00000 53.1250 5.36259 2.74476 23.9782
90 0.00000 0.00000 56.2500 5.94168 2.97636 27.0283
91 0.00000 0.00000 59.3750 6.56328 3.22496 30.3024
92 0.00000 0.00000 62.5000 7.22826 3.49091 33.8049
93 0.00000 0.00000 65.6250 7.93744 3.77454 37.5402
94 0.00000 0.00000 68.7500 8.69161 4.07616 41.5125
95 0.00000 0.00000 71.8750 9.49155 4.39609 45.7259
96 0.00000 0.00000 0.00000 1.00000 1.00000 1.00000
97 0.00000 0.00000 78.1250 11.2318 5.09208 54.8920
98 0.00000 0.00000 81.2500 12.1736 5.46873 59.8524
99 0.00000 0.00000 84.3750 13.1641 5.86486 65.0694
100 0.00000 0.00000 87.5000 14.2040 6.28076 70.5467
101 0.00000 0.00000 90.6250 15.2940 6.71668 76.2878
102 0.00000 0.00000 93.7500 16.4347 7.17291 82.2963
103 0.00000 0.00000 96.8750 17.6269 7.64970 88.5755
104 0.00000 0.00000 100.000 18.8711 8.14731 95.1290
105 0.00000 0.00000 75.0000 10.3380 4.73463 50.1844
106 0.00000 0.00000 12.5000 1.25645 1.10256 2.35074
107 3.12500 3.12500 3.12500 1.22762 1.23945 1.26085
108 2.08333 2.08333 2.08333 1.15175 1.15964 1.17390
109 4.16667 4.16667 4.16667 1.30372 1.31952 1.34806
110 5.20833 5.20833 5.20833 1.38828 1.40847 1.44496
111 6.25000 6.25000 6.25000 1.48518 1.51041 1.55601
112 0.00000 12.5000 12.5000 1.76451 2.11854 2.52009
113 8.33333 8.33333 8.33333 1.71786 1.75519 1.82265
114 0.00000 3.12500 0.00000 1.08564 1.17125 1.02855
115 9.37500 9.37500 9.37500 1.85450 1.89893 1.97923
116 7.29167 7.29167 7.29167 1.59489 1.62583 1.68173
117 12.5000 12.5000 12.5000 2.35042 2.42064 2.54755
118 13.5417 13.5417 13.5417 2.54563 2.62600 2.77126
119 14.5833 14.5833 14.5833 2.75638 2.84772 3.01278
120 15.6250 15.6250 15.6250 2.98301 3.08613 3.27249
121 17.7083 17.7083 17.7083 3.48519 3.61442 3.84797
122 18.7500 18.7500 18.7500 3.76135 3.90494 4.16445
123 19.7917 19.7917 19.7917 4.05464 4.21348 4.50055
124 20.8333 20.8333 20.8333 4.36533 4.54033 4.85660
125 21.8750 21.8750 21.8750 4.69372 4.88579 5.23292
126 22.9167 22.9167 22.9167 5.04007 5.25016 5.62984
127 23.9583 23.9583 23.9583 5.40467 5.63371 6.04766
128 25.0000 25.0000 25.0000 5.78777 6.03673 6.48668
129 26.0417 26.0417 26.0417 6.18963 6.45949 6.94721
130 27.0833 27.0833 27.0833 6.61052 6.90226 7.42953
131 28.1250 28.1250 28.1250 7.05067 7.36530 7.93393
132 29.1667 29.1667 29.1667 7.51032 7.84886 8.46069
133 30.2083 30.2083 30.2083 7.98973 8.35320 9.01009
134 31.2500 31.2500 31.2500 8.48913 8.87856 9.58238
135 32.2917 32.2917 32.2917 9.00874 9.42519 10.1778
136 33.3333 33.3333 33.3333 9.54879 9.99333 10.7967
137 34.3750 34.3750 34.3750 10.1095 10.5832 11.4393
138 35.4167 35.4167 35.4167 10.6911 11.1951 12.1058
139 36.4583 36.4583 36.4583 11.2938 11.8291 12.7965
140 37.5000 37.5000 37.5000 11.9179 12.4856 13.5116
141 38.5417 38.5417 38.5417 12.5634 13.1647 14.2514
142 39.5833 39.5833 39.5833 13.2307 13.8667 15.0161
143 40.6250 40.6250 40.6250 13.9200 14.5918 15.8060
144 41.6667 41.6667 41.6667 14.6313 15.3402 16.6212
145 42.7083 42.7083 42.7083 15.3650 16.1120 17.4620
146 43.7500 43.7500 43.7500 16.1213 16.9076 18.3287
147 44.7917 44.7917 44.7917 16.9003 17.7271 19.2214
148 45.8333 45.8333 45.8333 17.7021 18.5707 20.1403
149 46.8750 46.8750 46.8750 18.5272 19.4386 21.0857
150 47.9167 47.9167 47.9167 19.3754 20.3310 22.0579
151 48.9583 48.9583 48.9583 20.2472 21.2481 23.0569
152 50.0000 50.0000 50.0000 21.1427 22.1901 24.0831
153 51.0417 51.0417 51.0417 22.0619 23.1572 25.1365
154 52.0833 52.0833 52.0833 23.0052 24.1495 26.2175
155 53.1250 53.1250 53.1250 23.9727 25.1673 27.3263
156 54.1667 54.1667 54.1667 24.9646 26.2107 28.4629
157 55.2083 55.2083 55.2083 25.9810 27.2800 29.6277
158 56.2500 56.2500 56.2500 27.0221 28.3752 30.8208
159 57.2917 57.2917 57.2917 28.0881 29.4967 32.0424
160 58.3333 58.3333 58.3333 29.1791 30.6444 33.2927
161 59.3750 59.3750 59.3750 30.2954 31.8187 34.5719
162 60.4167 60.4167 60.4167 31.4370 33.0197 35.8802
163 61.4583 61.4583 61.4583 32.6042 34.2476 37.2177
164 62.5000 62.5000 62.5000 33.7971 35.5025 38.5847
165 63.5417 63.5417 63.5417 35.0158 36.7846 39.9814
166 64.5833 64.5833 64.5833 36.2605 38.0941 41.4078
167 65.6250 65.6250 65.6250 37.5315 39.4311 42.8643
168 66.6667 66.6667 66.6667 38.8287 40.7958 44.3509
169 67.7083 67.7083 67.7083 40.1524 42.1884 45.8679
170 68.7500 68.7500 68.7500 41.5028 43.6089 47.4154
171 69.7917 69.7917 69.7917 42.8800 45.0577 48.9935
172 70.8333 70.8333 70.8333 44.2840 46.5348 50.6026
173 71.8750 71.8750 71.8750 45.7152 48.0404 52.2427
174 0.00000 0.00000 0.00000 1.00000 1.00000 1.00000
175 12.5000 37.5000 37.5000 7.76682 10.3453 13.3171
176 72.9167 72.9167 72.9167 47.1736 49.5746 53.9140
177 76.0417 76.0417 76.0417 51.7136 54.3507 59.1167
178 77.0833 77.0833 77.0833 53.2824 56.0011 60.9145
179 78.1250 78.1250 78.1250 54.8791 57.6808 62.7443
180 79.1667 79.1667 79.1667 56.5039 59.3901 64.6063
181 80.2083 80.2083 80.2083 58.1569 61.1291 66.5006
182 81.2500 81.2500 81.2500 59.8383 62.8979 68.4275
183 82.2917 82.2917 82.2917 61.5482 64.6967 70.3870
184 83.3333 83.3333 83.3333 63.2868 66.5257 72.3793
185 84.3750 84.3750 84.3750 65.0541 68.3849 74.4046
186 85.4167 85.4167 85.4167 66.8503 70.2745 76.4631
187 86.4583 86.4583 86.4583 68.6756 72.1947 78.5548
188 87.5000 87.5000 87.5000 70.5301 74.1456 80.6800
189 88.5417 88.5417 88.5417 72.4138 76.1273 82.8387
190 89.5833 89.5833 89.5833 74.3270 78.1400 85.0312
191 90.6250 90.6250 90.6250 76.2698 80.1838 87.2576
192 91.6667 91.6667 91.6667 78.2423 82.2589 89.5180
193 92.7083 92.7083 92.7083 80.2446 84.3653 91.8126
194 93.7500 93.7500 93.7500 82.2769 86.5032 94.1415
195 94.7917 94.7917 94.7917 84.3392 88.6728 96.5049
196 95.8333 95.8333 95.8333 86.4317 90.8742 98.9029
197 96.8750 96.8750 96.8750 88.5546 93.1074 101.336
198 97.9167 97.9167 97.9167 90.7080 95.3727 103.803
199 98.9583 98.9583 98.9583 92.8919 97.6702 106.306
200 12.5000 12.5000 0.00000 2.09397 2.31807 1.19681
201 25.0000 12.5000 0.00000 3.58534 3.08703 1.26669
202 37.5000 12.5000 0.00000 6.24502 4.45837 1.39132
203 50.0000 12.5000 0.00000 10.2474 6.52201 1.57886
204 62.5000 12.5000 0.00000 15.7378 9.35287 1.83614
205 75.0000 12.5000 0.00000 22.8427 13.0162 2.16906
206 87.5000 12.5000 0.00000 31.6752 17.5703 2.58294
207 100.000 12.5000 0.00000 42.3382 23.0681 3.08259
208 87.5000 87.5000 25.0000 58.2353 69.2285 15.9222
209 25.0000 25.0000 0.00000 4.87856 5.67311 1.69777
210 37.5000 25.0000 0.00000 7.53824 7.04444 1.82240
211 50.0000 25.0000 0.00000 11.5406 9.10808 2.00994
212 62.5000 25.0000 0.00000 17.0310 11.9389 2.26721
213 75.0000 25.0000 0.00000 24.1359 15.6023 2.60014
214 87.5000 25.0000 0.00000 32.9684 20.1563 3.01401
215 100.000 25.0000 0.00000 43.6314 25.6542 3.51366
216 100.000 75.0000 25.0000 61.2394 59.4106 13.8689
217 25.0000 37.5000 0.00000 7.18485 10.2851 2.46654
218 37.5000 37.5000 0.00000 9.84453 11.6564 2.59117
219 50.0000 37.5000 0.00000 13.8469 13.7200 2.77871
220 62.5000 37.5000 0.00000 19.3373 16.5509 3.03598
221 75.0000 37.5000 0.00000 26.4422 20.2142 3.36891
222 87.5000 37.5000 0.00000 35.2747 24.7683 3.78278
223 100.000 37.5000 0.00000 45.9377 30.2662 4.28243
224 100.000 75.0000 12.5000 60.5866 59.1495 10.4307
225 100.000 87.5000 12.5000 68.2456 74.4653 12.9837
226 100.000 87.5000 25.0000 68.8983 74.7264 16.4219
227 50.0000 50.0000 0.00000 17.3175 20.6603 3.93559
228 62.5000 50.0000 0.00000 22.8079 23.4911 4.19286
229 75.0000 50.0000 0.00000 29.9128 27.1544 4.52578
230 87.5000 50.0000 0.00000 38.7453 31.7085 4.93966
231 100.000 50.0000 0.00000 49.4083 37.2064 5.43931
232 100.000 62.5000 0.00000 54.1692 46.7269 7.02629
233 37.5000 50.0000 0.00000 13.3151 18.5966 3.74804
234 37.5000 62.5000 0.00000 18.0760 28.1171 5.33503
235 50.0000 62.5000 0.00000 22.0784 30.1807 5.52257
236 62.5000 62.5000 0.00000 27.5688 33.0116 5.77984
237 75.0000 62.5000 0.00000 34.6737 36.6749 6.11276
238 87.5000 62.5000 0.00000 43.5062 41.2290 6.52664
239 87.5000 75.0000 0.00000 49.6671 53.5491 8.58029
240 25.0000 62.5000 0.00000 15.4164 26.7458 5.21040
241 25.0000 75.0000 0.00000 21.5773 39.0658 7.26405
242 37.5000 75.0000 0.00000 24.2369 40.4372 7.38868
243 50.0000 75.0000 0.00000 28.2393 42.5008 7.57622
244 62.5000 75.0000 0.00000 33.7297 45.3317 7.83349
245 75.0000 75.0000 0.00000 40.8346 48.9950 8.16642
246 100.000 75.0000 0.00000 60.3302 59.0470 9.07994
247 100.000 87.5000 0.00000 67.9891 74.3628 11.6330
248 25.0000 50.0000 0.00000 10.6555 17.2253 3.62342
249 25.0000 87.5000 0.00000 29.2362 54.3816 9.81706
250 37.5000 87.5000 0.00000 31.8959 55.7530 9.94169
251 50.0000 87.5000 0.00000 35.8983 57.8166 10.1292
252 62.5000 87.5000 0.00000 41.3887 60.6475 10.3865
253 75.0000 87.5000 0.00000 48.4936 64.3108 10.7194
254 87.5000 87.5000 0.00000 57.3261 68.8649 11.1333
255 12.5000 87.5000 0.00000 27.7449 53.6127 9.74718
256 12.5000 100.000 0.00000 36.9911 72.1026 12.8293
257 25.0000 100.000 0.00000 38.4825 72.8716 12.8992
258 37.5000 100.000 0.00000 41.1422 74.2429 13.0238
259 50.0000 100.000 0.00000 45.1445 76.3065 13.2113
260 62.5000 100.000 0.00000 50.6349 79.1374 13.4686
261 75.0000 100.000 0.00000 57.7399 82.8007 13.8015
262 87.5000 100.000 0.00000 66.5724 87.3548 14.2154
263 100.000 100.000 0.00000 77.2354 92.8527 14.7151
264 12.5000 0.00000 12.5000 1.84236 1.40466 2.37819
265 25.0000 0.00000 12.5000 3.33373 2.17362 2.44808
266 37.5000 0.00000 12.5000 5.99341 3.54495 2.57270
267 50.0000 0.00000 12.5000 9.99578 5.60859 2.76025
268 62.5000 0.00000 12.5000 15.4862 8.43946 3.01752
269 75.0000 0.00000 12.5000 22.5911 12.1028 3.35044
270 87.5000 0.00000 12.5000 31.4236 16.6568 3.76432
271 100.000 0.00000 12.5000 42.0866 22.1547 4.26397
272 100.000 12.5000 37.5000 44.4116 23.8974 14.0031
273 25.0000 12.5000 12.5000 3.84179 3.18959 2.61743
274 37.5000 12.5000 12.5000 6.50147 4.56093 2.74206
275 50.0000 12.5000 12.5000 10.5038 6.62457 2.92960
276 62.5000 12.5000 12.5000 15.9942 9.45544 3.18687
277 75.0000 12.5000 12.5000 23.0992 13.1188 3.51980
278 87.5000 12.5000 12.5000 31.9317 17.6728 3.93367
279 100.000 12.5000 12.5000 42.5947 23.1707 4.43332
280 100.000 37.5000 25.0000 46.8470 30.6298 9.07135
281 100.000 62.5000 25.0000 55.0785 47.0905 11.8152
282 25.0000 25.0000 12.5000 5.13501 5.77567 3.04851
283 37.5000 25.0000 12.5000 7.79469 7.14701 3.17314
284 50.0000 25.0000 12.5000 11.7971 9.21065 3.36068
285 62.5000 25.0000 12.5000 17.2875 12.0415 3.61795
286 75.0000 25.0000 12.5000 24.3924 15.7048 3.95087
287 87.5000 25.0000 12.5000 33.2249 20.2589 4.36475
288 100.000 25.0000 12.5000 43.8879 25.7568 4.86440
289 100.000 37.5000 37.5000 48.0111 31.0954 15.2029
290 100.000 50.0000 37.5000 51.4817 38.0356 16.3598
291 25.0000 37.5000 12.5000 7.44130 10.3876 3.81728
292 37.5000 37.5000 12.5000 10.1010 11.7590 3.94191
293 50.0000 37.5000 12.5000 14.1034 13.8226 4.12945
294 62.5000 37.5000 12.5000 19.5938 16.6535 4.38672
295 75.0000 37.5000 12.5000 26.6987 20.3168 4.71965
296 87.5000 37.5000 12.5000 35.5312 24.8708 5.13352
297 100.000 37.5000 12.5000 46.1942 30.3687 5.63317
298 100.000 62.5000 12.5000 54.4257 46.8294 8.37703
299 12.5000 50.0000 0.00000 9.16408 16.4563 3.55353
300 25.0000 50.0000 12.5000 10.9119 17.3278 4.97415
301 37.5000 50.0000 12.5000 13.5716 18.6992 5.09878
302 50.0000 50.0000 12.5000 17.5740 20.7628 5.28633
303 62.5000 50.0000 12.5000 23.0643 23.5937 5.54360
304 75.0000 50.0000 12.5000 30.1693 27.2570 5.87652
305 87.5000 50.0000 12.5000 39.0018 31.8111 6.29040
306 100.000 50.0000 12.5000 49.6648 37.3090 6.79005
307 12.5000 25.0000 12.5000 3.64363 5.00671 2.97862
308 12.5000 37.5000 12.5000 5.94993 9.61866 3.74740
309 25.0000 62.5000 12.5000 15.6728 26.8483 6.56114
310 37.5000 62.5000 12.5000 18.3325 28.2197 6.68576
311 50.0000 62.5000 12.5000 22.3349 30.2833 6.87331
312 62.5000 62.5000 12.5000 27.8253 33.1142 7.13058
313 75.0000 62.5000 12.5000 34.9302 36.7775 7.46350
314 87.5000 62.5000 12.5000 43.7627 41.3315 7.87738
315 12.5000 50.0000 12.5000 9.42053 16.5589 4.90427
316 12.5000 62.5000 12.5000 14.1814 26.0794 6.49125
317 12.5000 75.0000 12.5000 20.3423 38.3995 8.54491
318 25.0000 75.0000 12.5000 21.8337 39.1684 8.61479
319 37.5000 75.0000 12.5000 24.4934 40.5398 8.73942
320 50.0000 75.0000 12.5000 28.4958 42.6034 8.92696
321 62.5000 75.0000 12.5000 33.9862 45.4343 9.18423
322 75.0000 75.0000 12.5000 41.0911 49.0976 9.51716
323 87.5000 87.5000 12.5000 57.5826 68.9674 12.4840
324 0.00000 62.5000 12.5000 13.5955 25.7773 6.46380
325 0.00000 75.0000 12.5000 19.7564 38.0974 8.51745
326 12.5000 87.5000 12.5000 28.0013 53.7152 11.0979
327 25.0000 87.5000 12.5000 29.4927 54.4842 11.1678
328 37.5000 87.5000 12.5000 32.1524 55.8555 11.2924
329 50.0000 87.5000 12.5000 36.1547 57.9192 11.4800
330 62.5000 87.5000 12.5000 41.6451 60.7500 11.7372
331 75.0000 87.5000 12.5000 48.7500 64.4134 12.0702
332 81.2500 93.7500 18.7500 57.6311 75.5204 15.1511
333 0.00000 87.5000 12.5000 27.4154 53.4132 11.0705
334 0.00000 100.000 12.5000 36.6617 71.9031 14.1526
335 12.5000 100.000 12.5000 37.2476 72.2052 14.1800
336 25.0000 100.000 12.5000 38.7389 72.9741 14.2499
337 37.5000 100.000 12.5000 41.3986 74.3455 14.3745
338 50.0000 100.000 12.5000 45.4010 76.4091 14.5621
339 62.5000 100.000 12.5000 50.8914 79.2400 14.8194
340 75.0000 100.000 12.5000 57.9963 82.9033 15.1523
341 87.5000 100.000 12.5000 66.8288 87.4574 15.5662
342 100.000 100.000 12.5000 77.4918 92.9552 16.0658
343 12.5000 0.00000 25.0000 2.49512 1.66572 5.81637
344 25.0000 0.00000 25.0000 3.98649 2.43468 5.88625
345 37.5000 0.00000 25.0000 6.64617 3.80602 6.01088
346 50.0000 0.00000 25.0000 10.6485 5.86966 6.19842
347 62.5000 0.00000 25.0000 16.1389 8.70052 6.45569
348 75.0000 0.00000 25.0000 23.2439 12.3638 6.78862
349 87.5000 0.00000 25.0000 32.0764 16.9179 7.20249
350 100.000 0.00000 25.0000 42.7394 22.4158 7.70214
351 16.6667 16.6667 16.6667 3.22584 3.34159 3.55077
352 12.5000 12.5000 25.0000 3.00318 2.68170 5.98572
353 25.0000 12.5000 25.0000 4.49455 3.45066 6.05561
354 37.5000 12.5000 25.0000 7.15423 4.82200 6.18023
355 50.0000 12.5000 25.0000 11.1566 6.88564 6.36778
356 62.5000 12.5000 25.0000 16.6470 9.71650 6.62505
357 75.0000 12.5000 25.0000 23.7519 13.3798 6.95797
358 87.5000 12.5000 25.0000 32.5844 17.9339 7.37185
359 100.000 12.5000 25.0000 43.2474 23.4318 7.87150
360 0.00000 25.0000 12.5000 3.05773 4.70462 2.95117
361 0.00000 25.0000 25.0000 3.71049 4.96568 6.38934
362 37.5000 25.0000 25.0000 8.44745 7.40807 6.61131
363 50.0000 25.0000 25.0000 12.4498 9.47171 6.79885
364 62.5000 25.0000 25.0000 17.9402 12.3026 7.05612
365 75.0000 25.0000 25.0000 25.0451 15.9659 7.38905
366 87.5000 25.0000 25.0000 33.8776 20.5200 7.80292
367 100.000 25.0000 25.0000 44.5407 26.0178 8.30257
368 100.000 25.0000 37.5000 45.7048 26.4834 14.4341
369 3.12500 0.00000 0.00000 1.09876 1.05092 1.00463
370 31.2500 18.7500 18.7500 5.81260 4.96257 4.26057
371 37.5000 37.5000 25.0000 10.7537 12.0200 7.38008
372 50.0000 37.5000 25.0000 14.7561 14.0837 7.56763
373 62.5000 37.5000 25.0000 20.2465 16.9145 7.82490
374 75.0000 37.5000 25.0000 27.3514 20.5778 8.15782
375 87.5000 37.5000 25.0000 36.1839 25.1319 8.57170
376 68.7500 31.2500 43.7500 24.2622 16.8436 17.8875
377 12.5000 25.0000 25.0000 4.29640 5.26778 6.41680
378 12.5000 37.5000 25.0000 6.60270 9.87973 7.18557
379 25.0000 50.0000 25.0000 11.5647 17.5889 8.41233
380 37.5000 50.0000 25.0000 14.2243 18.9602 8.53696
381 50.0000 50.0000 25.0000 18.2267 21.0239 8.72450
382 62.5000 50.0000 25.0000 23.7171 23.8547 8.98177
383 75.0000 50.0000 25.0000 30.8220 27.5181 9.31470
384 87.5000 50.0000 25.0000 39.6545 32.0721 9.72857
385 100.000 50.0000 25.0000 50.3176 37.5700 10.2282
386 12.5000 50.0000 25.0000 10.0733 16.8199 8.34245
387 12.5000 62.5000 25.0000 14.8342 26.3404 9.92943
388 25.0000 62.5000 25.0000 16.3256 27.1094 9.99931
389 37.5000 62.5000 25.0000 18.9852 28.4807 10.1239
390 50.0000 62.5000 25.0000 22.9876 30.5444 10.3115
391 62.5000 62.5000 25.0000 28.4780 33.3752 10.5688
392 75.0000 62.5000 25.0000 35.5829 37.0385 10.9017
393 87.5000 62.5000 25.0000 44.4154 41.5926 11.3156
394 0.00000 62.5000 25.0000 14.2483 26.0383 9.90197
395 0.00000 75.0000 25.0000 20.4092 38.3584 11.9556
396 12.5000 75.0000 25.0000 20.9951 38.6605 11.9831
397 25.0000 75.0000 25.0000 22.4865 39.4295 12.0530
398 37.5000 75.0000 25.0000 25.1462 40.8008 12.1776
399 50.0000 75.0000 25.0000 29.1485 42.8645 12.3651
400 62.5000 75.0000 25.0000 34.6389 45.6953 12.6224
401 75.0000 75.0000 25.0000 41.7438 49.3586 12.9553
402 87.5000 75.0000 25.0000 50.5764 53.9127 13.3692
403 12.5000 62.5000 0.00000 13.9250 25.9768 5.14051
404 12.5000 75.0000 0.00000 20.0859 38.2969 7.19417
405 12.5000 87.5000 25.0000 28.6541 53.9763 14.5361
406 25.0000 87.5000 25.0000 30.1454 54.7453 14.6060
407 37.5000 87.5000 25.0000 32.8051 56.1166 14.7306
408 50.0000 87.5000 25.0000 36.8075 58.1802 14.9181
409 62.5000 87.5000 25.0000 42.2979 61.0111 15.1754
410 75.0000 87.5000 25.0000 49.4028 64.6744 15.5083
411 0.00000 50.0000 12.5000 8.83462 16.2568 4.87682
412 0.00000 87.5000 25.0000 28.0682 53.6742 14.5086
413 0.00000 100.000 25.0000 37.3144 72.1641 17.5907
414 12.5000 100.000 25.0000 37.9003 72.4662 17.6182
415 25.0000 100.000 25.0000 39.3917 73.2352 17.6881
416 37.5000 100.000 25.0000 42.0514 74.6065 17.8127
417 50.0000 100.000 25.0000 46.0538 76.6702 18.0003
418 62.5000 100.000 25.0000 51.5442 79.5010 18.2575
419 75.0000 100.000 25.0000 58.6491 83.1644 18.5905
420 87.5000 100.000 25.0000 67.4816 87.7184 19.0043
421 100.000 100.000 25.0000 78.1446 93.2163 19.5040
422 12.5000 0.00000 37.5000 3.65924 2.13130 11.9479
423 25.0000 0.00000 37.5000 5.15062 2.90026 12.0178
424 37.5000 0.00000 37.5000 7.81030 4.27159 12.1424
425 50.0000 0.00000 37.5000 11.8127 6.33523 12.3300
426 62.5000 0.00000 37.5000 17.3031 9.16610 12.5873
427 75.0000 0.00000 37.5000 24.4080 12.8294 12.9202
428 87.5000 0.00000 37.5000 33.2405 17.3835 13.3341
429 100.000 0.00000 37.5000 43.9035 22.8814 13.8337
430 0.00000 12.5000 37.5000 3.58140 2.84518 12.0898
431 12.5000 12.5000 37.5000 4.16730 3.14728 12.1173
432 25.0000 12.5000 37.5000 5.65868 3.91623 12.1872
433 37.5000 12.5000 37.5000 8.31836 5.28757 12.3118
434 50.0000 12.5000 37.5000 12.3207 7.35121 12.4993
435 62.5000 12.5000 37.5000 17.8111 10.1821 12.7566
436 75.0000 12.5000 37.5000 24.9160 13.8454 13.0895
437 87.5000 12.5000 37.5000 33.7486 18.3995 13.5034
438 0.00000 12.5000 25.0000 2.41727 2.37961 5.95827
439 0.00000 25.0000 37.5000 4.87462 5.43126 12.5209
440 12.5000 25.0000 37.5000 5.46052 5.73335 12.5484
441 25.0000 25.0000 37.5000 6.95189 6.50231 12.6182
