dispcalGUI/ti1/d3-e4-s0-g51-m0-f0-cubic5-crossover.ti1
CTI1   

ORIGINATOR "Argyll targen"
CREATED "Tue Feb 23 08:46:43 2010"
KEYWORD "COMP_GREY_STEPS"
COMP_GREY_STEPS "51"
KEYWORD "ERROR_OPTIMISED_PATCHES"
ERROR_OPTIMISED_PATCHES "0"
KEYWORD "APPROX_WHITE_POINT"
APPROX_WHITE_POINT "95.106486 100.000000 108.844025"
DESCRIPTOR "Argyll Calibration Target chart information 1"
KEYWORD "MULTI_DIM_STEPS"
MULTI_DIM_STEPS "0"
KEYWORD "WHITE_COLOR_PATCHES"
WHITE_COLOR_PATCHES "4"
KEYWORD "SINGLE_DIM_STEPS"
SINGLE_DIM_STEPS "0"
KEYWORD "COLOR_REP"
COLOR_REP "RGB"

NUMBER_OF_FIELDS 7
BEGIN_DATA_FORMAT
SAMPLE_ID RGB_R RGB_G RGB_B XYZ_X XYZ_Y XYZ_Z
END_DATA_FORMAT

NUMBER_OF_SETS 396
BEGIN_DATA
1 100.00 100.00 100.00 95.106 100.00 108.84
2 100.00 100.00 100.00 95.106 100.00 108.84
3 100.00 100.00 100.00 95.106 100.00 108.84
4 100.00 100.00 100.00 95.106 100.00 108.84
5 0.0000 0.0000 0.0000 1.0000 1.0000 1.0000
6 2.0000 2.0000 2.0000 1.1457 1.1533 1.1669
7 4.0000 4.0000 4.0000 1.2913 1.3065 1.3338
8 6.0000 6.0000 6.0000 1.4608 1.4847 1.5280
9 8.0000 8.0000 8.0000 1.6770 1.7122 1.7759
10 10.000 10.000 10.000 1.9432 1.9923 2.0809
11 12.000 12.000 12.000 2.2621 2.3278 2.4464
12 14.000 14.000 14.000 2.6364 2.7215 2.8753
13 16.000 16.000 16.000 3.0685 3.1761 3.3705
14 18.000 18.000 18.000 3.5608 3.6940 3.9346
15 20.000 20.000 20.000 4.1154 4.2774 4.5702
16 22.000 22.000 22.000 4.7343 4.9285 5.2795
17 24.000 24.000 24.000 5.4196 5.6495 6.0648
18 26.000 26.000 26.000 6.1732 6.4422 6.9284
19 28.000 28.000 28.000 6.9968 7.3087 7.8722
20 30.000 30.000 30.000 7.8923 8.2507 8.8984
21 32.000 32.000 32.000 8.8612 9.2700 10.009
22 34.000 34.000 34.000 9.9053 10.368 11.205
23 36.000 36.000 36.000 11.026 11.547 12.490
24 38.000 38.000 38.000 12.225 12.809 13.864
25 40.000 40.000 40.000 13.504 14.154 15.329
26 42.000 42.000 42.000 14.864 15.585 16.887
27 44.000 44.000 44.000 16.306 17.102 18.541
28 46.000 46.000 46.000 17.833 18.708 20.290
29 48.000 48.000 48.000 19.444 20.403 22.137
30 50.000 50.000 50.000 21.143 22.190 24.083
31 52.000 52.000 52.000 22.929 24.069 26.130
32 54.000 54.000 54.000 24.804 26.042 28.279
33 56.000 56.000 56.000 26.770 28.110 30.532
34 58.000 58.000 58.000 28.827 30.274 32.889
35 60.000 60.000 60.000 30.977 32.536 35.353
36 62.000 62.000 62.000 33.221 34.897 37.925
37 64.000 64.000 64.000 35.560 37.357 40.605
38 66.000 66.000 66.000 37.995 39.919 43.396
39 68.000 68.000 68.000 40.528 42.583 46.298
40 70.000 70.000 70.000 43.159 45.351 49.313
41 72.000 72.000 72.000 45.889 48.223 52.442
42 74.000 74.000 74.000 48.719 51.201 55.685
43 76.000 76.000 76.000 51.651 54.285 59.045
44 78.000 78.000 78.000 54.686 57.478 62.523
45 80.000 80.000 80.000 57.824 60.779 66.119
46 82.000 82.000 82.000 61.067 64.190 69.835
47 84.000 84.000 84.000 64.415 67.712 73.672
48 86.000 86.000 86.000 67.869 71.346 77.630
49 88.000 88.000 88.000 71.431 75.093 81.712
50 90.000 90.000 90.000 75.101 78.954 85.918
51 92.000 92.000 92.000 78.880 82.930 90.249
52 94.000 94.000 94.000 82.769 87.021 94.706
53 96.000 96.000 96.000 86.769 91.229 99.290
54 98.000 98.000 98.000 90.882 95.555 104.00
55 0.0000 0.0000 20.000 1.5916 1.2366 4.1161
56 10.000 10.000 30.000 3.0730 2.4441 8.0314
57 0.0000 0.0000 40.000 3.3745 1.9497 13.507
58 10.000 10.000 50.000 5.5892 3.4504 21.285
59 0.0000 0.0000 60.000 6.6928 3.2768 30.984
60 10.000 10.000 70.000 9.7701 5.1225 43.306
61 0.0000 0.0000 80.000 11.791 5.3157 57.838
62 10.000 10.000 90.000 15.836 7.5485 75.256
63 0.0000 0.0000 100.00 18.871 8.1473 95.129
64 0.0000 20.000 0.0000 2.1721 3.3438 1.3907
65 10.000 30.000 10.000 4.1814 6.4680 2.8270
66 0.0000 20.000 20.000 2.7637 3.5804 4.5068
67 10.000 30.000 30.000 5.3111 6.9198 8.7774
68 0.0000 20.000 40.000 4.5466 4.2935 13.897
69 10.000 30.000 50.000 7.8274 7.9262 22.031
70 0.0000 20.000 60.000 7.8649 5.6206 31.375
71 10.000 30.000 70.000 12.008 9.5983 44.052
72 0.0000 20.000 80.000 12.963 7.6596 58.228
73 10.000 30.000 90.000 18.074 12.024 76.002
74 0.0000 20.000 100.00 20.043 10.491 95.520
75 0.0000 40.000 0.0000 5.7042 10.407 2.5681
76 10.000 50.000 10.000 9.1665 16.437 4.4887
77 0.0000 40.000 20.000 6.2958 10.644 5.6842
78 10.000 50.000 30.000 10.296 16.889 10.439
79 0.0000 40.000 40.000 8.0787 11.357 15.075
80 10.000 50.000 50.000 12.813 17.895 23.693
81 0.0000 40.000 60.000 11.397 12.684 32.553
82 10.000 50.000 70.000 16.993 19.567 45.714
83 0.0000 40.000 80.000 16.495 14.723 59.406
84 10.000 50.000 90.000 23.059 21.993 77.664
85 0.0000 40.000 100.00 23.575 17.554 96.697
86 0.0000 60.000 0.0000 12.278 23.553 4.7594
87 10.000 70.000 10.000 17.449 33.000 7.2497
88 0.0000 60.000 20.000 12.870 23.790 7.8756
89 10.000 70.000 30.000 18.579 33.452 13.200
90 0.0000 60.000 40.000 14.653 24.503 17.266
91 10.000 70.000 50.000 21.096 34.459 26.454
92 0.0000 60.000 60.000 17.971 25.830 34.744
93 10.000 70.000 70.000 25.276 36.131 48.475
94 0.0000 60.000 80.000 23.069 27.869 61.597
95 10.000 70.000 90.000 31.342 38.557 80.425
96 0.0000 60.000 100.00 30.149 30.701 98.888
97 0.0000 80.000 0.0000 22.379 43.751 8.1263
98 10.000 90.000 10.000 29.467 57.032 11.256
99 0.0000 80.000 20.000 22.970 43.988 11.242
100 10.000 90.000 30.000 30.597 57.484 17.206
101 0.0000 80.000 40.000 24.753 44.701 20.633
102 10.000 90.000 50.000 33.113 58.490 30.460
103 0.0000 80.000 60.000 28.071 46.028 38.111
104 10.000 90.000 70.000 37.294 60.162 52.481
105 0.0000 80.000 80.000 33.170 48.067 64.964
106 10.000 90.000 90.000 43.360 62.588 84.430
107 0.0000 80.000 100.00 40.250 50.899 102.26
108 0.0000 100.00 0.0000 36.405 71.801 12.802
109 0.0000 100.00 20.000 36.997 72.037 15.918
110 0.0000 100.00 40.000 38.780 72.750 25.309
111 0.0000 100.00 60.000 42.098 74.077 42.786
112 0.0000 100.00 80.000 47.196 76.116 69.639
113 0.0000 100.00 100.00 54.276 78.948 106.93
114 20.000 0.0000 0.0000 2.3517 1.6969 1.0633
115 30.000 10.000 10.000 4.5243 3.3231 2.2018
116 20.000 0.0000 20.000 2.9433 1.9335 4.1795
117 30.000 10.000 30.000 5.6541 3.7749 8.1523
118 20.000 0.0000 40.000 4.7262 2.6466 13.570
119 30.000 10.000 50.000 8.1704 4.7813 21.406
120 20.000 0.0000 60.000 8.0445 3.9737 31.048
121 30.000 10.000 70.000 12.351 6.4534 43.427
122 20.000 0.0000 80.000 13.143 6.0127 57.901
123 30.000 10.000 90.000 18.417 8.8793 75.377
124 20.000 0.0000 100.00 20.223 8.8442 95.192
125 20.000 20.000 0.0000 3.5238 4.0408 1.4540
126 30.000 30.000 10.000 6.7625 7.7988 2.9479
127 20.000 20.000 40.000 5.8983 4.9904 13.961
128 30.000 30.000 50.000 10.409 9.2570 22.152
129 20.000 20.000 60.000 9.2165 6.3175 31.439
130 30.000 30.000 70.000 14.589 10.929 44.173
131 20.000 20.000 80.000 14.315 8.3565 58.292
132 30.000 30.000 90.000 20.655 13.355 76.123
133 20.000 20.000 100.00 21.395 11.188 95.583
134 20.000 40.000 0.0000 7.0559 11.104 2.6314
135 30.000 50.000 10.000 11.748 17.768 4.6096
136 20.000 40.000 20.000 7.6475 11.341 5.7475
137 30.000 50.000 30.000 12.877 18.220 10.560
138 20.000 40.000 40.000 9.4304 12.054 15.138
139 30.000 50.000 50.000 15.394 19.226 23.814
140 20.000 40.000 60.000 12.749 13.381 32.616
141 30.000 50.000 70.000 19.575 20.898 45.835
142 20.000 40.000 80.000 17.847 15.420 59.469
143 30.000 50.000 90.000 25.640 23.324 77.785
144 20.000 40.000 100.00 24.927 18.251 96.760
145 20.000 60.000 0.0000 13.630 24.250 4.8228
146 30.000 70.000 10.000 20.031 34.331 7.3706
147 20.000 60.000 20.000 14.222 24.487 7.9389
148 30.000 70.000 30.000 21.160 34.783 13.321
149 20.000 60.000 40.000 16.004 25.200 17.330
150 30.000 70.000 50.000 23.677 35.789 26.575
151 20.000 60.000 60.000 19.323 26.527 34.807
152 30.000 70.000 70.000 27.858 37.462 48.596
153 20.000 60.000 80.000 24.421 28.566 61.660
154 30.000 70.000 90.000 33.923 39.888 80.546
155 20.000 60.000 100.00 31.501 31.398 98.952
156 20.000 80.000 0.0000 23.730 44.448 8.1896
157 30.000 90.000 10.000 32.048 58.363 11.376
158 20.000 80.000 20.000 24.322 44.685 11.306
159 30.000 90.000 30.000 33.178 58.814 17.327
160 20.000 80.000 40.000 26.105 45.398 20.696
161 30.000 90.000 50.000 35.694 59.821 30.581
162 20.000 80.000 60.000 29.423 46.725 38.174
163 30.000 90.000 70.000 39.875 61.493 52.602
164 20.000 80.000 80.000 34.521 48.764 65.027
165 30.000 90.000 90.000 45.941 63.919 84.551
166 20.000 80.000 100.00 41.601 51.596 102.32
167 20.000 100.00 0.0000 37.757 72.497 12.865
168 20.000 100.00 20.000 38.349 72.734 15.981
169 20.000 100.00 40.000 40.131 73.447 25.372
170 20.000 100.00 60.000 43.450 74.774 42.850
171 20.000 100.00 80.000 48.548 76.813 69.703
172 20.000 100.00 100.00 55.628 79.645 106.99
173 40.000 0.0000 0.0000 6.4250 3.7972 1.2542
174 50.000 10.000 10.000 10.273 6.2873 2.4712
175 40.000 0.0000 20.000 7.0167 4.0338 4.3703
176 50.000 10.000 30.000 11.403 6.7391 8.4217
177 40.000 0.0000 40.000 8.7995 4.7468 13.761
178 50.000 10.000 50.000 13.919 7.7455 21.675
179 40.000 0.0000 60.000 12.118 6.0739 31.239
180 50.000 10.000 70.000 18.100 9.4176 43.696
181 40.000 0.0000 80.000 17.216 8.1129 58.092
182 50.000 10.000 90.000 24.166 11.844 75.646
183 40.000 0.0000 100.00 24.296 10.944 95.383
184 40.000 20.000 0.0000 7.5971 6.1410 1.6449
185 50.000 30.000 10.000 12.511 10.763 3.2173
186 40.000 20.000 20.000 8.1887 6.3776 4.7610
187 50.000 30.000 30.000 13.641 11.215 9.1678
188 40.000 20.000 40.000 9.9716 7.0907 14.152
189 50.000 30.000 50.000 16.158 12.221 22.421
190 40.000 20.000 60.000 13.290 8.4178 31.629
191 50.000 30.000 70.000 20.338 13.893 44.443
192 40.000 20.000 80.000 18.388 10.457 58.483
193 50.000 30.000 90.000 26.404 16.319 76.392
194 40.000 20.000 100.00 25.468 13.288 95.774
195 40.000 40.000 0.0000 11.129 13.204 2.8223
196 50.000 50.000 10.000 17.497 20.732 4.8790
197 40.000 40.000 20.000 11.721 13.441 5.9384
198 50.000 50.000 30.000 18.626 21.184 10.829
199 40.000 40.000 60.000 16.822 15.481 32.807
200 50.000 50.000 70.000 25.324 23.862 46.104
201 40.000 40.000 80.000 21.920 17.520 59.660
202 50.000 50.000 90.000 31.389 26.288 78.054
203 40.000 40.000 100.00 29.000 20.352 96.951
204 40.000 60.000 0.0000 17.703 26.350 5.0136
205 50.000 70.000 10.000 25.780 37.295 7.6400
206 40.000 60.000 20.000 18.295 26.587 8.1298
207 50.000 70.000 30.000 26.909 37.747 13.591
208 40.000 60.000 40.000 20.078 27.300 17.520
209 50.000 70.000 50.000 29.426 38.754 26.844
210 40.000 60.000 60.000 23.396 28.627 34.998
211 50.000 70.000 70.000 33.607 40.426 48.865
212 40.000 60.000 80.000 28.494 30.666 61.851
213 50.000 70.000 90.000 39.672 42.852 80.815
214 40.000 60.000 100.00 35.574 33.498 99.143
215 40.000 80.000 0.0000 27.804 46.548 8.3805
216 50.000 90.000 10.000 37.797 61.327 11.646
217 40.000 80.000 20.000 28.395 46.785 11.497
218 50.000 90.000 30.000 38.927 61.779 17.596
219 40.000 80.000 40.000 30.178 47.498 20.887
220 50.000 90.000 50.000 41.443 62.785 30.850
221 40.000 80.000 60.000 33.496 48.825 38.365
222 50.000 90.000 70.000 45.624 64.457 52.871
223 40.000 80.000 80.000 38.595 50.864 65.218
224 50.000 90.000 90.000 51.690 66.883 84.821
225 40.000 80.000 100.00 45.675 53.696 102.51
226 40.000 100.00 0.0000 41.830 74.598 13.056
227 40.000 100.00 20.000 42.422 74.834 16.172
228 40.000 100.00 40.000 44.205 75.547 25.563
229 40.000 100.00 60.000 47.523 76.874 43.041
230 40.000 100.00 80.000 52.621 78.913 69.894
231 40.000 100.00 100.00 59.701 81.745 107.19
232 60.000 0.0000 0.0000 14.006 7.7061 1.6095
233 70.000 10.000 10.000 19.825 11.212 2.9188
234 60.000 0.0000 20.000 14.598 7.9427 4.7256
235 70.000 10.000 30.000 20.955 11.664 8.8693
236 60.000 0.0000 40.000 16.381 8.6558 14.116
237 70.000 10.000 50.000 23.471 12.671 22.123
238 60.000 0.0000 60.000 19.699 9.9829 31.594
239 70.000 10.000 70.000 27.652 14.343 44.144
240 60.000 0.0000 80.000 24.797 12.022 58.447
241 70.000 10.000 90.000 33.718 16.769 76.094
242 60.000 0.0000 100.00 31.877 14.853 95.738
243 60.000 20.000 0.0000 15.178 10.050 2.0002
244 70.000 30.000 10.000 22.064 15.688 3.6649
245 60.000 20.000 20.000 15.770 10.287 5.1163
246 70.000 30.000 30.000 23.193 16.140 9.6154
247 60.000 20.000 40.000 17.553 11.000 14.507
248 70.000 30.000 50.000 25.710 17.146 22.869
249 60.000 20.000 60.000 20.871 12.327 31.985
250 70.000 30.000 70.000 29.891 18.818 44.890
251 60.000 20.000 80.000 25.969 14.366 58.838
252 70.000 30.000 90.000 35.956 21.244 76.840
253 60.000 20.000 100.00 33.050 17.197 96.129
254 60.000 40.000 0.0000 18.711 17.113 3.1775
255 70.000 50.000 10.000 27.049 25.657 5.3266
256 60.000 40.000 20.000 19.302 17.350 6.2937
257 70.000 50.000 30.000 28.178 26.109 11.277
258 60.000 40.000 40.000 21.085 18.063 15.684
259 70.000 50.000 50.000 30.695 27.115 24.531
260 60.000 40.000 60.000 24.403 19.390 33.162
261 70.000 50.000 70.000 34.876 28.787 46.552
262 60.000 40.000 80.000 29.502 21.429 60.015
263 70.000 50.000 90.000 40.942 31.213 78.501
264 60.000 40.000 100.00 36.582 24.261 97.307
265 60.000 60.000 0.0000 25.285 30.259 5.3689
266 70.000 70.000 10.000 35.332 42.221 8.0876
267 60.000 60.000 20.000 25.876 30.496 8.4850
268 70.000 70.000 30.000 36.461 42.672 14.038
269 60.000 60.000 40.000 27.659 31.209 17.876
270 70.000 70.000 50.000 38.978 43.679 27.292
271 60.000 60.000 80.000 36.076 34.575 62.207
272 70.000 70.000 90.000 49.224 47.777 81.262
273 60.000 60.000 100.00 43.156 37.407 99.498
274 60.000 80.000 0.0000 35.385 50.457 8.7357
275 70.000 90.000 10.000 47.349 66.252 12.093
276 60.000 80.000 20.000 35.977 50.694 11.852
277 70.000 90.000 30.000 48.479 66.704 18.044
278 60.000 80.000 40.000 37.759 51.407 21.242
279 70.000 90.000 50.000 50.995 67.710 31.297
280 60.000 80.000 60.000 41.078 52.734 38.720
281 70.000 90.000 70.000 55.176 69.382 53.319
282 60.000 80.000 80.000 46.176 54.773 65.573
283 70.000 90.000 90.000 61.242 71.808 85.268
284 60.000 80.000 100.00 53.256 57.605 102.86
285 60.000 100.00 0.0000 49.412 78.507 13.411
286 60.000 100.00 20.000 50.003 78.743 16.527
287 60.000 100.00 40.000 51.786 79.456 25.918
288 60.000 100.00 60.000 55.104 80.783 43.396
289 60.000 100.00 80.000 60.203 82.822 70.249
290 60.000 100.00 100.00 67.283 85.654 107.54
291 80.000 0.0000 0.0000 25.654 13.712 2.1553
292 90.000 10.000 10.000 33.684 18.358 3.5682
293 80.000 0.0000 20.000 26.246 13.948 5.2714
294 90.000 10.000 30.000 34.814 18.810 9.5187
295 80.000 0.0000 40.000 28.029 14.662 14.662
296 90.000 10.000 50.000 37.330 19.816 22.772
297 80.000 0.0000 60.000 31.347 15.989 32.140
298 90.000 10.000 70.000 41.511 21.488 44.793
299 80.000 0.0000 80.000 36.445 18.028 58.993
300 90.000 10.000 90.000 47.577 23.914 76.743
301 80.000 0.0000 100.00 43.525 20.859 96.284
302 80.000 20.000 0.0000 26.826 16.056 2.5460
303 90.000 30.000 10.000 35.922 22.834 4.3143
304 80.000 20.000 20.000 27.418 16.292 5.6621
305 90.000 30.000 30.000 37.052 23.286 10.265
306 80.000 20.000 40.000 29.201 17.005 15.053
307 90.000 30.000 50.000 39.568 24.292 23.518
308 80.000 20.000 60.000 32.519 18.332 32.530
309 90.000 30.000 70.000 43.749 25.964 45.540
310 80.000 20.000 80.000 37.618 20.371 59.384
311 90.000 30.000 90.000 49.815 28.390 77.489
312 80.000 20.000 100.00 44.698 23.203 96.675
313 80.000 40.000 0.0000 30.359 23.119 3.7234
314 90.000 50.000 10.000 40.907 32.803 5.9760
315 80.000 40.000 20.000 30.950 23.356 6.8395
316 90.000 50.000 30.000 42.037 33.254 11.926
317 80.000 40.000 40.000 32.733 24.069 16.230
318 90.000 50.000 50.000 44.554 34.261 25.180
319 80.000 40.000 60.000 36.051 25.396 33.708
320 90.000 50.000 70.000 48.734 35.933 47.201
321 80.000 40.000 80.000 41.150 27.435 60.561
322 90.000 50.000 90.000 54.800 38.359 79.151
323 80.000 40.000 100.00 48.230 30.266 97.852
324 80.000 60.000 0.0000 36.933 36.265 5.9147
325 90.000 70.000 10.000 49.190 49.366 8.7370
326 80.000 60.000 20.000 37.524 36.502 9.0308
327 90.000 70.000 30.000 50.320 49.818 14.687
328 80.000 60.000 40.000 39.307 37.215 18.421
329 90.000 70.000 50.000 52.836 50.824 27.941
330 80.000 60.000 60.000 42.625 38.542 35.899
331 90.000 70.000 70.000 57.017 52.496 49.962
332 80.000 60.000 80.000 47.724 40.581 62.752
333 90.000 70.000 90.000 63.083 54.922 81.912
334 80.000 60.000 100.00 54.804 43.412 100.04
335 80.000 80.000 0.0000 47.033 56.463 9.2815
336 90.000 90.000 10.000 61.208 73.398 12.743
337 80.000 80.000 20.000 47.625 56.700 12.398
338 90.000 90.000 30.000 62.338 73.849 18.693
339 80.000 80.000 40.000 49.408 57.413 21.788
340 90.000 90.000 50.000 64.854 74.856 31.947
341 80.000 80.000 60.000 52.726 58.740 39.266
342 90.000 90.000 70.000 69.035 76.528 53.968
343 80.000 80.000 100.00 64.904 63.610 103.41
344 80.000 100.00 0.0000 61.060 84.512 13.957
345 80.000 100.00 20.000 61.651 84.749 17.073
346 80.000 100.00 40.000 63.434 85.462 26.464
347 80.000 100.00 60.000 66.752 86.789 43.942
348 80.000 100.00 80.000 71.851 88.828 70.795
349 80.000 100.00 100.00 78.931 91.660 108.09
350 100.00 0.0000 0.0000 41.830 22.052 2.9132
351 100.00 0.0000 20.000 42.422 22.289 6.0293
352 100.00 0.0000 40.000 44.205 23.002 15.420
353 100.00 0.0000 60.000 47.523 24.329 32.898
354 100.00 0.0000 80.000 52.621 26.368 59.751
355 100.00 0.0000 100.00 59.701 29.199 97.042
356 100.00 20.000 0.0000 43.002 24.396 3.3039
357 100.00 20.000 20.000 43.594 24.633 6.4200
358 100.00 20.000 40.000 45.377 25.346 15.811
359 100.00 20.000 60.000 48.695 26.673 33.288
360 100.00 20.000 80.000 53.793 28.712 60.142
361 100.00 20.000 100.00 60.873 31.543 97.433
362 100.00 40.000 0.0000 46.534 31.459 4.4813
363 100.00 40.000 20.000 47.126 31.696 7.5974
364 100.00 40.000 40.000 48.909 32.409 16.988
365 100.00 40.000 60.000 52.227 33.736 34.466
366 100.00 40.000 80.000 57.325 35.775 61.319
367 100.00 40.000 100.00 64.406 38.607 98.610
368 100.00 60.000 0.0000 53.108 44.605 6.6727
369 100.00 60.000 20.000 53.700 44.842 9.7888
370 100.00 60.000 40.000 55.483 45.555 19.179
371 100.00 60.000 60.000 58.801 46.882 36.657
372 100.00 60.000 80.000 63.899 48.921 63.510
373 100.00 60.000 100.00 70.979 51.753 100.80
374 100.00 80.000 0.0000 63.209 64.803 10.040
375 100.00 80.000 20.000 63.800 65.040 13.156
376 100.00 80.000 40.000 65.583 65.753 22.546
377 100.00 80.000 60.000 68.902 67.080 40.024
378 100.00 80.000 80.000 74.000 69.119 66.877
379 100.00 80.000 100.00 81.080 71.951 104.17
380 100.00 100.00 0.0000 77.235 92.853 14.715
381 100.00 100.00 20.000 77.827 93.089 17.831
382 100.00 100.00 40.000 79.610 93.802 27.222
383 100.00 100.00 60.000 82.928 95.129 44.700
384 100.00 100.00 80.000 88.026 97.168 71.553
385 0.0000 12.549 100.00 19.382 9.1699 95.299
386 12.549 0.0000 100.00 19.461 8.4514 95.157
387 0.0000 100.00 12.549 36.663 71.904 14.161
388 12.549 100.00 0.0000 36.995 72.105 12.829
389 100.00 0.0000 12.549 42.088 22.155 4.2728
390 100.00 12.549 0.0000 42.342 23.075 3.0837
391 0.0000 25.098 100.00 20.686 11.777 95.734
392 25.098 0.0000 100.00 20.964 9.2266 95.227
393 0.0000 100.00 25.098 37.321 72.167 17.628
394 25.098 100.00 0.0000 38.499 72.880 12.900
395 100.00 0.0000 25.098 42.746 22.419 7.7392
396 100.00 25.098 0.0000 43.645 25.682 3.5183
END_DATA
CTI1   

ORIGINATOR "Argyll targen"
KEYWORD "DENSITY_EXTREME_VALUES"
DENSITY_EXTREME_VALUES "8"
CREATED "February 23, 2010"
DESCRIPTOR "Argyll Calibration Target chart information 1"

KEYWORD "INDEX"
NUMBER_OF_FIELDS 7
BEGIN_DATA_FORMAT
INDEX RGB_R RGB_G RGB_B XYZ_X XYZ_Y XYZ_Z
END_DATA_FORMAT

NUMBER_OF_SETS 8
BEGIN_DATA
0 100.00 100.00 100.00 95.106 100.00 108.84
1 0.0000 47.361 100.00 25.613 21.629 97.376
2 100.00 0.0000 79.351 52.426 26.290 58.722
3 0.0000 0.0000 58.997 6.4858 3.1940 29.894
4 100.00 66.659 0.0000 56.059 50.505 7.6561
5 0.0000 35.601 0.0000 4.6856 8.3702 2.2286
6 84.444 0.0000 0.0000 28.843 15.356 2.3047
7 0.0000 0.0000 0.0000 1.0000 1.0000 1.0000
END_DATA
CTI1   

ORIGINATOR "Argyll targen"
CREATED "February 23, 2010"
DESCRIPTOR "Argyll Calibration Target chart information 1"
KEYWORD "DEVICE_COMBINATION_VALUES"
DEVICE_COMBINATION_VALUES "9"

KEYWORD "INDEX"
NUMBER_OF_FIELDS 7
BEGIN_DATA_FORMAT
INDEX RGB_R RGB_G RGB_B XYZ_X XYZ_Y XYZ_Z
END_DATA_FORMAT

NUMBER_OF_SETS 9
BEGIN_DATA
0 100.00 100.00 100.00 95.106 100.00 108.84
1 0.0000 100.00 100.00 54.276 78.948 106.93
2 100.00 0.0000 100.00 59.701 29.199 97.042
3 0.0000 0.0000 100.00 18.871 8.1473 95.129
4 100.00 100.00 0.0000 77.235 92.853 14.715
5 0.0000 100.00 0.0000 36.405 71.801 12.802
6 100.00 0.0000 0.0000 41.830 22.052 2.9132
7 0.0000 0.0000 0.0000 1.0000 1.0000 1.0000
8 60.000 60.000 60.000 30.977 32.536 35.353
END_DATA