dispcalGUI/ti1/d3-e4-s0-g25-m0-f0-cubic3-crossover.ti1
CTI1   

ORIGINATOR "Argyll targen"
CREATED "Tue Feb 23 21:21:48 2010"
KEYWORD "COMP_GREY_STEPS"
COMP_GREY_STEPS "25"
KEYWORD "ERROR_OPTIMISED_PATCHES"
ERROR_OPTIMISED_PATCHES "0"
KEYWORD "APPROX_WHITE_POINT"
APPROX_WHITE_POINT "95.106486 100.000000 108.844025"
DESCRIPTOR "Argyll Calibration Target chart information 1"
KEYWORD "MULTI_DIM_BCC_STEPS"
MULTI_DIM_BCC_STEPS "4"
KEYWORD "WHITE_COLOR_PATCHES"
WHITE_COLOR_PATCHES "4"
KEYWORD "SINGLE_DIM_STEPS"
SINGLE_DIM_STEPS "0"
KEYWORD "COLOR_REP"
COLOR_REP "RGB"

NUMBER_OF_FIELDS 7
BEGIN_DATA_FORMAT
SAMPLE_ID RGB_R RGB_G RGB_B XYZ_X XYZ_Y XYZ_Z
END_DATA_FORMAT

NUMBER_OF_SETS 124
BEGIN_DATA
1 100.00 100.00 100.00 95.106 100.00 108.84
2 100.00 100.00 100.00 95.106 100.00 108.84
3 100.00 100.00 100.00 95.106 100.00 108.84
4 100.00 100.00 100.00 95.106 100.00 108.84
5 0.0000 0.0000 0.0000 1.0000 1.0000 1.0000
6 4.1667 4.1667 4.1667 1.3037 1.3195 1.3481
7 8.3333 8.3333 8.3333 1.7179 1.7552 1.8226
8 12.500 12.500 12.500 2.3504 2.4206 2.5475
9 16.667 16.667 16.667 3.2258 3.3416 3.5508
10 20.833 20.833 20.833 4.3653 4.5403 4.8566
11 25.000 25.000 25.000 5.7878 6.0367 6.4867
12 29.167 29.167 29.167 7.5103 7.8489 8.4607
13 33.333 33.333 33.333 9.5488 9.9933 10.797
14 37.500 37.500 37.500 11.918 12.486 13.512
15 41.667 41.667 41.667 14.631 15.340 16.621
16 45.833 45.833 45.833 17.702 18.571 20.140
17 50.000 50.000 50.000 21.143 22.190 24.083
18 54.167 54.167 54.167 24.965 26.211 28.463
19 58.333 58.333 58.333 29.179 30.644 33.293
20 62.500 62.500 62.500 33.797 35.503 38.585
21 66.667 66.667 66.667 38.829 40.796 44.351
22 70.833 70.833 70.833 44.284 46.535 50.603
23 75.000 75.000 75.000 50.173 52.730 57.351
24 79.167 79.167 79.167 56.504 59.390 64.606
25 83.333 83.333 83.333 63.287 66.526 72.379
26 87.500 87.500 87.500 70.530 74.146 80.680
27 91.667 91.667 91.667 78.242 82.259 89.518
28 95.833 95.833 95.833 86.432 90.874 98.903
29 0.0000 0.0000 33.333 2.6234 1.6493 9.5508
30 0.0000 0.0000 66.667 8.1838 3.8731 38.838
31 0.0000 0.0000 100.00 18.871 8.1473 95.129
32 0.0000 33.333 0.0000 4.2163 7.4316 2.0721
33 0.0000 33.333 33.333 5.8397 8.0809 10.623
34 0.0000 33.333 66.667 11.400 10.305 39.910
35 0.0000 33.333 100.00 22.087 14.579 96.201
36 0.0000 66.667 0.0000 15.232 29.460 5.7441
37 0.0000 66.667 33.333 16.856 30.110 14.295
38 0.0000 66.667 66.667 22.416 32.333 43.582
39 0.0000 66.667 100.00 33.103 36.608 99.873
40 0.0000 100.00 0.0000 36.405 71.801 12.802
41 0.0000 100.00 33.333 38.029 72.450 21.353
42 0.0000 100.00 66.667 43.589 74.674 50.640
43 0.0000 100.00 100.00 54.276 78.948 106.93
44 16.667 16.667 50.000 6.6283 4.7024 21.472
45 16.667 16.667 83.333 14.632 7.9032 63.626
46 16.667 50.000 16.667 9.9666 16.821 5.7977
47 16.667 50.000 50.000 13.369 18.182 23.719
48 16.667 50.000 83.333 21.372 21.383 65.873
49 16.667 83.333 16.667 25.822 48.528 11.083
50 16.667 83.333 50.000 29.225 49.889 29.004
51 16.667 83.333 83.333 37.228 53.090 71.158
52 33.333 0.0000 0.0000 4.7091 2.9124 1.1738
53 33.333 0.0000 33.333 6.3325 3.5617 9.7246
54 33.333 0.0000 66.667 11.893 5.7855 39.012
55 33.333 0.0000 100.00 22.580 10.060 95.303
56 33.333 33.333 0.0000 7.9254 9.3441 2.2459
57 33.333 33.333 66.667 15.109 12.217 40.084
58 33.333 33.333 100.00 25.796 16.491 96.375
59 33.333 66.667 0.0000 18.941 31.373 5.9179
60 33.333 66.667 33.333 20.565 32.022 14.469
61 33.333 66.667 66.667 26.125 34.246 43.756
62 33.333 66.667 100.00 36.812 38.520 100.05
63 33.333 100.00 0.0000 40.114 73.713 12.976
64 33.333 100.00 33.333 41.738 74.362 21.526
65 33.333 100.00 66.667 47.298 76.586 50.813
66 33.333 100.00 100.00 57.985 80.860 107.10
67 50.000 16.667 16.667 10.999 7.3497 3.9150
68 50.000 16.667 50.000 14.402 8.7105 21.836
69 50.000 16.667 83.333 22.405 11.911 63.990
70 50.000 50.000 16.667 17.740 20.829 6.1620
71 50.000 50.000 83.333 29.146 25.391 66.237
72 50.000 83.333 16.667 33.596 52.536 11.447
73 50.000 83.333 50.000 36.998 53.897 29.368
74 50.000 83.333 83.333 45.002 57.098 71.523
75 66.667 0.0000 0.0000 17.413 9.4625 1.7691
76 66.667 0.0000 33.333 19.036 10.112 10.320
77 66.667 0.0000 66.667 24.597 12.336 39.607
78 66.667 0.0000 100.00 35.284 16.610 95.898
79 66.667 33.333 0.0000 20.629 15.894 2.8412
80 66.667 33.333 33.333 22.253 16.543 11.392
81 66.667 33.333 66.667 27.813 18.767 40.679
82 66.667 33.333 100.00 38.500 23.041 96.970
83 66.667 66.667 0.0000 31.645 37.923 6.5132
84 66.667 66.667 33.333 33.268 38.572 15.064
85 66.667 66.667 100.00 49.516 45.070 100.64
86 66.667 100.00 0.0000 52.818 80.263 13.571
87 66.667 100.00 33.333 54.441 80.912 22.122
88 66.667 100.00 66.667 60.002 83.136 51.409
89 66.667 100.00 100.00 70.689 87.410 107.70
90 83.333 16.667 16.667 29.285 16.778 4.7718
91 83.333 16.667 50.000 32.687 18.138 22.693
92 83.333 16.667 83.333 40.690 21.339 64.847
93 83.333 50.000 16.667 36.025 30.257 7.0188
94 83.333 50.000 50.000 39.428 31.618 24.940
95 83.333 50.000 83.333 47.431 34.819 67.094
96 83.333 83.333 16.667 51.881 61.964 12.304
97 83.333 83.333 50.000 55.283 63.325 30.225
98 100.00 0.0000 0.0000 41.830 22.052 2.9132
99 100.00 0.0000 33.333 43.454 22.701 11.464
100 100.00 0.0000 66.667 49.014 24.925 40.751
101 100.00 0.0000 100.00 59.701 29.199 97.042
102 100.00 33.333 0.0000 45.046 28.484 3.9853
103 100.00 33.333 33.333 46.670 29.133 12.536
104 100.00 33.333 66.667 52.230 31.357 41.823
105 100.00 33.333 100.00 62.918 35.631 98.114
106 100.00 66.667 0.0000 56.062 50.512 7.6573
107 100.00 66.667 33.333 57.686 51.162 16.208
108 100.00 66.667 66.667 63.246 53.385 45.495
109 100.00 66.667 100.00 73.933 57.660 101.79
110 100.00 100.00 0.0000 77.235 92.853 14.715
111 100.00 100.00 33.333 78.859 93.502 23.266
112 100.00 100.00 66.667 84.419 95.726 52.553
113 0.0000 12.549 100.00 19.382 9.1699 95.299
114 12.549 0.0000 100.00 19.461 8.4514 95.157
115 0.0000 100.00 12.549 36.663 71.904 14.161
116 12.549 100.00 0.0000 36.995 72.105 12.829
117 100.00 0.0000 12.549 42.088 22.155 4.2728
118 100.00 12.549 0.0000 42.342 23.075 3.0837
119 0.0000 25.098 100.00 20.686 11.777 95.734
120 25.098 0.0000 100.00 20.964 9.2266 95.227
121 0.0000 100.00 25.098 37.321 72.167 17.628
122 25.098 100.00 0.0000 38.499 72.880 12.900
123 100.00 0.0000 25.098 42.746 22.419 7.7392
124 100.00 25.098 0.0000 43.645 25.682 3.5183
END_DATA
CTI1   

ORIGINATOR "Argyll targen"
KEYWORD "DENSITY_EXTREME_VALUES"
DENSITY_EXTREME_VALUES "8"
CREATED "February 23, 2010"
DESCRIPTOR "Argyll Calibration Target chart information 1"

KEYWORD "INDEX"
NUMBER_OF_FIELDS 7
BEGIN_DATA_FORMAT
INDEX RGB_R RGB_G RGB_B XYZ_X XYZ_Y XYZ_Z
END_DATA_FORMAT

NUMBER_OF_SETS 8
BEGIN_DATA
0 100.00 100.00 100.00 95.106 100.00 108.84
1 0.0000 47.361 100.00 25.613 21.629 97.376
2 100.00 0.0000 79.351 52.426 26.290 58.722
3 0.0000 0.0000 58.997 6.4858 3.1940 29.894
4 100.00 66.659 0.0000 56.059 50.505 7.6561
5 0.0000 35.601 0.0000 4.6856 8.3702 2.2286
6 84.444 0.0000 0.0000 28.843 15.356 2.3047
7 0.0000 0.0000 0.0000 1.0000 1.0000 1.0000
END_DATA
CTI1   

ORIGINATOR "Argyll targen"
CREATED "February 23, 2010"
DESCRIPTOR "Argyll Calibration Target chart information 1"
KEYWORD "DEVICE_COMBINATION_VALUES"
DEVICE_COMBINATION_VALUES "9"

KEYWORD "INDEX"
NUMBER_OF_FIELDS 7
BEGIN_DATA_FORMAT
INDEX RGB_R RGB_G RGB_B XYZ_X XYZ_Y XYZ_Z
END_DATA_FORMAT

NUMBER_OF_SETS 9
BEGIN_DATA
0 100.00 100.00 100.00 95.106 100.00 108.84
1 0.0000 100.00 100.00 54.276 78.948 106.93
2 100.00 0.0000 100.00 59.701 29.199 97.042
3 0.0000 0.0000 100.00 18.871 8.1473 95.129
4 100.00 100.00 0.0000 77.235 92.853 14.715
5 0.0000 100.00 0.0000 36.405 71.801 12.802
6 100.00 0.0000 0.0000 41.830 22.052 2.9132
7 0.0000 0.0000 0.0000 1.0000 1.0000 1.0000
8 60.000 60.000 60.000 30.977 32.536 35.353
END_DATA