dispcalGUI/ti1/d3-e4-s33-g129-m0-f0-cubic8.ti1
CTI1   

ORIGINATOR "Argyll targen"
KEYWORD "OFPS_PATCHES"
OFPS_PATCHES "1224"
CREATED "Wed Oct 16 18:42:21 2013"
KEYWORD "COMP_GREY_STEPS"
COMP_GREY_STEPS "129"
KEYWORD "APPROX_WHITE_POINT"
APPROX_WHITE_POINT "95.045781 100.000003 108.905751"
DESCRIPTOR "Argyll Calibration Target chart information 1"
KEYWORD "ACCURATE_EXPECTED_VALUES"
ACCURATE_EXPECTED_VALUES "true"
KEYWORD "WHITE_COLOR_PATCHES"
WHITE_COLOR_PATCHES "4"
KEYWORD "SINGLE_DIM_STEPS"
SINGLE_DIM_STEPS "33"
KEYWORD "COLOR_REP"
COLOR_REP "RGB"

NUMBER_OF_FIELDS 7
BEGIN_DATA_FORMAT
SAMPLE_ID RGB_R RGB_G RGB_B XYZ_X XYZ_Y XYZ_Z
END_DATA_FORMAT

NUMBER_OF_SETS 1428
BEGIN_DATA
1 100.00000 100.00000 100.00000 95.046000 100.00000 108.91000
2 100.00000 100.00000 100.00000 95.046000 100.00000 108.91000
3 100.00000 100.00000 100.00000 95.046000 100.00000 108.91000
4 100.00000 100.00000 100.00000 95.046000 100.00000 108.91000
5 0.0000000 0.0000000 0.0000000 0.0000000 0.0000000 0.0000000
6 3.1250000 0.0000000 0.0000000 0.0999540 0.0515290 0.0046793
7 6.2500000 0.0000000 0.0000000 0.2124500 0.1095300 0.0099459
8 9.3750000 0.0000000 0.0000000 0.3745100 0.1930700 0.0175320
9 15.625000 0.0000000 0.0000000 0.8687900 0.4478900 0.0406720
10 18.750000 0.0000000 0.0000000 1.2098000 0.6237000 0.0566380
11 21.875000 0.0000000 0.0000000 1.6186000 0.8344200 0.0757730
12 28.125000 0.0000000 0.0000000 2.6516000 1.3670000 0.1241300
13 31.250000 0.0000000 0.0000000 3.2820000 1.6920000 0.1536500
14 34.375000 0.0000000 0.0000000 3.9920000 2.0580000 0.1868800
15 40.625000 0.0000000 0.0000000 5.6616000 2.9187000 0.2650500
16 43.750000 0.0000000 0.0000000 6.6262000 3.4160000 0.3102000
17 46.875000 0.0000000 0.0000000 7.6805000 3.9595000 0.3595600
18 53.125000 0.0000000 0.0000000 10.067000 5.1898000 0.4712800
19 56.250000 0.0000000 0.0000000 11.403000 5.8785000 0.5338200
20 59.375000 0.0000000 0.0000000 12.838000 6.6181000 0.6009800
21 65.625000 0.0000000 0.0000000 16.008000 8.2527000 0.7494200
22 68.750000 0.0000000 0.0000000 17.749000 9.1500000 0.8309000
23 71.875000 0.0000000 0.0000000 19.595000 10.102000 0.9173200
24 78.125000 0.0000000 0.0000000 23.610000 12.172000 1.1053000
25 81.250000 0.0000000 0.0000000 25.784000 13.292000 1.2071000
26 84.375000 0.0000000 0.0000000 28.069000 14.471000 1.3141000
27 90.625000 0.0000000 0.0000000 32.984000 17.004000 1.5441000
28 93.750000 0.0000000 0.0000000 35.616000 18.361000 1.6674000
29 96.875000 0.0000000 0.0000000 38.367000 19.780000 1.7962000
30 0.0000000 3.1250000 0.0000000 0.0866690 0.1733500 0.0288930
31 0.0000000 6.2500000 0.0000000 0.1842200 0.3684600 0.0614130
32 0.0000000 9.3750000 0.0000000 0.3247300 0.6495100 0.1082600
33 0.0000000 15.625000 0.0000000 0.7533200 1.5067000 0.2511400
34 0.0000000 18.750000 0.0000000 1.0490000 2.0982000 0.3497200
35 0.0000000 21.875000 0.0000000 1.4034000 2.8071000 0.4678700
36 0.0000000 28.125000 0.0000000 2.2992000 4.5987000 0.7664800
37 0.0000000 31.250000 0.0000000 2.8458000 5.6920000 0.9487100
38 0.0000000 34.375000 0.0000000 3.4614000 6.9233000 1.1539000
39 0.0000000 40.625000 0.0000000 4.9091000 9.8190000 1.6366000
40 0.0000000 43.750000 0.0000000 5.7455000 11.492000 1.9154000
41 0.0000000 46.875000 0.0000000 6.6597000 13.320000 2.2202000
42 0.0000000 53.125000 0.0000000 8.7289000 17.459000 2.9100000
43 0.0000000 56.250000 0.0000000 9.8873000 19.776000 3.2962000
44 0.0000000 59.375000 0.0000000 11.131000 22.264000 3.7109000
45 0.0000000 65.625000 0.0000000 13.881000 27.763000 4.6274000
46 0.0000000 68.750000 0.0000000 15.390000 30.782000 5.1305000
47 0.0000000 71.875000 0.0000000 16.990000 33.983000 5.6641000
48 0.0000000 78.125000 0.0000000 20.472000 40.948000 6.8249000
49 0.0000000 81.250000 0.0000000 22.357000 44.717000 7.4532000
50 0.0000000 84.375000 0.0000000 24.339000 48.681000 8.1139000
51 0.0000000 90.625000 0.0000000 28.600000 57.204000 9.5345000
52 0.0000000 93.750000 0.0000000 30.882000 61.769000 10.295000
53 0.0000000 96.875000 0.0000000 33.268000 66.541000 11.091000
54 0.0000000 0.0000000 3.1250000 0.0437500 0.0175010 0.2303900
55 0.0000000 0.0000000 6.2500000 0.0929900 0.0371990 0.4897100
56 0.0000000 0.0000000 9.3750000 0.1639200 0.0655730 0.8632400
57 0.0000000 0.0000000 15.625000 0.3802700 0.1521200 2.0026000
58 0.0000000 0.0000000 18.750000 0.5295400 0.2118300 2.7887000
59 0.0000000 0.0000000 21.875000 0.7084500 0.2834000 3.7308000
60 0.0000000 0.0000000 28.125000 1.1606000 0.4642700 6.1119000
61 0.0000000 0.0000000 31.250000 1.4365000 0.5746500 7.5650000
62 0.0000000 0.0000000 34.375000 1.7473000 0.6989600 9.2015000
63 0.0000000 0.0000000 40.625000 2.4781000 0.9913000 13.050000
64 0.0000000 0.0000000 43.750000 2.9003000 1.1602000 15.273000
65 0.0000000 0.0000000 46.875000 3.3618000 1.3448000 17.704000
66 0.0000000 0.0000000 53.125000 4.4063000 1.7626000 23.204000
67 0.0000000 0.0000000 56.250000 4.9910000 1.9965000 26.284000
68 0.0000000 0.0000000 59.375000 5.6190000 2.2477000 29.591000
69 0.0000000 0.0000000 65.625000 7.0068000 2.8029000 36.899000
70 0.0000000 0.0000000 68.750000 7.7686000 3.1076000 40.911000
71 0.0000000 0.0000000 71.875000 8.5766000 3.4309000 45.166000
72 0.0000000 0.0000000 78.125000 10.334000 4.1340000 54.422000
73 0.0000000 0.0000000 81.250000 11.286000 4.5145000 59.432000
74 0.0000000 0.0000000 84.375000 12.286000 4.9147000 64.700000
75 0.0000000 0.0000000 90.625000 14.437000 5.7752000 76.028000
76 0.0000000 0.0000000 93.750000 15.589000 6.2361000 82.095000
77 0.0000000 0.0000000 96.875000 16.793000 6.7178000 88.437000
78 0.7812500 0.7812500 0.7812500 0.0579560 0.0609760 0.0664070
79 1.5625000 1.5625000 1.5625000 0.1144600 0.1204300 0.1311500
80 2.3438000 2.3438000 2.3438000 0.1724200 0.1814000 0.1975600
81 3.1250000 3.1250000 3.1250000 0.2303700 0.2423800 0.2639700
82 3.9063000 3.9063000 3.9063000 0.2868800 0.3018300 0.3287100
83 4.6875000 4.6875000 4.6875000 0.3477300 0.3658600 0.3984400
84 5.4688000 5.4688000 5.4688000 0.4157600 0.4374300 0.4763900
85 6.2500000 6.2500000 6.2500000 0.4896600 0.5151800 0.5610600
86 7.0313000 7.0313000 7.0313000 0.5720500 0.6018700 0.6554700
87 7.8125000 7.8125000 7.8125000 0.6618800 0.6963800 0.7584000
88 8.5938000 8.5938000 8.5938000 0.7588400 0.7983900 0.8695000
89 9.3750000 9.3750000 9.3750000 0.8631600 0.9081500 0.9890300
90 10.156000 10.156000 10.156000 0.9760300 1.0269000 1.1184000
91 10.938000 10.938000 10.938000 1.0963000 1.1534000 1.2562000
92 11.719000 11.719000 11.719000 1.2264000 1.2903000 1.4052000
93 12.500000 12.500000 12.500000 1.3640000 1.4351000 1.5629000
94 13.281000 13.281000 13.281000 1.5102000 1.5889000 1.7304000
95 14.063000 14.063000 14.063000 1.6652000 1.7520000 1.9080000
96 14.844000 14.844000 14.844000 1.8300000 1.9253000 2.0968000
97 15.625000 15.625000 15.625000 2.0024000 2.1067000 2.2944000
98 16.406000 16.406000 16.406000 2.1847000 2.2986000 2.5033000
99 17.188000 17.188000 17.188000 2.3772000 2.5011000 2.7238000
100 17.969000 17.969000 17.969000 2.5783000 2.7127000 2.9543000
101 18.750000 18.750000 18.750000 2.7884000 2.9337000 3.1950000
102 19.531000 19.531000 19.531000 3.0095000 3.1664000 3.4484000
103 20.313000 20.313000 20.313000 3.2399000 3.4088000 3.7123000
104 21.094000 21.094000 21.094000 3.4801000 3.6615000 3.9876000
105 21.875000 21.875000 21.875000 3.7305000 3.9249000 4.2744000
106 22.656000 22.656000 22.656000 3.9909000 4.1990000 4.5729000
107 23.438000 23.438000 23.438000 4.2619000 4.4840000 4.8834000
108 24.219000 24.219000 24.219000 4.5437000 4.7806000 5.2063000
109 25.000000 25.000000 25.000000 4.8360000 5.0881000 5.5413000
110 25.781000 25.781000 25.781000 5.1385000 5.4063000 5.8878000
111 26.563000 26.563000 26.563000 5.4514000 5.7356000 6.2464000
112 27.344000 27.344000 27.344000 5.7756000 6.0767000 6.6178000
113 28.125000 28.125000 28.125000 6.1114000 6.4299000 7.0025000
114 28.906000 28.906000 28.906000 6.4572000 6.7938000 7.3989000
115 29.688000 29.688000 29.688000 6.8147000 7.1699000 7.8084000
116 30.469000 30.469000 30.469000 7.1837000 7.5582000 8.2313000
117 31.250000 31.250000 31.250000 7.5643000 7.9586000 8.6674000
118 32.031000 32.031000 32.031000 7.9551000 8.3697000 9.1151000
119 32.813000 32.813000 32.813000 8.3589000 8.7946000 9.5778000
120 33.594000 33.594000 33.594000 8.7737000 9.2311000 10.053000
121 34.375000 34.375000 34.375000 9.2006000 9.6802000 10.542000
122 35.156000 35.156000 35.156000 9.6392000 10.142000 11.045000
123 35.938000 35.938000 35.938000 10.090000 10.616000 11.561000
124 36.719000 36.719000 36.719000 10.552000 11.102000 12.091000
125 37.500000 37.500000 37.500000 11.027000 11.602000 12.635000
126 38.281000 38.281000 38.281000 11.514000 12.114000 13.193000
127 39.063000 39.063000 39.063000 12.013000 12.639000 13.765000
128 39.844000 39.844000 39.844000 12.525000 13.178000 14.351000
129 40.625000 40.625000 40.625000 13.049000 13.729000 14.952000
130 41.406000 41.406000 41.406000 13.586000 14.294000 15.567000
131 42.188000 42.188000 42.188000 14.136000 14.873000 16.197000
132 42.969000 42.969000 42.969000 14.697000 15.463000 16.841000
133 43.750000 43.750000 43.750000 15.272000 16.068000 17.499000
134 44.531000 44.531000 44.531000 15.860000 16.687000 18.173000
135 45.313000 45.313000 45.313000 16.461000 17.319000 18.861000
136 46.094000 46.094000 46.094000 17.075000 17.965000 19.565000
137 46.875000 46.875000 46.875000 17.702000 18.625000 20.283000
138 47.656000 47.656000 47.656000 18.342000 19.299000 21.017000
139 48.438000 48.438000 48.438000 18.997000 19.987000 21.767000
140 49.219000 49.219000 49.219000 19.663000 20.688000 22.531000
141 50.000000 50.000000 50.000000 20.344000 21.405000 23.311000
142 50.781000 50.781000 50.781000 21.037000 22.134000 24.105000
143 51.563000 51.563000 51.563000 21.746000 22.879000 24.917000
144 52.344000 52.344000 52.344000 22.467000 23.638000 25.743000
145 53.125000 53.125000 53.125000 23.202000 24.411000 26.585000
146 53.906000 53.906000 53.906000 23.951000 25.199000 27.444000
147 54.688000 54.688000 54.688000 24.714000 26.002000 28.318000
148 55.469000 55.469000 55.469000 25.491000 26.820000 29.208000
149 56.250000 56.250000 56.250000 26.281000 27.651000 30.114000
150 57.031000 57.031000 57.031000 27.087000 28.499000 31.037000
151 57.813000 57.813000 57.813000 27.907000 29.361000 31.976000
152 58.594000 58.594000 58.594000 28.740000 30.238000 32.931000
153 59.375000 59.375000 59.375000 29.588000 31.130000 33.902000
154 60.156000 60.156000 60.156000 30.450000 32.038000 34.891000
155 60.938000 60.938000 60.938000 31.327000 32.960000 35.895000
156 61.719000 61.719000 61.719000 32.218000 33.898000 36.917000
157 62.500000 62.500000 62.500000 33.124000 34.851000 37.955000
158 63.281000 63.281000 63.281000 34.045000 35.820000 39.010000
159 64.063000 64.063000 64.063000 34.981000 36.804000 40.082000
160 64.844000 64.844000 64.844000 35.931000 37.804000 41.171000
161 65.625000 65.625000 65.625000 36.896000 38.819000 42.276000
162 66.406000 66.406000 66.406000 37.876000 39.850000 43.399000
163 67.188000 67.188000 67.188000 38.871000 40.898000 44.540000
164 67.969000 67.969000 67.969000 39.882000 41.961000 45.698000
165 68.750000 68.750000 68.750000 40.907000 43.039000 46.872000
166 69.531000 69.531000 69.531000 41.948000 44.134000 48.065000
167 70.313000 70.313000 70.313000 43.003000 45.245000 49.274000
168 71.094000 71.094000 71.094000 44.075000 46.372000 50.502000
169 71.875000 71.875000 71.875000 45.162000 47.516000 51.747000
170 72.656000 72.656000 72.656000 46.264000 48.675000 53.010000
171 73.438000 73.438000 73.438000 47.381000 49.851000 54.290000
172 74.219000 74.219000 74.219000 48.515000 51.043000 55.589000
173 75.000000 75.000000 75.000000 49.664000 52.253000 56.906000
174 75.781000 75.781000 75.781000 50.828000 53.477000 58.240000
175 76.563000 76.563000 76.563000 52.008000 54.719000 59.592000
176 77.344000 77.344000 77.344000 53.205000 55.979000 60.964000
177 78.125000 78.125000 78.125000 54.417000 57.253000 62.352000
178 78.906000 78.906000 78.906000 55.645000 58.545000 63.759000
179 79.688000 79.688000 79.688000 56.890000 59.855000 65.185000
180 80.469000 80.469000 80.469000 58.149000 61.180000 66.629000
181 81.250000 81.250000 81.250000 59.426000 62.524000 68.092000
182 82.031000 82.031000 82.031000 60.719000 63.884000 69.573000
183 82.813000 82.813000 82.813000 62.027000 65.260000 71.072000
184 83.594000 83.594000 83.594000 63.352000 66.654000 72.590000
185 84.375000 84.375000 84.375000 64.694000 68.066000 74.128000
186 85.156000 85.156000 85.156000 66.052000 69.495000 75.684000
187 85.938000 85.938000 85.938000 67.426000 70.940000 77.258000
188 86.719000 86.719000 86.719000 68.817000 72.404000 78.852000
189 87.500000 87.500000 87.500000 70.224000 73.885000 80.465000
190 88.281000 88.281000 88.281000 71.649000 75.383000 82.097000
191 89.063000 89.063000 89.063000 73.089000 76.899000 83.747000
192 89.844000 89.844000 89.844000 74.547000 78.433000 85.418000
193 90.625000 90.625000 90.625000 76.021000 79.983000 87.106000
194 91.406000 91.406000 91.406000 77.512000 81.552000 88.815000
195 92.188000 92.188000 92.188000 79.020000 83.139000 90.543000
196 92.969000 92.969000 92.969000 80.546000 84.744000 92.292000
197 93.750000 93.750000 93.750000 82.088000 86.367000 94.058000
198 94.531000 94.531000 94.531000 83.647000 88.007000 95.845000
199 95.313000 95.313000 95.313000 85.223000 89.666000 97.651000
200 96.094000 96.094000 96.094000 86.817000 91.343000 99.477000
201 96.875000 96.875000 96.875000 88.429000 93.038000 101.32000
202 97.656000 97.656000 97.656000 90.057000 94.751000 103.19000
203 98.438000 98.438000 98.438000 91.702000 96.482000 105.07000
204 99.219000 99.219000 99.219000 93.365000 98.232000 106.98000
205 0.0000000 0.0000000 12.500000 1.2564482 1.1025631 2.3507388
206 0.0000000 0.0000000 25.000000 1.9092120 1.3636274 5.7889133
207 0.0000000 0.0000000 37.500000 3.0733368 1.8292038 11.920478
208 0.0000000 0.0000000 50.000000 4.8251522 2.5298193 21.147470
209 0.0000000 0.0000000 62.500000 7.2282631 3.4909119 33.804902
210 0.0000000 0.0000000 75.000000 10.338039 4.7346258 50.184410
211 0.0000000 0.0000000 87.500000 14.203973 6.2807554 70.546685
212 0.0000000 0.0000000 100.00000 18.871107 8.1473143 95.128960
213 0.0000000 12.500000 0.0000000 1.5080603 2.0159786 1.1693549
214 0.0000000 12.500000 12.500000 1.7645085 2.1185416 2.5200936
215 0.0000000 12.500000 25.000000 2.4172723 2.3796059 5.9582681
216 0.0000000 12.500000 37.500000 3.5813971 2.8451823 12.089833
217 0.0000000 12.500000 50.000000 5.3332125 3.5457978 21.316825
218 0.0000000 12.500000 62.500000 7.7363234 4.5068904 33.974257
219 0.0000000 12.500000 75.000000 10.846099 5.7506043 50.353765
220 0.0000000 12.500000 87.500000 14.712034 7.2967340 70.716040
221 0.0000000 12.500000 100.00000 19.379168 9.1632928 95.298315
222 0.0000000 25.000000 0.0000000 2.8012785 4.6020534 1.6004312
223 0.0000000 25.000000 12.500000 3.0577267 4.7046164 2.9511700
224 0.0000000 25.000000 25.000000 3.7104906 4.9656807 6.3893445
225 0.0000000 25.000000 37.500000 4.8746153 5.4312571 12.520909
226 0.0000000 25.000000 50.000000 6.6264307 6.1318727 21.747901
227 0.0000000 25.000000 62.500000 9.0295416 7.0929652 34.405333
228 0.0000000 25.000000 75.000000 12.139317 8.3366791 50.784842
229 0.0000000 25.000000 87.500000 16.005252 9.8828088 71.147116
230 0.0000000 25.000000 100.00000 20.672386 11.749368 95.729391
231 0.0000000 37.500000 0.0000000 5.1075755 9.2140023 2.3692033
232 0.0000000 37.500000 12.500000 5.3640236 9.3165654 3.7199421
233 0.0000000 37.500000 25.000000 6.0167875 9.5776297 7.1581166
234 0.0000000 37.500000 37.500000 7.1809122 10.043206 13.289681
235 0.0000000 37.500000 50.000000 8.9327276 10.743822 22.516673
236 0.0000000 37.500000 62.500000 11.335839 11.704914 35.174105
237 0.0000000 37.500000 75.000000 14.445614 12.948628 51.553614
238 0.0000000 37.500000 87.500000 18.311549 14.494758 71.915888
239 0.0000000 37.500000 100.00000 22.978683 16.361317 96.498163
240 0.0000000 50.000000 0.0000000 8.5781713 16.154223 3.5260783
241 0.0000000 50.000000 12.500000 8.8346194 16.256787 4.8768171
242 0.0000000 50.000000 25.000000 9.4873833 16.517851 8.3149915
243 0.0000000 50.000000 37.500000 10.651508 16.983427 14.446556
244 0.0000000 50.000000 50.000000 12.403323 17.684043 23.673548
245 0.0000000 50.000000 62.500000 14.806434 18.645135 36.330980
246 0.0000000 50.000000 75.000000 17.916210 19.888849 52.710489
247 0.0000000 50.000000 87.500000 21.782144 21.434979 73.072763
248 0.0000000 50.000000 100.00000 26.449279 23.301538 97.655038
249 0.0000000 62.500000 0.0000000 13.339076 25.674702 5.1130599
250 0.0000000 62.500000 12.500000 13.595524 25.777265 6.4637987
251 0.0000000 62.500000 25.000000 14.248288 26.038329 9.9019732
252 0.0000000 62.500000 37.500000 15.412413 26.503906 16.033538
253 0.0000000 62.500000 50.000000 17.164228 27.204521 25.260530
254 0.0000000 62.500000 62.500000 19.567339 28.165614 37.917962
255 0.0000000 62.500000 75.000000 22.677115 29.409328 54.297470
256 0.0000000 62.500000 87.500000 26.543049 30.955457 74.659745
257 0.0000000 62.500000 100.00000 31.210183 32.822016 99.242020
258 0.0000000 75.000000 0.0000000 19.499985 37.994796 7.1667133
259 0.0000000 75.000000 12.500000 19.756433 38.097359 8.5174521
260 0.0000000 75.000000 25.000000 20.409197 38.358424 11.955627
261 0.0000000 75.000000 37.500000 21.573321 38.824000 18.087191
262 0.0000000 75.000000 50.000000 23.325137 39.524616 27.314183
263 0.0000000 75.000000 62.500000 25.728248 40.485708 39.971615
264 0.0000000 75.000000 75.000000 28.838023 41.729422 56.351124
265 0.0000000 75.000000 87.500000 32.703958 43.275552 76.713398
266 0.0000000 75.000000 100.00000 37.371092 45.142111 101.29567
267 0.0000000 87.500000 0.0000000 27.158952 53.310588 9.7197236
268 0.0000000 87.500000 12.500000 27.415400 53.413151 11.070462
269 0.0000000 87.500000 25.000000 28.068164 53.674216 14.508637
270 0.0000000 87.500000 37.500000 29.232288 54.139792 20.640202
271 0.0000000 87.500000 50.000000 30.984104 54.840408 29.867194
272 0.0000000 87.500000 62.500000 33.387215 55.801500 42.524626
273 0.0000000 87.500000 75.000000 36.496990 57.045214 58.904134
274 0.0000000 87.500000 87.500000 40.362925 58.591344 79.266408
275 0.0000000 87.500000 100.00000 45.030059 60.457903 103.84868
276 0.0000000 100.00000 0.0000000 36.405209 71.800517 12.801835
277 0.0000000 100.00000 12.500000 36.661657 71.903080 14.152574
278 0.0000000 100.00000 25.000000 37.314421 72.164145 17.590749
279 0.0000000 100.00000 37.500000 38.478546 72.629721 23.722313
280 0.0000000 100.00000 50.000000 40.230361 73.330337 32.949305
281 0.0000000 100.00000 62.500000 42.633472 74.291429 45.606737
282 0.0000000 100.00000 75.000000 45.743247 75.535143 61.986246
283 0.0000000 100.00000 87.500000 49.609182 77.081273 82.348520
284 0.0000000 100.00000 100.00000 54.276316 78.947831 106.93079
285 6.2500000 6.2500000 18.750000 1.9174335 1.6832846 3.8327222
286 6.2500000 6.2500000 31.250000 2.8152525 2.0423555 8.5616272
287 6.2500000 6.2500000 43.750000 4.2646217 2.6220116 16.195604
288 6.2500000 6.2500000 56.250000 6.3347203 3.4499203 27.099026
289 6.2500000 6.2500000 68.750000 9.0846508 4.5497188 41.583193
290 6.2500000 6.2500000 81.250000 12.566624 5.9422881 59.923102
291 6.2500000 6.2500000 93.750000 16.827766 7.6464758 82.366975
292 6.2500000 18.750000 6.2500000 2.3415340 3.2228761 1.8414612
293 6.2500000 18.750000 18.750000 2.7737857 3.3957495 4.1181753
294 6.2500000 18.750000 31.250000 3.6716047 3.7548204 8.8470804
295 6.2500000 18.750000 43.750000 5.1209739 4.3344765 16.481057
296 6.2500000 18.750000 56.250000 7.1910725 5.1623852 27.384479
297 6.2500000 18.750000 68.750000 9.9410030 6.2621837 41.868646
298 6.2500000 18.750000 81.250000 13.422976 7.6547530 60.208555
299 6.2500000 18.750000 93.750000 17.684118 9.3589407 82.652428
300 6.2500000 31.250000 6.2500000 4.1202413 6.7797934 2.4343686
301 6.2500000 31.250000 18.750000 4.5524930 6.9526667 4.7110827
302 6.2500000 31.250000 31.250000 5.4503121 7.3117376 9.4399878
303 6.2500000 31.250000 43.750000 6.8996812 7.8913938 17.073964
304 6.2500000 31.250000 56.250000 8.9697798 8.7193025 27.977387
305 6.2500000 31.250000 68.750000 11.719710 9.8191010 42.461553
306 6.2500000 31.250000 81.250000 15.201683 11.211670 60.801463
307 6.2500000 31.250000 93.750000 19.462825 12.915858 83.245336
308 6.2500000 43.750000 6.2500000 6.9916481 12.521804 3.3915122
309 6.2500000 43.750000 18.750000 7.4238998 12.694677 5.6682263
310 6.2500000 43.750000 31.250000 8.3217188 13.053748 10.397131
311 6.2500000 43.750000 43.750000 9.7710879 13.633404 18.031108
312 6.2500000 43.750000 56.250000 11.841187 14.461313 28.934530
313 6.2500000 43.750000 68.750000 14.591117 15.561112 43.418697
314 6.2500000 43.750000 81.250000 18.073090 16.953681 61.758606
315 6.2500000 43.750000 93.750000 22.334232 18.657868 84.202479
316 6.2500000 56.250000 6.2500000 11.092808 20.722977 4.7585770
317 6.2500000 56.250000 18.750000 11.525060 20.895851 7.0352912
318 6.2500000 56.250000 31.250000 12.422879 21.254922 11.764196
319 6.2500000 56.250000 43.750000 13.872248 21.834578 19.398173
320 6.2500000 56.250000 56.250000 15.942347 22.662487 30.301595
321 6.2500000 56.250000 68.750000 18.692277 23.762285 44.785762
322 6.2500000 56.250000 81.250000 22.174250 25.154854 63.125671
323 6.2500000 56.250000 93.750000 26.435392 26.859042 85.569544
324 6.2500000 68.750000 6.2500000 16.540812 31.617462 6.5745936
325 6.2500000 68.750000 18.750000 16.973064 31.790335 8.8513078
326 6.2500000 68.750000 31.250000 17.870883 32.149406 13.580213
327 6.2500000 68.750000 43.750000 19.320252 32.729062 21.214189
328 6.2500000 68.750000 56.250000 21.390351 33.556971 32.117612
329 6.2500000 68.750000 68.750000 24.140281 34.656770 46.601778
330 6.2500000 68.750000 81.250000 27.622254 36.049339 64.941688
331 6.2500000 68.750000 93.750000 31.883396 37.753527 87.385561
332 6.2500000 81.250000 6.2500000 23.439096 45.412101 8.8740410
333 6.2500000 81.250000 18.750000 23.871348 45.584975 11.150755
334 6.2500000 81.250000 31.250000 24.769167 45.944046 15.879660
335 6.2500000 81.250000 43.750000 26.218536 46.523702 23.513637
336 6.2500000 81.250000 56.250000 28.288635 47.351611 34.417059
337 6.2500000 81.250000 68.750000 31.038565 48.451409 48.901226
338 6.2500000 81.250000 81.250000 34.520538 49.843978 67.241135
339 6.2500000 81.250000 93.750000 38.781680 51.548166 89.685008
340 6.2500000 93.750000 6.2500000 31.881026 62.293599 11.688041
341 6.2500000 93.750000 18.750000 32.313277 62.466473 13.964755
342 6.2500000 93.750000 31.250000 33.211096 62.825544 18.693660
343 6.2500000 93.750000 43.750000 34.660466 63.405200 26.327637
344 6.2500000 93.750000 56.250000 36.730564 64.233109 37.231059
345 6.2500000 93.750000 68.750000 39.480495 65.332907 51.715226
346 6.2500000 93.750000 81.250000 42.962468 66.725476 70.055135
347 6.2500000 93.750000 93.750000 47.223610 68.429664 92.499008
348 12.500000 0.0000000 0.0000000 1.5859078 1.3020960 1.0274546
349 12.500000 0.0000000 12.500000 1.8423560 1.4046590 2.3781934
350 12.500000 0.0000000 25.000000 2.4951199 1.6657234 5.8163679
351 12.500000 0.0000000 37.500000 3.6592446 2.1312998 11.947933
352 12.500000 0.0000000 50.000000 5.4110600 2.8319153 21.174925
353 12.500000 0.0000000 62.500000 7.8141709 3.7930079 33.832357
354 12.500000 0.0000000 75.000000 10.923947 5.0367217 50.211865
355 12.500000 0.0000000 87.500000 14.789881 6.5828514 70.574139
356 12.500000 0.0000000 100.00000 19.457015 8.4494103 95.156414
357 12.500000 12.500000 0.0000000 2.0939681 2.3180745 1.1968095
358 12.500000 12.500000 25.000000 3.0031802 2.6817019 5.9857227
359 12.500000 12.500000 37.500000 4.1673049 3.1472783 12.117288
360 12.500000 12.500000 50.000000 5.9191203 3.8478938 21.344279
