dispcalGUI/ti1/d3-e4-s29-g85-m0-f994-cRec709_Gamma22.ti1
CTI1   

ORIGINATOR "Argyll targen"
KEYWORD "OFPS_PATCHES"
OFPS_PATCHES "819"
CREATED "Wed Dec 18 02:48:53 2013"
KEYWORD "COMP_GREY_STEPS"
COMP_GREY_STEPS "85"
KEYWORD "BLACK_COLOR_PATCHES"
BLACK_COLOR_PATCHES "4"
KEYWORD "APPROX_WHITE_POINT"
APPROX_WHITE_POINT "95.045781 100.000003 108.905751"
DESCRIPTOR "Argyll Calibration Target chart information 1"
KEYWORD "DARK_REGION_EMPHASIS"
DARK_REGION_EMPHASIS "1.6"
KEYWORD "ACCURATE_EXPECTED_VALUES"
ACCURATE_EXPECTED_VALUES "true"
KEYWORD "WHITE_COLOR_PATCHES"
WHITE_COLOR_PATCHES "4"
KEYWORD "SINGLE_DIM_STEPS"
SINGLE_DIM_STEPS "29"
KEYWORD "COLOR_REP"
COLOR_REP "RGB"

NUMBER_OF_FIELDS 7
BEGIN_DATA_FORMAT
SAMPLE_ID RGB_R RGB_G RGB_B XYZ_X XYZ_Y XYZ_Z
END_DATA_FORMAT

NUMBER_OF_SETS 994
BEGIN_DATA
1 100.0000000 100.0000000 100.0000000 95.04580000 100.0000000 108.9060000
2 26.22540000 37.48160000 25.33730000 7.185300000 9.735960000 6.121070000
3 37.41140000 38.65910000 23.77100000 9.933380000 11.59780000 5.730660000
4 36.55590000 45.90030000 29.77120000 12.21740000 15.73050000 8.979860000
5 39.58760000 77.90240000 100.0000000 44.07060000 51.28810000 102.1890000
6 0.000000000 24.61680000 75.00350000 11.22750000 7.113710000 51.04150000
7 24.49580000 41.12590000 90.21410000 21.32820000 16.85500000 77.56670000
8 23.76120000 48.86620000 100.0000000 27.20200000 22.92970000 97.60460000
9 70.46060000 89.47280000 100.0000000 65.14200000 73.06380000 105.2820000
10 13.88890000 13.88890000 13.88890000 1.237290000 1.301780000 1.417720000
11 7.683220000 7.683220000 7.683220000 0.336510000 0.354051000 0.385581000
12 0.000000000 0.000000000 11.02940000 0.141527000 0.056614600 0.745309000
13 1.096490000 1.096490000 1.096490000 0.004650240 0.004892630 0.005328360
14 0.000000000 1.655630000 0.000000000 0.004329870 0.008660380 0.001443470
15 11.02940000 0.000000000 0.000000000 0.323345000 0.166694000 0.015137200
16 15.38460000 0.000000000 0.000000000 0.672246000 0.346563000 0.031470900
17 17.71650000 0.000000000 0.000000000 0.916902000 0.472690000 0.042924400
18 20.78020000 11.19350000 0.000000000 1.591780000 1.250590000 0.157513000
19 28.26090000 0.000000000 0.000000000 2.560590000 1.320060000 0.119873000
20 31.95960000 0.000000000 12.29460000 3.535640000 1.801970000 1.103470000
21 31.25000000 0.000000000 0.000000000 3.194240000 1.646720000 0.149537000
22 34.40370000 0.000000000 0.000000000 3.946350000 2.034460000 0.184746000
23 37.73580000 0.000000000 0.000000000 4.836070000 2.493130000 0.226398000
24 100.0000000 38.83070000 38.39630000 47.90310000 31.07100000 14.99990000
25 100.0000000 39.44600000 68.00850000 53.59230000 33.59820000 44.18550000
26 41.26210000 0.000000000 0.000000000 5.885950000 3.034380000 0.275548000
27 45.00000000 0.000000000 0.000000000 7.122640000 3.671930000 0.333443000
28 48.96910000 0.000000000 0.000000000 8.577740000 4.422080000 0.401563000
29 53.19150000 0.000000000 0.000000000 10.28890000 5.304240000 0.481671000
30 57.69230000 0.000000000 0.000000000 12.30120000 6.341650000 0.575877000
31 62.50000000 0.000000000 0.000000000 14.66890000 7.562260000 0.686719000
32 85.52630000 0.000000000 0.000000000 29.23980000 15.07400000 1.368850000
33 92.46580000 0.000000000 0.000000000 34.71260000 17.89540000 1.625050000
34 100.0000000 0.000000000 0.000000000 41.23850000 21.25960000 1.930560000
35 100.0000000 65.31220000 49.98980000 59.17910000 50.85710000 27.29120000
36 100.0000000 66.07890000 62.35450000 62.00240000 52.56940000 40.36220000
37 51.41660000 35.36570000 0.000000000 13.18470000 12.19490000 1.659110000
38 66.31430000 35.81260000 0.000000000 20.44770000 16.09030000 2.028290000
39 66.43970000 51.04490000 43.29780000 27.79240000 26.09470000 18.58490000
40 13.15790000 0.000000000 0.000000000 0.476651000 0.245728000 0.022314200
41 6.410260000 6.410260000 6.410260000 0.225939000 0.237716000 0.258886000
42 3.378380000 0.000000000 0.000000000 0.023966800 0.012355600 0.001122000
43 0.000000000 7.042250000 0.000000000 0.104528000 0.209070000 0.034846800
44 0.000000000 13.78340000 11.62290000 0.616563000 0.979090000 0.988962000
45 0.000000000 17.71650000 0.000000000 0.795033000 1.590180000 0.265044000
46 0.000000000 20.16130000 0.000000000 1.056450000 2.113050000 0.352193000
47 0.000000000 22.72730000 0.000000000 1.374900000 2.750010000 0.458357000
48 0.000000000 25.42370000 0.000000000 1.759360000 3.518990000 0.586527000
49 0.000000000 28.26090000 0.000000000 2.220250000 4.440830000 0.740174000
50 0.000000000 31.25000000 0.000000000 2.769680000 5.539770000 0.923340000
51 0.000000000 34.40370000 0.000000000 3.421820000 6.844150000 1.140750000
52 0.000000000 37.73580000 0.000000000 4.193290000 8.387190000 1.397930000
53 0.000000000 41.26210000 0.000000000 5.103630000 10.20800000 1.701420000
54 0.000000000 45.00000000 0.000000000 6.175940000 12.35280000 2.058900000
55 0.000000000 48.96910000 0.000000000 7.437640000 14.87640000 2.479520000
56 0.000000000 53.19150000 0.000000000 8.921370000 17.84410000 2.974160000
57 0.000000000 57.69230000 0.000000000 10.66620000 21.33400000 3.555850000
58 0.000000000 62.50000000 0.000000000 12.71920000 25.44030000 4.240260000
59 0.000000000 67.64710000 0.000000000 15.13720000 30.27660000 5.046350000
60 0.000000000 73.17070000 0.000000000 17.98920000 35.98120000 5.997150000
61 0.000000000 79.11390000 0.000000000 21.36000000 42.72310000 7.120870000
62 0.000000000 85.52630000 0.000000000 25.35350000 50.71070000 8.452190000
63 0.000000000 100.0000000 54.27240000 40.46450000 73.40290000 36.70930000
64 30.77680000 100.0000000 65.66020000 46.00240000 75.97500000 49.75130000
65 29.21710000 100.0000000 79.36150000 49.36900000 77.28310000 69.22290000
66 14.63100000 14.63100000 14.63100000 1.387360000 1.459680000 1.589680000
67 8.992810000 8.992810000 8.992810000 0.475685000 0.500480000 0.545052000
68 8.992810000 0.000000000 0.000000000 0.206390000 0.106400000 0.009662070
69 0.000000000 11.02940000 0.000000000 0.280368000 0.560777000 0.093467400
70 0.000000000 0.000000000 5.172410000 0.026767500 0.010707700 0.140962000
71 0.000000000 0.000000000 8.992810000 0.090336700 0.036137000 0.475729000
72 10.34060000 10.34060000 10.34060000 0.646705000 0.680414000 0.741010000
73 0.000000000 0.000000000 15.38460000 0.294241000 0.117704000 1.549530000
74 0.000000000 0.000000000 17.71650000 0.401326000 0.160541000 2.113460000
75 0.000000000 9.014750000 18.56920000 0.624956000 0.537892000 2.403620000
76 0.000000000 0.000000000 25.42370000 0.888113000 0.355268000 4.676970000
77 0.000000000 0.000000000 28.26090000 1.120760000 0.448334000 5.902150000
78 0.000000000 10.57420000 30.01720000 1.535220000 1.023030000 6.824180000
79 0.000000000 0.000000000 31.25000000 1.398110000 0.559281000 7.362710000
80 0.000000000 0.000000000 37.73580000 2.116740000 0.846749000 11.14710000
81 0.000000000 0.000000000 41.26210000 2.576270000 1.030570000 13.56710000
82 0.000000000 0.000000000 45.00000000 3.117570000 1.247110000 16.41770000
83 0.000000000 0.000000000 48.96910000 3.754460000 1.501880000 19.77170000
84 0.000000000 0.000000000 53.19150000 4.503440000 1.801490000 23.71590000
85 0.000000000 0.000000000 57.69230000 5.384230000 2.153830000 28.35430000
86 0.000000000 0.000000000 62.50000000 6.420560000 2.568390000 33.81180000
87 0.000000000 0.000000000 67.64710000 7.641130000 3.056650000 40.23960000
88 0.000000000 0.000000000 73.17070000 9.080830000 3.632560000 47.82130000
89 0.000000000 0.000000000 79.11390000 10.78230000 4.313210000 56.78180000
90 0.000000000 17.77730000 80.54840000 12.01800000 6.089290000 59.33780000
91 0.000000000 18.01650000 100.0000000 18.87490000 8.870460000 95.32960000
92 84.05790000 22.93540000 100.0000000 47.59990000 24.53680000 96.84000000
93 100.0000000 27.34320000 100.0000000 61.35330000 32.61000000 97.67350000
94 11.77880000 0.000000000 11.36630000 0.524847000 0.253109000 0.813788000
95 0.000000000 8.992810000 0.000000000 0.178958000 0.357943000 0.059660100
96 0.000000000 0.000000000 1.655630000 0.002185680 0.000874330 0.011510200
97 0.000000000 5.172410000 0.000000000 0.053026700 0.106061000 0.017677800
98 5.172410000 0.000000000 0.000000000 0.061155100 0.031527300 0.002862950
99 0.000000000 0.000000000 7.042250000 0.052764700 0.021107200 0.277868000
100 0.544662000 0.544662000 0.544662000 0.000998117 0.001050140 0.001143670
101 1.655630000 1.655630000 1.655630000 0.011509100 0.012109100 0.013187500
102 2.222220000 2.222220000 2.222220000 0.021986500 0.023132600 0.025192700
103 4.566210000 4.566210000 4.566210000 0.107153000 0.112738000 0.122778000
104 2.796420000 2.796420000 2.796420000 0.036447800 0.038347700 0.041762800
105 0.000000000 3.378380000 0.000000000 0.020781300 0.041565600 0.006927950
106 3.378380000 3.378380000 3.378380000 0.055238300 0.058117600 0.063293400
107 5.172410000 5.172410000 5.172410000 0.140949000 0.148296000 0.161503000
108 12.97010000 9.366860000 0.000000000 0.657553000 0.629584000 0.086873600
109 7.042250000 0.000000000 0.000000000 0.120550000 0.062147300 0.005643510
110 3.968250000 3.968250000 3.968250000 0.078694900 0.082796800 0.090170500
111 5.787040000 5.787040000 5.787040000 0.180428000 0.189833000 0.206739000
112 0.000000000 0.000000000 13.15790000 0.208629000 0.083457100 1.098680000
113 7.042250000 7.042250000 7.042250000 0.277843000 0.292325000 0.318359000
114 8.333330000 8.333330000 8.333330000 0.402325000 0.423296000 0.460994000
115 13.15790000 13.15790000 13.15790000 1.098580000 1.155840000 1.258780000
116 14.58310000 11.16310000 16.26600000 1.218110000 1.016970000 1.875450000
117 12.43780000 12.43780000 12.43780000 0.970682000 1.021280000 1.112230000
118 15.38460000 15.38460000 15.38460000 1.549380000 1.630140000 1.775320000
119 16.14990000 16.14990000 16.14990000 1.723940000 1.813800000 1.975340000
120 16.92710000 16.92710000 16.92710000 1.911680000 2.011330000 2.190450000
121 18.51850000 18.51850000 18.51850000 2.329370000 2.450790000 2.669050000
122 17.71650000 17.71650000 17.71650000 2.113260000 2.223420000 2.421430000
123 19.33330000 19.33330000 19.33330000 2.560740000 2.694220000 2.934160000
124 21.00270000 21.00270000 21.00270000 3.072330000 3.232480000 3.520350000
125 20.16130000 20.16130000 20.16130000 2.808130000 2.954500000 3.217620000
126 22.72730000 22.72730000 22.72730000 3.654600000 3.845090000 4.187530000
127 23.61110000 23.61110000 23.61110000 3.974470000 4.181630000 4.554040000
128 24.50980000 24.50980000 24.50980000 4.314770000 4.539670000 4.943970000
129 25.42370000 25.42370000 25.42370000 4.676530000 4.920290000 5.358480000
130 26.35330000 26.35330000 26.35330000 5.060830000 5.324620000 5.798820000
131 27.29890000 27.29890000 27.29890000 5.468790000 5.753840000 6.266270000
132 29.23980000 29.23980000 29.23980000 6.360520000 6.692060000 7.288040000
133 30.23600000 30.23600000 30.23600000 6.846870000 7.203760000 7.845300000
134 31.25000000 31.25000000 31.25000000 7.362030000 7.745770000 8.435590000
135 32.28230000 32.28230000 32.28230000 7.907470000 8.319650000 9.060570000
136 33.33330000 33.33330000 33.33330000 8.484750000 8.927010000 9.722030000
137 34.40370000 34.40370000 34.40370000 9.095470000 9.569570000 10.42180000
138 35.49380000 35.49380000 35.49380000 9.741380000 10.24910000 11.16190000
139 36.60440000 36.60440000 36.60440000 10.42430000 10.96760000 11.94440000
140 37.73580000 37.73580000 37.73580000 11.14610000 11.72710000 12.77150000
141 38.88890000 38.88890000 38.88890000 11.90880000 12.52960000 13.64540000
142 40.06410000 40.06410000 40.06410000 12.71470000 13.37740000 14.56880000
143 41.26210000 41.26210000 41.26210000 13.56580000 14.27300000 15.54410000
144 42.48370000 42.48370000 42.48370000 14.46480000 15.21870000 16.57410000
145 43.72940000 43.72940000 43.72940000 15.41400000 16.21740000 17.66170000
146 45.00000000 45.00000000 45.00000000 16.41610000 17.27180000 18.81000000
147 46.29630000 46.29630000 46.29630000 17.47410000 18.38500000 20.02230000
148 47.61900000 47.61900000 47.61900000 18.59100000 19.56000000 21.30200000
149 48.96910000 48.96910000 48.96910000 19.76980000 20.80030000 22.65280000
150 50.34720000 50.34720000 50.34720000 21.01410000 22.10950000 24.07850000
151 51.75440000 51.75440000 51.75440000 22.32750000 23.49130000 25.58340000
152 53.19150000 53.19150000 53.19150000 23.71370000 24.94980000 27.17180000
153 54.65950000 54.65950000 54.65950000 25.17690000 26.48920000 28.84830000
154 56.15940000 56.15940000 56.15940000 26.72130000 28.11420000 30.61800000
155 57.69230000 57.69230000 57.69230000 28.35170000 29.82950000 32.48600000
156 59.25930000 59.25930000 59.25930000 30.07280000 31.64030000 34.45820000
157 60.86140000 60.86140000 60.86140000 31.89000000 33.55220000 36.54030000
158 62.50000000 62.50000000 62.50000000 33.80870000 35.57100000 38.73880000
159 64.17620000 64.17620000 64.17620000 35.83490000 37.70280000 41.06060000
160 65.89150000 65.89150000 65.89150000 37.97510000 39.95450000 43.51280000
161 67.64710000 67.64710000 67.64710000 40.23580000 42.33310000 46.10320000
162 69.44440000 69.44440000 69.44440000 42.62450000 44.84630000 48.84020000
163 71.28510000 71.28510000 71.28510000 45.14870000 47.50210000 51.73250000
164 73.17070000 73.17070000 73.17070000 47.81690000 50.30930000 54.78970000
165 75.10290000 75.10290000 75.10290000 50.63780000 53.27720000 58.02200000
166 77.08330000 77.08330000 77.08330000 53.62090000 56.41590000 61.44010000
167 79.11390000 79.11390000 79.11390000 56.77650000 59.73600000 65.05590000
168 81.19660000 81.19660000 81.19660000 60.11550000 63.24900000 68.88180000
169 83.33330000 83.33330000 83.33330000 63.64960000 66.96740000 72.93130000
170 46.03800000 15.59940000 0.000000000 8.089920000 5.062760000 0.550931000
171 62.86500000 20.63810000 0.000000000 15.97010000 9.884230000 1.066340000
172 81.01480000 21.80740000 0.000000000 27.21010000 15.89150000 1.633600000
173 82.36840000 35.55480000 0.000000000 30.59660000 21.23490000 2.486520000
174 85.52630000 85.52630000 85.52630000 67.39150000 70.90430000 77.21890000
175 87.77780000 87.77780000 87.77780000 71.35480000 75.07410000 81.76000000
176 94.90740000 94.90740000 94.90740000 84.72490000 89.14110000 97.07980000
177 33.60600000 43.77720000 35.32490000 11.39140000 14.29110000 11.75390000
178 47.24930000 55.75830000 36.14910000 19.75070000 24.65090000 13.81240000
179 28.26090000 28.26090000 28.26090000 5.901600000 6.209220000 6.762200000
180 27.33360000 33.28650000 26.58810000 6.541670000 7.983570000 6.333250000
181 81.58200000 33.13780000 27.24480000 30.54110000 20.30340000 7.729800000
182 82.01590000 81.62830000 52.54740000 53.93110000 61.26680000 31.96530000
183 0.000000000 56.84430000 64.50530000 17.20680000 23.40360000 39.68550000
184 0.000000000 58.09190000 75.06510000 20.43530000 25.50290000 54.19670000
185 43.67600000 71.86740000 77.47850000 34.26020000 42.14480000 60.30940000
186 51.37300000 85.11280000 84.04710000 46.93230000 60.01350000 73.66960000
187 67.64710000 0.000000000 0.000000000 17.45750000 8.999870000 0.817266000
188 73.17070000 0.000000000 0.000000000 20.74680000 10.69560000 0.971251000
189 79.11390000 0.000000000 0.000000000 24.63420000 12.69970000 1.153240000
190 79.53570000 0.000000000 31.34090000 26.33110000 13.41190000 8.576700000
191 0.000000000 12.60860000 43.58540000 3.282390000 1.915160000 15.42950000
192 0.000000000 29.02500000 51.04770000 6.468300000 6.354840000 22.44940000
193 0.000000000 32.88780000 67.78570000 10.77460000 9.268860000 41.45420000
194 28.44030000 0.000000000 17.99680000 3.011910000 1.504740000 2.309240000
195 47.24210000 0.000000000 13.96390000 8.164270000 4.181460000 1.623230000
196 61.70510000 0.000000000 26.93590000 15.27020000 7.755750000 5.978300000
197 60.68460000 33.27010000 25.52690000 17.82300000 13.80400000 6.422150000
198 59.94890000 57.06200000 26.15340000 24.74100000 28.10290000 9.074790000
199 75.77880000 100.0000000 66.38270000 65.49580000 86.00430000 51.57360000
200 85.19420000 100.0000000 82.28110000 76.50250000 91.16760000 75.17900000
201 18.55150000 24.90170000 19.24130000 3.176750000 4.077610000 3.142120000
202 14.64250000 35.51950000 52.86090000 8.715750000 9.429660000 24.64490000
203 19.56350000 45.88050000 52.88230000 12.03130000 15.25700000 25.61580000
204 64.81700000 46.97090000 63.33490000 29.28870000 24.41090000 37.81950000
205 100.0000000 65.23770000 72.67840000 64.16220000 52.79420000 53.70660000
206 100.0000000 82.85800000 88.58780000 78.71220000 74.08710000 82.63130000
207 30.58590000 28.19880000 22.87710000 5.960530000 6.271830000 4.587360000
208 76.36120000 30.00260000 36.76780000 27.31990000 17.61290000 12.43890000
209 81.44770000 37.62650000 57.56940000 35.78630000 24.01570000 30.84000000
210 82.19860000 46.18940000 67.16910000 40.85960000 29.90570000 43.05190000
211 43.52300000 18.83610000 26.39070000 8.492420000 5.617330000 5.690250000
212 47.33310000 36.42590000 56.36170000 16.95480000 13.90990000 28.60200000
213 53.67070000 42.29270000 80.05790000 26.94930000 20.61420000 60.57000000
214 0.000000000 0.000000000 20.16130000 0.533287000 0.213328000 2.808390000
215 0.000000000 0.000000000 22.72730000 0.694039000 0.277634000 3.654940000
216 0.000000000 12.20800000 25.23150000 1.223920000 1.050460000 4.716400000
217 0.000000000 31.46770000 45.03950000 5.935880000 6.874520000 17.38690000
218 0.000000000 42.38310000 66.34400000 12.73470000 13.75650000 40.35930000
219 0.000000000 45.43710000 82.23860000 18.04980000 17.31490000 63.93410000
220 23.09670000 0.000000000 25.81900000 2.561660000 1.214490000 4.915280000
221 50.35350000 0.000000000 32.13740000 10.60710000 5.296510000 8.257320000
222 67.40540000 0.000000000 39.69130000 19.68620000 9.875570000 13.26800000
223 83.47830000 0.000000000 45.74940000 30.95500000 15.58480000 18.32280000
224 100.0000000 51.42550000 48.09850000 53.13060000 39.27050000 23.69880000
225 86.50770000 100.0000000 23.54510000 66.49030000 87.27700000 17.27460000
226 100.0000000 100.0000000 25.09420000 77.85880000 93.12480000 18.39580000
227 16.75790000 16.77710000 11.71670000 1.678230000 1.893550000 1.124370000
228 14.63590000 15.77330000 0.000000000 1.218170000 1.542190000 0.233484000
229 11.72840000 11.72840000 11.72840000 0.853070000 0.897536000 0.977469000
230 48.94720000 53.13580000 0.000000000 17.47020000 22.22070000 3.368480000
231 48.02670000 65.66280000 0.000000000 22.39670000 32.59480000 5.111290000
232 55.85190000 73.83070000 18.77040000 30.25840000 42.78630000 9.052840000
233 73.78440000 77.35410000 27.35010000 42.50320000 51.97190000 13.25830000
234 40.38440000 85.44560000 27.09840000 31.93680000 53.90840000 14.07880000
235 46.77950000 86.61530000 100.0000000 51.87570000 63.36090000 104.1080000
236 0.000000000 38.91430000 28.79250000 5.654340000 9.441120000 7.644840000
237 0.000000000 39.49860000 37.81880000 6.763150000 10.12390000 12.74670000
238 21.36550000 78.06450000 40.76000000 24.63380000 43.20350000 20.18620000
239 13.49520000 22.20580000 0.000000000 1.810410000 2.872930000 0.459136000
240 30.96250000 19.56860000 5.062820000 4.144850000 3.602650000 0.610828000
241 37.62350000 21.66600000 0.000000000 6.042120000 4.952320000 0.637518000
242 38.56640000 44.35910000 100.0000000 29.10740000 21.80510000 97.28710000
243 46.49670000 57.18470000 100.0000000 36.16500000 32.08970000 98.90030000
244 0.000000000 67.35590000 37.22080000 17.04800000 30.81220000 15.81400000
245 0.000000000 83.05940000 44.23940000 26.77580000 48.75060000 23.73880000
246 0.000000000 100.0000000 67.40020000 43.33720000 74.55210000 51.83790000
247 0.000000000 100.0000000 79.67230000 46.70770000 75.90030000 69.58750000
248 0.000000000 100.0000000 100.0000000 53.80730000 78.74040000 106.9750000
249 67.82400000 100.0000000 100.0000000 71.36540000 87.79210000 107.7970000
250 0.000000000 15.22840000 20.28230000 1.110310000 1.356160000 3.035600000
251 15.69110000 11.06660000 51.23530000 5.131710000 2.585860000 21.96700000
252 69.61430000 29.51780000 59.04040000 26.70160000 16.73840000 31.51680000
253 76.31810000 39.88450000 78.43290000 38.07580000 25.43890000 58.35700000
254 90.09010000 90.09010000 90.09010000 75.55400000 79.49230000 86.57160000
255 92.46580000 92.46580000 92.46580000 80.00510000 84.17530000 91.67170000
256 82.14970000 62.26550000 0.000000000 39.37550000 39.02690000 5.458150000
257 100.0000000 61.87020000 0.000000000 53.67750000 46.13960000 6.077420000
258 100.0000000 74.26070000 0.000000000 59.82230000 58.43010000 8.125930000
259 100.0000000 85.16920000 25.10980000 67.22380000 71.85150000 14.85620000
260 31.81050000 38.56440000 0.000000000 7.720020000 10.50990000 1.621830000
261 43.08620000 39.32740000 0.000000000 11.06550000 12.52210000 1.833930000
262 100.0000000 38.28150000 53.94040000 50.21030000 31.77360000 27.82980000
263 30.53970000 0.000000000 37.75500000 5.155830000 2.413220000 11.30170000
264 36.84520000 0.000000000 50.92650000 8.681050000 4.002650000 21.76640000
265 68.74610000 0.000000000 83.36060000 30.18370000 14.16340000 64.54820000
266 79.65370000 0.000000000 100.0000000 43.05540000 20.11150000 96.22520000
267 100.0000000 0.000000000 100.0000000 59.28850000 28.48010000 96.98520000
268 43.12290000 25.98700000 62.50400000 14.75320000 9.604950000 34.73570000
269 54.34290000 24.28560000 65.41690000 19.47390000 11.58130000 38.41490000
270 36.11460000 28.59640000 35.74030000 8.547830000 7.572610000 10.85690000
271 38.00120000 38.76970000 44.85250000 12.45640000 12.67080000 18.01300000
272 37.77920000 57.79170000 55.13900000 20.42900000 25.86410000 29.46380000
273 50.11550000 58.43910000 70.15100000 28.27480000 29.91010000 47.66850000
274 52.85010000 84.24690000 74.00590000 43.98140000 58.01140000 57.68150000
275 64.43270000 59.79430000 52.72390000 31.64150000 32.93380000 27.84110000
276 67.23960000 72.72430000 65.86090000 42.18030000 47.26320000 44.66340000
277 52.86810000 55.74670000 61.60660000 26.26340000 27.50560000 36.53070000
278 59.73310000 57.69870000 68.57790000 31.82160000 31.33460000 45.64560000
279 64.16240000 0.000000000 16.49320000 15.88360000 8.148850000 2.533280000
280 64.21190000 0.000000000 48.13470000 19.18230000 9.471460000 19.76710000
281 81.83620000 0.000000000 60.17550000 32.44400000 16.04360000 32.35010000
282 100.0000000 0.000000000 69.95550000 49.46480000 24.55040000 45.25200000
283 100.0000000 0.000000000 83.63170000 53.42150000 26.13320000 66.08840000
284 54.35480000 47.22000000 70.82260000 26.10840000 22.67660000 47.30520000
285 65.41910000 48.95950000 75.98510000 33.51920000 27.17780000 55.19770000
286 75.02130000 66.55250000 75.02490000 46.11660000 44.34720000 56.42150000
287 86.85650000 86.72010000 79.00190000 67.13630000 72.17450000 66.73510000
288 100.0000000 20.81920000 0.000000000 42.37220000 23.52730000 2.308520000
289 100.0000000 36.84420000 0.000000000 45.21690000 29.21720000 3.256880000
290 100.0000000 49.32720000 0.000000000 48.79630000 36.37640000 4.450140000
291 100.0000000 59.76770000 86.80200000 65.98860000 49.60710000 75.40230000
292 19.70410000 0.000000000 17.68110000 1.558020000 0.757052000 2.158410000
293 26.05530000 9.723280000 22.41970000 3.027600000 1.798490000 3.718140000
294 34.46750000 0.000000000 27.09560000 4.984110000 2.451450000 5.565650000
295 38.54900000 22.59380000 30.90050000 7.789380000 5.873040000 7.872530000
296 38.79100000 64.32410000 48.38360000 22.34480000 31.21360000 24.01330000
297 0.000000000 15.38460000 0.000000000 0.582895000 1.165880000 0.194322000
298 0.000000000 13.15790000 0.000000000 0.413298000 0.826656000 0.137783000
299 11.02940000 11.02940000 11.02940000 0.745240000 0.784085000 0.853914000
300 0.000000000 44.76450000 58.94060000 11.74890000 14.46870000 31.75640000
301 0.000000000 83.51470000 85.80570000 36.95080000 53.28100000 75.90400000
302 0.000000000 100.0000000 90.20380000 50.14550000 77.27550000 87.69150000
