dispcalGUI/ti1/d3-e4-s0-g9-m3-b3-f0-crossover.ti1
CTI1   

ORIGINATOR "Argyll targen"
KEYWORD "MULTI_DIM_BCC_STEPS"
MULTI_DIM_BCC_STEPS "3"
CREATED "Wed Oct 16 19:18:48 2013"
KEYWORD "COMP_GREY_STEPS"
COMP_GREY_STEPS "9"
KEYWORD "BLACK_COLOR_PATCHES"
BLACK_COLOR_PATCHES "4"
KEYWORD "APPROX_WHITE_POINT"
APPROX_WHITE_POINT "95.106486 100.000000 108.844025"
DESCRIPTOR "Argyll Calibration Target chart information 1"
KEYWORD "MULTI_DIM_STEPS"
MULTI_DIM_STEPS "3"
KEYWORD "WHITE_COLOR_PATCHES"
WHITE_COLOR_PATCHES "4"
KEYWORD "SINGLE_DIM_STEPS"
SINGLE_DIM_STEPS "3"
KEYWORD "COLOR_REP"
COLOR_REP "RGB"

NUMBER_OF_FIELDS 7
BEGIN_DATA_FORMAT
SAMPLE_ID RGB_R RGB_G RGB_B XYZ_X XYZ_Y XYZ_Z
END_DATA_FORMAT

NUMBER_OF_SETS 57
BEGIN_DATA
1 100.000 100.000 100.000 95.1065 100.000 108.844
2 100.000 100.000 100.000 95.1065 100.000 108.844
3 100.000 100.000 100.000 95.1065 100.000 108.844
4 100.000 100.000 100.000 95.1065 100.000 108.844
5 0.00000 0.00000 0.00000 1.00000 1.00000 1.00000
6 0.00000 0.00000 0.00000 1.00000 1.00000 1.00000
7 0.00000 0.00000 0.00000 1.00000 1.00000 1.00000
8 0.00000 0.00000 0.00000 1.00000 1.00000 1.00000
9 12.5000 12.5000 12.5000 2.35042 2.42064 2.54755
10 25.0000 25.0000 25.0000 5.78777 6.03673 6.48668
11 37.5000 37.5000 37.5000 11.9179 12.4856 13.5116
12 50.0000 50.0000 50.0000 21.1427 22.1901 24.0831
13 62.5000 62.5000 62.5000 33.7971 35.5025 38.5847
14 75.0000 75.0000 75.0000 50.1727 52.7296 57.3508
15 87.5000 87.5000 87.5000 70.5301 74.1456 80.6800
16 0.00000 0.00000 50.0000 4.82515 2.52982 21.1475
17 0.00000 0.00000 100.000 18.8711 8.14731 95.1290
18 0.00000 50.0000 0.00000 8.57817 16.1542 3.52608
19 0.00000 50.0000 50.0000 12.4033 17.6840 23.6735
20 0.00000 50.0000 100.000 26.4493 23.3015 97.6550
21 0.00000 100.000 0.00000 36.4052 71.8005 12.8018
22 0.00000 100.000 50.0000 40.2304 73.3303 32.9493
23 0.00000 100.000 100.000 54.2763 78.9478 106.931
24 25.0000 25.0000 75.0000 14.2166 9.40773 50.8822
25 25.0000 75.0000 25.0000 22.4865 39.4295 12.0530
26 25.0000 75.0000 75.0000 30.9153 42.8005 56.4485
27 50.0000 0.00000 0.00000 9.73934 5.50603 1.40951
28 50.0000 0.00000 50.0000 13.5645 7.03585 21.5570
29 50.0000 0.00000 100.000 27.6104 12.6533 95.5385
30 50.0000 50.0000 0.00000 17.3175 20.6603 3.93559
31 50.0000 50.0000 100.000 35.1886 27.8076 98.0645
32 50.0000 100.000 0.00000 45.1445 76.3065 13.2113
33 50.0000 100.000 50.0000 48.9697 77.8364 33.3588
34 50.0000 100.000 100.000 63.0157 83.4539 107.340
35 75.0000 25.0000 25.0000 25.0451 15.9659 7.38905
36 75.0000 25.0000 75.0000 33.4740 19.3369 51.7845
37 75.0000 75.0000 25.0000 41.7438 49.3586 12.9553
38 100.000 0.00000 0.00000 41.8302 22.0522 2.91323
39 100.000 0.00000 50.0000 45.6553 23.5820 23.0607
40 100.000 0.00000 100.000 59.7013 29.1995 97.0422
41 100.000 50.0000 0.00000 49.4083 37.2064 5.43931
42 100.000 50.0000 50.0000 53.2335 38.7362 25.5868
43 100.000 50.0000 100.000 67.2794 44.3537 99.5683
44 100.000 100.000 0.00000 77.2354 92.8527 14.7151
45 100.000 100.000 50.0000 81.0605 94.3825 34.8625
46 0.00000 12.5000 100.000 19.3792 9.16329 95.2983
47 12.5000 0.00000 100.000 19.4570 8.44941 95.1564
48 0.00000 100.000 12.5000 36.6617 71.9031 14.1526
49 12.5000 100.000 0.00000 36.9911 72.1026 12.8293
50 100.000 0.00000 12.5000 42.0866 22.1547 4.26397
51 100.000 12.5000 0.00000 42.3382 23.0681 3.08259
52 0.00000 25.0000 100.000 20.6724 11.7494 95.7294
53 25.0000 0.00000 100.000 20.9484 9.21837 95.2263
54 0.00000 100.000 25.0000 37.3144 72.1641 17.5907
55 25.0000 100.000 0.00000 38.4825 72.8716 12.8992
56 100.000 0.00000 25.0000 42.7394 22.4158 7.70214
57 100.000 25.0000 0.00000 43.6314 25.6542 3.51366
END_DATA
CTI1   

ORIGINATOR "Argyll targen"
KEYWORD "DENSITY_EXTREME_VALUES"
DENSITY_EXTREME_VALUES "8"
CREATED "October 16, 2013"
DESCRIPTOR "Argyll Calibration Target chart information 1"

KEYWORD "INDEX"
NUMBER_OF_FIELDS 7
BEGIN_DATA_FORMAT
INDEX RGB_R RGB_G RGB_B XYZ_X XYZ_Y XYZ_Z
END_DATA_FORMAT

NUMBER_OF_SETS 8
BEGIN_DATA
0 100.000 100.000 100.000 95.0460 100.000 108.910
1 0.00000 46.3070 100.000 24.5380 20.1970 97.2170
2 100.000 0.00000 76.4350 51.0790 25.1960 53.7500
3 0.00000 0.00000 55.4170 4.83100 1.93250 25.4410
4 100.000 64.4300 0.00000 54.5660 47.9170 6.37360
5 0.00000 34.0820 0.00000 3.40060 6.80170 1.13370
6 78.9890 0.00000 0.00000 24.2000 12.4760 1.13290
7 5.02670 4.49050 3.59250 0.33816 0.35379 0.31287
END_DATA
CTI1   

ORIGINATOR "Argyll targen"
CREATED "October 16, 2013"
DESCRIPTOR "Argyll Calibration Target chart information 1"
KEYWORD "DEVICE_COMBINATION_VALUES"
DEVICE_COMBINATION_VALUES "9"

KEYWORD "INDEX"
NUMBER_OF_FIELDS 7
BEGIN_DATA_FORMAT
INDEX RGB_R RGB_G RGB_B XYZ_X XYZ_Y XYZ_Z
END_DATA_FORMAT

NUMBER_OF_SETS 9
BEGIN_DATA
0 100.00 100.00 100.00 95.046 100.00 108.91
1 0.0000 100.00 100.00 53.807 78.740 106.98
2 100.00 0.0000 100.00 59.288 28.480 96.985
3 0.0000 0.0000 100.00 18.050 7.2205 95.055
4 100.00 100.00 0.0000 76.996 92.780 13.851
5 0.0000 100.00 0.0000 35.757 71.520 11.921
6 100.00 0.0000 0.0000 41.238 21.260 1.9306
7 0.0000 0.0000 0.0000 0.0000 0.0000 0.0000
8 50.000 50.000 50.000 20.344 21.405 23.311
END_DATA