dispcalGUI/ti1/d3-e4-s29-g85-m8-b8-f0.ti1
CTI1   

ORIGINATOR "Argyll targen"
KEYWORD "MULTI_DIM_BCC_STEPS"
MULTI_DIM_BCC_STEPS "8"
CREATED "Sat Oct 19 04:50:32 2013"
KEYWORD "COMP_GREY_STEPS"
COMP_GREY_STEPS "85"
KEYWORD "BLACK_COLOR_PATCHES"
BLACK_COLOR_PATCHES "4"
KEYWORD "APPROX_WHITE_POINT"
APPROX_WHITE_POINT "95.106486 100.000000 108.844025"
DESCRIPTOR "Argyll Calibration Target chart information 1"
KEYWORD "MULTI_DIM_STEPS"
MULTI_DIM_STEPS "8"
KEYWORD "WHITE_COLOR_PATCHES"
WHITE_COLOR_PATCHES "4"
KEYWORD "SINGLE_DIM_STEPS"
SINGLE_DIM_STEPS "29"
KEYWORD "COLOR_REP"
COLOR_REP "RGB"

NUMBER_OF_FIELDS 7
BEGIN_DATA_FORMAT
SAMPLE_ID RGB_R RGB_G RGB_B XYZ_X XYZ_Y XYZ_Z
END_DATA_FORMAT

NUMBER_OF_SETS 994
BEGIN_DATA
1 100.000 100.000 100.000 95.1065 100.000 108.844
2 0.00000 28.5714 14.2857 3.67143 5.82729 3.47818
3 78.5714 35.7143 21.4286 29.0616 20.8968 6.89780
4 100.000 42.8571 28.5714 48.4608 33.4142 10.9749
5 100.000 42.8571 42.8571 50.0230 34.0390 19.2033
6 100.000 57.1429 42.8571 54.7117 43.4151 20.7662
7 100.000 71.4286 42.8571 61.1694 56.3286 22.9187
8 14.2857 0.00000 14.2857 2.05703 1.50778 2.72942
9 8.33333 8.33333 8.33333 1.71786 1.75519 1.82265
10 0.00000 3.57143 0.00000 1.09787 1.19571 1.03262
11 10.7143 0.00000 0.00000 1.45596 1.23510 1.02137
12 14.2857 0.00000 0.00000 1.73522 1.37908 1.03445
13 17.8571 0.00000 0.00000 2.09492 1.56454 1.05131
14 21.4286 0.00000 0.00000 2.54059 1.79433 1.07219
15 25.0000 0.00000 0.00000 3.07728 2.07105 1.09734
16 28.5714 0.00000 0.00000 3.70964 2.39710 1.12697
17 32.1429 0.00000 0.00000 4.44202 2.77472 1.16129
18 35.7143 0.00000 0.00000 5.27848 3.20600 1.20048
19 39.2857 0.00000 0.00000 6.22288 3.69293 1.24474
20 42.8571 0.00000 0.00000 7.27886 4.23740 1.29422
21 46.4286 0.00000 0.00000 8.44990 4.84119 1.34909
22 50.0000 0.00000 0.00000 9.73934 5.50603 1.40951
23 53.5714 0.00000 0.00000 11.1504 6.23356 1.47563
24 57.1429 0.00000 0.00000 12.6860 7.02536 1.54759
25 60.7143 0.00000 0.00000 14.3493 7.88296 1.62553
26 64.2857 0.00000 0.00000 16.1431 8.80783 1.70958
27 64.2857 7.14286 7.14286 16.4706 9.28694 2.36068
28 67.8571 0.00000 0.00000 18.0701 9.80142 1.79988
29 71.4286 0.00000 0.00000 20.1331 10.8651 1.89654
30 75.0000 0.00000 0.00000 22.3346 12.0002 1.99970
31 78.5714 0.00000 0.00000 24.6773 13.2081 2.10948
32 82.1429 0.00000 0.00000 27.1634 14.4900 2.22597
33 85.7143 0.00000 0.00000 29.7956 15.8471 2.34931
34 89.2857 0.00000 0.00000 32.5761 17.2807 2.47960
35 92.8571 0.00000 0.00000 35.5072 18.7920 2.61695
36 100.000 0.00000 0.00000 41.8302 22.0522 2.91323
37 96.4286 0.00000 0.00000 38.5911 20.3821 2.76146
38 14.2857 14.2857 0.00000 2.37276 2.65398 1.24697
39 9.52381 9.52381 9.52381 1.87516 1.92066 2.00291
40 0.00000 14.2857 0.00000 1.63754 2.27490 1.21251
41 0.00000 17.8571 0.00000 1.94944 2.89862 1.31648
42 0.00000 21.4286 0.00000 2.33590 3.67142 1.44530
43 0.00000 25.0000 0.00000 2.80128 4.60205 1.60043
44 0.00000 28.5714 0.00000 3.34962 5.69859 1.78321
45 0.00000 32.1429 0.00000 3.98469 6.96855 1.99491
46 0.00000 35.7143 0.00000 4.71002 8.41900 2.23668
47 0.00000 39.2857 0.00000 5.52893 10.0566 2.50966
48 0.00000 42.8571 0.00000 6.44461 11.8877 2.81489
49 0.00000 46.4286 0.00000 7.46006 13.9183 3.15337
50 0.00000 50.0000 0.00000 8.57817 16.1542 3.52608
51 0.00000 53.5714 0.00000 9.80171 18.6010 3.93393
52 0.00000 57.1429 0.00000 11.1333 21.2639 4.37781
53 0.00000 60.7143 0.00000 12.5756 24.1481 4.85858
54 0.00000 64.2857 0.00000 14.1311 27.2585 5.37707
55 0.00000 67.8571 0.00000 15.8021 30.6000 5.93407
56 0.00000 71.4286 0.00000 17.5910 34.1773 6.53037
57 0.00000 75.0000 0.00000 19.5000 37.9948 7.16671
58 0.00000 78.5714 0.00000 21.5313 42.0570 7.84384
59 0.00000 82.1429 0.00000 23.6872 46.3681 8.56246
60 0.00000 85.7143 0.00000 25.9696 50.9323 9.32328
61 0.00000 89.2857 0.00000 28.3807 55.7537 10.1270
62 0.00000 92.8571 0.00000 30.9223 60.8363 10.9742
63 0.00000 96.4286 0.00000 33.5965 66.1840 11.8656
64 0.00000 100.000 0.00000 36.4052 71.8005 12.8018
65 71.4286 100.000 42.8571 58.2865 82.7647 28.1735
66 0.00000 10.7143 0.00000 1.39538 1.79065 1.13179
67 7.14286 0.00000 0.00000 1.25096 1.12940 1.01176
68 0.00000 0.00000 0.00000 1.00000 1.00000 1.00000
69 0.00000 0.00000 17.8571 1.47924 1.19167 3.52421
70 0.00000 0.00000 14.2857 1.32180 1.12870 2.69497
71 0.00000 0.00000 25.0000 1.90921 1.36363 5.78891
72 0.00000 0.00000 28.5714 2.18599 1.47432 7.24675
73 0.00000 0.00000 32.1429 2.50655 1.60253 8.93516
74 0.00000 0.00000 35.7143 2.87267 1.74895 10.8635
75 0.00000 0.00000 39.2857 3.28602 1.91426 13.0407
76 0.00000 0.00000 42.8571 3.74822 2.09911 15.4751
77 0.00000 0.00000 46.4286 4.26078 2.30410 18.1748
78 0.00000 0.00000 50.0000 4.82515 2.52982 21.1475
79 0.00000 0.00000 53.5714 5.44275 2.77682 24.4004
80 0.00000 0.00000 57.1429 6.11490 3.04564 27.9407
81 0.00000 0.00000 60.7143 6.84292 3.33680 31.7752
82 0.00000 0.00000 64.2857 7.62804 3.65080 35.9106
83 0.00000 0.00000 67.8571 8.47149 3.98812 40.3531
84 0.00000 0.00000 71.4286 9.37444 4.34925 45.1091
85 0.00000 0.00000 75.0000 10.3380 4.73463 50.1844
86 0.00000 0.00000 78.5714 11.3634 5.14470 55.5850
87 0.00000 0.00000 82.1429 12.4516 5.57991 61.3166
88 0.00000 0.00000 85.7143 13.6037 6.04067 67.3847
89 0.00000 0.00000 89.2857 14.8207 6.52739 73.7948
90 0.00000 0.00000 92.8571 16.1036 7.04048 80.5521
91 0.00000 0.00000 96.4286 17.4534 7.58032 87.6618
92 0.00000 0.00000 100.000 18.8711 8.14731 95.1290
93 0.00000 0.00000 10.7143 1.19957 1.07982 2.05117
94 1.19048 1.19048 1.19048 1.08671 1.09122 1.09937
95 2.38095 2.38095 2.38095 1.17342 1.18244 1.19874
96 3.57143 3.57143 3.57143 1.26014 1.27366 1.29811
97 4.76190 4.76190 4.76190 1.35056 1.36879 1.40173
98 5.95238 5.95238 5.95238 1.45621 1.47993 1.52281
99 0.00000 0.00000 3.57143 1.04940 1.01976 1.26020
100 0.00000 7.14286 0.00000 1.21762 1.43517 1.07254
101 0.00000 0.00000 7.14286 1.10984 1.04393 1.57856
102 7.14286 7.14286 7.14286 1.57842 1.60850 1.66286
103 13.0952 13.0952 13.0952 2.46008 2.53601 2.67323
104 14.2857 14.2857 14.2857 2.69456 2.78268 2.94193
105 15.4762 15.4762 15.4762 2.94965 3.05104 3.23426
106 16.6667 16.6667 16.6667 3.22584 3.34159 3.55077
107 17.8571 17.8571 17.8571 3.52360 3.65483 3.89199
108 19.0476 19.0476 19.0476 3.84339 3.99124 4.25846
109 20.2381 20.2381 20.2381 4.18564 4.35130 4.65068
110 21.4286 21.4286 21.4286 4.55080 4.73544 5.06914
111 22.6190 22.6190 22.6190 4.93926 5.14410 5.51431
112 23.8095 23.8095 23.8095 5.35146 5.57773 5.98668
113 25.0000 25.0000 25.0000 5.78777 6.03673 6.48668
114 26.1905 26.1905 26.1905 6.24859 6.52152 7.01477
115 27.3810 27.3810 27.3810 6.73430 7.03248 7.57138
116 28.5714 28.5714 28.5714 7.24526 7.57001 8.15693
117 29.7619 29.7619 29.7619 7.78184 8.13449 8.77184
118 30.9524 30.9524 30.9524 8.34439 8.72630 9.41652
119 32.1429 32.1429 32.1429 8.93326 9.34579 10.0914
120 33.3333 33.3333 33.3333 9.54879 9.99333 10.7967
121 34.5238 34.5238 34.5238 10.1913 10.6693 11.5331
122 35.7143 35.7143 35.7143 10.8612 11.3739 12.3007
123 64.2857 64.2857 35.7143 31.1469 35.8153 15.9502
124 0.00000 0.00000 0.00000 1.00000 1.00000 1.00000
125 39.2857 39.2857 39.2857 13.0378 13.6638 14.7951
126 40.4762 40.4762 40.4762 13.8201 14.4868 15.6916
127 41.6667 41.6667 41.6667 14.6313 15.3402 16.6212
128 42.8571 42.8571 42.8571 15.4717 16.2242 17.5842
129 44.0476 44.0476 44.0476 16.3415 17.1393 18.5811
130 45.2381 45.2381 45.2381 17.2411 18.0856 19.6120
131 46.4286 46.4286 46.4286 18.1707 19.0636 20.6773
132 47.6190 47.6190 47.6190 19.1307 20.0735 21.7774
133 48.8095 48.8095 48.8095 20.1212 21.1155 22.9125
134 50.0000 50.0000 50.0000 21.1427 22.1901 24.0831
135 51.1905 51.1905 51.1905 22.1952 23.2974 25.2893
136 52.3810 52.3810 52.3810 23.2792 24.4377 26.5315
137 53.5714 53.5714 53.5714 24.3948 25.6113 27.8100
138 54.7619 54.7619 54.7619 25.5424 26.8186 29.1250
139 55.9524 55.9524 55.9524 26.7221 28.0597 30.4770
140 57.1429 57.1429 57.1429 27.9343 29.3349 31.8661
141 58.3333 58.3333 58.3333 29.1791 30.6444 33.2927
142 59.5238 59.5238 59.5238 30.4569 31.9887 34.7570
143 60.7143 60.7143 60.7143 31.7679 33.3678 36.2593
144 61.9048 61.9048 61.9048 33.1123 34.7821 37.8000
145 63.0952 63.0952 63.0952 34.4903 36.2318 39.3792
146 64.2857 64.2857 64.2857 35.9022 37.7171 40.9972
147 65.4762 65.4762 65.4762 37.3483 39.2384 42.6544
148 66.6667 66.6667 66.6667 38.8287 40.7958 44.3509
149 67.8571 67.8571 67.8571 40.3437 42.3896 46.0871
150 69.0476 69.0476 69.0476 41.8935 44.0200 47.8631
151 70.2381 70.2381 70.2381 43.4784 45.6873 49.6793
152 71.4286 71.4286 71.4286 45.0985 47.3916 51.5360
153 72.6190 72.6190 72.6190 46.7541 49.1333 53.4333
154 73.8095 73.8095 73.8095 48.4454 50.9126 55.3715
155 75.0000 75.0000 75.0000 50.1727 52.7296 57.3508
156 76.1905 76.1905 76.1905 51.9360 54.5847 59.3716
157 77.3810 77.3810 77.3810 53.7357 56.4780 61.4340
158 78.5714 78.5714 78.5714 55.5720 58.4097 63.5383
159 79.7619 79.7619 79.7619 57.4450 60.3802 65.6848
160 80.9524 80.9524 80.9524 59.3550 62.3895 67.8736
161 82.1429 82.1429 82.1429 61.3022 64.4379 70.1051
162 83.3333 83.3333 83.3333 63.2868 66.5257 72.3793
163 84.5238 84.5238 84.5238 65.3089 68.6530 74.6967
164 85.7143 85.7143 85.7143 67.3689 70.8201 77.0573
165 86.9048 86.9048 86.9048 69.4668 73.0271 79.4615
166 88.0952 88.0952 88.0952 71.6029 75.2743 81.9094
167 89.2857 89.2857 89.2857 73.7774 77.5618 84.4014
168 90.4762 90.4762 90.4762 75.9905 79.8900 86.9375
169 91.6667 91.6667 91.6667 78.2423 82.2589 89.5180
170 92.8571 92.8571 92.8571 80.5331 84.6688 92.1432
171 94.0476 94.0476 94.0476 82.8630 87.1199 94.8133
172 95.2381 95.2381 95.2381 85.2323 89.6124 97.5284
173 96.4286 96.4286 96.4286 87.6411 92.1464 100.289
174 97.6190 97.6190 97.6190 90.0896 94.7222 103.095
175 98.8095 98.8095 98.8095 92.5780 97.3400 105.946
176 11.9048 11.9048 11.9048 2.24571 2.31049 2.42756
177 28.5714 14.2857 0.00000 4.34718 3.67200 1.33948
178 42.8571 14.2857 0.00000 7.91640 5.51230 1.50673
179 57.1429 14.2857 0.00000 13.3236 8.30025 1.76010
180 71.4286 14.2857 0.00000 20.7707 12.1400 2.10906
181 85.7143 14.2857 0.00000 30.4331 17.1220 2.56183
182 100.000 14.2857 0.00000 42.4677 23.3271 3.12574
183 100.000 85.7143 42.8571 69.5480 73.0836 25.7117
184 100.000 100.000 42.8571 79.9836 93.9518 29.1902
185 28.5714 28.5714 0.00000 6.05927 7.09569 1.91018
186 57.1429 28.5714 0.00000 15.0357 11.7239 2.33080
187 71.4286 28.5714 0.00000 22.4827 15.5637 2.67976
188 85.7143 28.5714 0.00000 32.1452 20.5457 3.13253
189 100.000 28.5714 0.00000 44.1798 26.7508 3.69644
190 100.000 57.1429 0.00000 51.9635 42.3160 6.29104
191 42.8571 28.5714 0.00000 9.62848 8.93599 2.07743
192 42.8571 42.8571 0.00000 12.7235 15.1251 3.10910
193 57.1429 42.8571 0.00000 18.1306 17.9131 3.36247
194 71.4286 42.8571 0.00000 25.5777 21.7528 3.71143
195 85.7143 42.8571 0.00000 35.2402 26.7348 4.16420
196 100.000 42.8571 0.00000 47.2748 32.9399 4.72812
197 100.000 71.4286 28.5714 59.6071 55.7038 14.6903
198 100.000 85.7143 28.5714 67.9858 72.4588 17.4833
199 42.8571 57.1429 0.00000 17.4122 24.5013 4.67203
200 57.1429 57.1429 0.00000 22.8194 27.2892 4.92540
201 71.4286 57.1429 0.00000 30.2665 31.1290 5.27436
202 85.7143 57.1429 0.00000 39.9290 36.1110 5.72712
203 100.000 71.4286 0.00000 58.4211 55.2295 8.44360
204 100.000 85.7143 0.00000 66.7998 71.9844 11.2365
205 35.7143 64.2857 7.14286 18.5194 29.5084 6.15611
206 42.8571 71.4286 0.00000 23.8698 37.4147 6.82458
207 57.1429 71.4286 0.00000 29.2770 40.2026 7.07796
208 71.4286 71.4286 0.00000 36.7241 44.0424 7.42691
209 85.7143 71.4286 0.00000 46.3866 49.0244 7.87968
210 28.5714 57.1429 0.00000 13.8430 22.6610 4.50478
211 28.5714 71.4286 0.00000 20.3006 35.5744 6.65734
212 28.5714 85.7143 0.00000 28.6793 52.3294 9.45025
213 42.8571 85.7143 0.00000 32.2485 54.1697 9.61750
214 57.1429 85.7143 0.00000 37.6557 56.9576 9.87087
215 71.4286 85.7143 0.00000 45.1027 60.7974 10.2198
216 85.7143 85.7143 0.00000 54.7652 65.7794 10.6726
217 14.2857 85.7143 0.00000 26.7049 51.3114 9.35773
218 14.2857 100.000 0.00000 37.1404 72.1796 12.8363
219 28.5714 100.000 0.00000 39.1149 73.1976 12.9288
220 42.8571 100.000 0.00000 42.6841 75.0379 13.0961
221 57.1429 100.000 0.00000 48.0912 77.8259 13.3494
222 71.4286 100.000 0.00000 55.5383 81.6656 13.6984
223 85.7143 100.000 0.00000 65.2008 86.6476 14.1511
224 100.000 100.000 0.00000 77.2354 92.8527 14.7151
225 100.000 100.000 57.1429 82.3503 94.8983 41.6558
226 28.5714 0.00000 14.2857 4.03145 2.52580 2.82194
227 42.8571 0.00000 14.2857 7.60066 4.36610 2.98918
228 57.1429 0.00000 14.2857 13.0078 7.15406 3.24256
229 71.4286 0.00000 14.2857 20.4549 10.9938 3.59151
230 85.7143 0.00000 14.2857 30.1174 15.9758 4.04428
231 100.000 0.00000 14.2857 42.1520 22.1809 4.60820
232 100.000 0.00000 28.5714 43.0162 22.5265 9.15998
233 28.5714 14.2857 14.2857 4.66898 3.80070 3.03445
234 42.8571 14.2857 14.2857 8.23820 5.64100 3.20170
235 57.1429 14.2857 14.2857 13.6454 8.42895 3.45507
236 71.4286 14.2857 14.2857 21.0925 12.2687 3.80403
237 85.7143 14.2857 14.2857 30.7549 17.2507 4.25679
238 100.000 14.2857 14.2857 42.7895 23.4558 4.82071
239 100.000 28.5714 71.4286 52.5542 30.1000 47.8055
240 14.2857 28.5714 14.2857 4.40665 6.20637 3.51263
241 28.5714 28.5714 14.2857 6.38107 7.22439 3.60515
242 42.8571 28.5714 14.2857 9.95029 9.06469 3.77240
243 57.1429 28.5714 14.2857 15.3575 11.8526 4.02577
244 71.4286 28.5714 14.2857 22.8045 15.6924 4.37473
245 85.7143 28.5714 14.2857 32.4670 20.6744 4.82749
246 100.000 28.5714 14.2857 44.5016 26.8795 5.39141
247 100.000 57.1429 28.5714 53.1495 42.7904 12.5378
248 14.2857 42.8571 0.00000 7.17983 12.2668 2.84934
249 14.2857 42.8571 14.2857 7.50164 12.3955 4.54430
250 42.8571 42.8571 14.2857 13.0453 15.2538 4.80407
251 57.1429 42.8571 14.2857 18.4524 18.0418 5.05744
252 71.4286 42.8571 14.2857 25.8995 21.8815 5.40640
253 85.7143 42.8571 14.2857 35.5620 26.8635 5.85916
254 100.000 42.8571 14.2857 47.5966 33.0686 6.42308
255 100.000 57.1429 14.2857 52.2853 42.4447 7.98601
256 28.5714 42.8571 0.00000 9.15425 13.2848 2.94185
257 28.5714 57.1429 14.2857 14.1648 22.7897 6.19975
258 42.8571 57.1429 14.2857 17.7340 24.6300 6.36700
259 57.1429 57.1429 14.2857 23.1412 27.4179 6.62037
260 71.4286 57.1429 14.2857 30.5883 31.2577 6.96932
261 85.7143 57.1429 14.2857 40.2508 36.2397 7.42209
262 3.57143 0.00000 0.00000 1.11287 1.05819 1.00529
263 0.00000 71.4286 14.2857 17.9128 34.3060 8.22534
264 14.2857 71.4286 14.2857 18.6480 34.6851 8.25979
265 28.5714 71.4286 14.2857 20.6224 35.7031 8.35231
266 42.8571 71.4286 14.2857 24.1916 37.5434 8.51955
267 57.1429 71.4286 14.2857 29.5988 40.3313 8.77292
268 71.4286 71.4286 14.2857 37.0459 44.1711 9.12188
269 85.7143 71.4286 14.2857 46.7084 49.1531 9.57465
270 100.000 71.4286 14.2857 58.7429 55.3582 10.1386
271 100.000 85.7143 14.2857 67.1216 72.1131 12.9315
272 14.2857 85.7143 14.2857 27.0267 51.4401 11.0527
273 28.5714 85.7143 14.2857 29.0011 52.4581 11.1452
274 42.8571 85.7143 14.2857 32.5703 54.2984 11.3125
275 57.1429 85.7143 14.2857 37.9775 57.0863 11.5658
276 71.4286 85.7143 14.2857 45.4245 60.9261 11.9148
277 85.7143 85.7143 14.2857 55.0870 65.9081 12.3676
278 0.00000 85.7143 14.2857 26.2914 51.0610 11.0182
279 0.00000 100.000 14.2857 36.7270 71.9292 14.4968
280 14.2857 100.000 14.2857 37.4622 72.3083 14.5313
281 28.5714 100.000 14.2857 39.4367 73.3263 14.6238
282 42.8571 100.000 14.2857 43.0059 75.1666 14.7910
283 57.1429 100.000 14.2857 48.4130 77.9546 15.0444
284 71.4286 100.000 14.2857 55.8601 81.7943 15.3933
285 85.7143 100.000 14.2857 65.5226 86.7763 15.8461
286 100.000 100.000 14.2857 77.5572 92.9814 16.4100
287 0.00000 0.00000 21.4286 1.67431 1.26968 4.55164
288 28.5714 0.00000 28.5714 4.89564 2.87142 7.37372
289 42.8571 0.00000 28.5714 8.46485 4.71172 7.54097
290 57.1429 0.00000 28.5714 13.8720 7.49968 7.79434
291 71.4286 0.00000 28.5714 21.3191 11.3394 8.14330
292 85.7143 0.00000 28.5714 30.9816 16.3214 8.59606
293 10.7143 10.7143 10.7143 2.05092 2.10556 2.20433
294 0.00000 14.2857 14.2857 1.95934 2.40360 2.90748
295 0.00000 14.2857 28.5714 2.82353 2.74922 7.45926
296 28.5714 14.2857 28.5714 5.53317 4.14632 7.58623
297 42.8571 14.2857 28.5714 9.10239 5.98662 7.75348
298 57.1429 14.2857 28.5714 14.5096 8.77457 8.00685
299 71.4286 14.2857 28.5714 21.9566 12.6143 8.35581
300 85.7143 14.2857 28.5714 31.6191 17.5963 8.80858
301 100.000 14.2857 28.5714 43.6537 23.8014 9.37250
302 100.000 42.8571 57.1429 52.3897 34.9855 31.6688
303 100.000 57.1429 57.1429 57.0784 44.3617 33.2318
304 42.8571 28.5714 28.5714 10.8145 9.41031 8.32418
305 57.1429 28.5714 28.5714 16.2216 12.1983 8.57755
306 71.4286 28.5714 28.5714 23.6687 16.0380 8.92651
307 85.7143 28.5714 28.5714 33.3312 21.0200 9.37928
308 100.000 28.5714 28.5714 45.3658 27.2251 9.94320
309 14.2857 28.5714 28.5714 5.27084 6.55199 8.06442
310 14.2857 42.8571 28.5714 8.36583 12.7411 9.09609
311 28.5714 42.8571 28.5714 10.3402 13.7591 9.18861
312 42.8571 42.8571 28.5714 13.9095 15.5994 9.35585
313 57.1429 42.8571 28.5714 19.3166 18.3874 9.60922
314 71.4286 42.8571 28.5714 26.7637 22.2271 9.95818
315 85.7143 42.8571 28.5714 36.4262 27.2091 10.4109
316 100.000 71.4286 57.1429 63.5360 57.2751 35.3843
317 100.000 85.7143 57.1429 71.9147 74.0301 38.1772
318 0.00000 57.1429 14.2857 11.4552 21.3926 6.07278
319 28.5714 57.1429 28.5714 15.0290 23.1353 10.7515
320 42.8571 57.1429 28.5714 18.5982 24.9756 10.9188
321 57.1429 57.1429 28.5714 24.0054 27.7635 11.1721
322 71.4286 57.1429 28.5714 31.4525 31.6033 11.5211
323 85.7143 57.1429 28.5714 41.1149 36.5853 11.9739
324 85.7143 85.7143 42.8571 57.5134 66.8785 25.1477
325 85.7143 100.000 42.8571 67.9490 87.7467 28.6263
326 28.5714 42.8571 14.2857 9.47606 13.4135 4.63682
327 28.5714 71.4286 28.5714 21.4866 36.0487 12.9041
328 42.8571 71.4286 28.5714 25.0558 37.8890 13.0713
329 57.1429 71.4286 28.5714 30.4630 40.6770 13.3247
330 71.4286 71.4286 28.5714 37.9101 44.5167 13.6737
331 85.7143 71.4286 28.5714 47.5726 49.4987 14.1264
332 85.7143 71.4286 42.8571 49.1348 50.1235 22.3548
333 14.2857 71.4286 28.5714 19.5122 35.0307 12.8116
334 14.2857 85.7143 28.5714 27.8908 51.7857 15.6045
335 28.5714 85.7143 28.5714 29.8653 52.8037 15.6970
336 42.8571 85.7143 28.5714 33.4345 54.6440 15.8642
337 57.1429 85.7143 28.5714 38.8417 57.4320 16.1176
338 71.4286 85.7143 28.5714 46.2887 61.2717 16.4666
339 85.7143 85.7143 28.5714 55.9512 66.2537 16.9193
340 14.2857 57.1429 0.00000 11.8686 21.6429 4.41226
341 14.2857 71.4286 0.00000 18.3262 34.5564 6.56482
342 14.2857 100.000 28.5714 38.3264 72.6539 19.0830
343 28.5714 100.000 28.5714 40.3008 73.6719 19.1756
344 42.8571 100.000 28.5714 43.8701 75.5122 19.3428
345 57.1429 100.000 28.5714 49.2772 78.3002 19.5962
346 71.4286 100.000 28.5714 56.7243 82.1399 19.9451
347 85.7143 100.000 28.5714 66.3868 87.1219 20.3979
348 100.000 100.000 28.5714 78.4214 93.3270 20.9618
349 14.2857 0.00000 28.5714 2.92122 1.85341 7.28120
350 14.2857 0.00000 42.8571 4.48344 2.47820 15.5096
351 42.8571 0.00000 42.8571 10.0271 5.33651 15.7694
352 57.1429 0.00000 42.8571 15.4342 8.12447 16.0227
353 71.4286 0.00000 42.8571 22.8813 11.9642 16.3717
354 85.7143 0.00000 42.8571 32.5438 16.9462 16.8245
355 100.000 0.00000 42.8571 44.5784 23.1513 17.3884
356 14.2857 14.2857 28.5714 3.55875 3.12830 7.49372
357 14.2857 14.2857 42.8571 5.12098 3.75309 15.7221
358 28.5714 14.2857 42.8571 7.09540 4.77111 15.8146
359 42.8571 14.2857 42.8571 10.6646 6.61141 15.9819
360 57.1429 14.2857 42.8571 16.0718 9.39936 16.2352
361 71.4286 14.2857 42.8571 23.5189 13.2391 16.5842
362 85.7143 14.2857 42.8571 33.1814 18.2211 17.0370
363 100.000 14.2857 42.8571 45.2159 24.4262 17.6009
364 100.000 14.2857 57.1429 47.5826 25.3727 30.0665
365 100.000 14.2857 71.4286 50.8422 26.6763 47.2348
366 85.7143 14.2857 71.4286 38.8076 20.4713 46.6709
367 42.8571 28.5714 42.8571 12.3767 10.0351 16.5526
368 57.1429 28.5714 42.8571 17.7839 12.8231 16.8059
369 71.4286 28.5714 42.8571 25.2310 16.6628 17.1549
370 85.7143 28.5714 42.8571 34.8934 21.6448 17.6077
371 100.000 28.5714 42.8571 46.9280 27.8499 18.1716
372 100.000 28.5714 57.1429 49.2947 28.7964 30.6372
373 0.00000 14.2857 42.8571 4.38575 3.37401 15.6877
374 14.2857 28.5714 42.8571 6.83306 7.17678 16.2928
375 57.1429 42.8571 42.8571 20.8789 19.0122 17.8376
376 71.4286 42.8571 42.8571 28.3259 22.8519 18.1866
377 85.7143 42.8571 42.8571 37.9884 27.8339 18.6393
378 85.7143 85.7143 57.1429 59.8801 67.8250 37.6133
379 28.5714 28.5714 42.8571 8.80748 8.19480 16.3853
380 28.5714 42.8571 42.8571 11.9025 14.3839 17.4170
381 28.5714 57.1429 42.8571 16.5912 23.7601 18.9799
382 42.8571 57.1429 42.8571 20.1604 25.6004 19.1472
383 57.1429 57.1429 42.8571 25.5676 28.3883 19.4005
384 71.4286 57.1429 42.8571 33.0147 32.2281 19.7495
385 85.7143 57.1429 42.8571 42.6772 37.2101 20.2023
386 0.00000 57.1429 28.5714 12.3193 21.7382 10.6246
387 0.00000 57.1429 42.8571 13.8816 22.3630 18.8530
388 0.00000 71.4286 42.8571 20.3392 35.2764 21.0055
389 28.5714 71.4286 42.8571 23.0488 36.6735 21.1325
390 42.8571 71.4286 42.8571 26.6180 38.5138 21.2997
391 57.1429 71.4286 42.8571 32.0252 41.3018 21.5531
392 71.4286 71.4286 42.8571 39.4723 45.1415 21.9021
393 14.2857 57.1429 28.5714 13.0546 22.1173 10.6590
394 14.2857 57.1429 42.8571 14.6168 22.7421 18.8874
395 14.2857 71.4286 42.8571 21.0744 35.6555 21.0400
396 14.2857 85.7143 42.8571 29.4531 52.4105 23.8329
397 28.5714 85.7143 42.8571 31.4275 53.4285 23.9254
398 42.8571 85.7143 42.8571 34.9967 55.2688 24.0926
399 57.1429 85.7143 42.8571 40.4039 58.0567 24.3460
400 71.4286 85.7143 42.8571 47.8510 61.8965 24.6950
401 0.00000 42.8571 14.2857 6.76641 12.0164 4.50985
402 0.00000 85.7143 42.8571 28.7178 52.0314 23.7984
403 0.00000 100.000 42.8571 39.1534 72.8996 27.2770
404 14.2857 100.000 42.8571 39.8886 73.2787 27.3114
405 28.5714 100.000 42.8571 41.8631 74.2967 27.4039
406 42.8571 100.000 42.8571 45.4323 76.1370 27.5712
407 57.1429 100.000 42.8571 50.8395 78.9250 27.8246
408 100.000 100.000 100.000 95.1065 100.000 108.844
409 36.9048 36.9048 36.9048 11.5587 12.1077 13.1000
410 38.0952 38.0952 38.0952 12.2841 12.8709 13.9314
411 28.5714 0.00000 42.8571 6.45786 3.49621 15.6021
412 28.5714 0.00000 57.1429 8.82454 4.44274 28.0677
413 42.8571 0.00000 57.1429 12.3938 6.28304 28.2349
414 57.1429 0.00000 57.1429 17.8009 9.07099 28.4883
415 71.4286 0.00000 57.1429 25.2480 12.9107 28.8373
416 85.7143 0.00000 57.1429 34.9105 17.8927 29.2900
417 100.000 0.00000 57.1429 46.9451 24.0978 29.8539
418 100.000 0.00000 71.4286 50.2046 25.4014 47.0223
419 14.2857 14.2857 57.1429 7.48766 4.69962 28.1877
420 28.5714 14.2857 57.1429 9.46208 5.71763 28.2802
421 42.8571 14.2857 57.1429 13.0313 7.55793 28.4474
422 57.1429 14.2857 57.1429 18.4385 10.3459 28.7008
423 71.4286 14.2857 57.1429 25.8856 14.1856 29.0498
424 85.7143 14.2857 57.1429 35.5480 19.1676 29.5025
425 85.7143 57.1429 57.1429 45.0439 38.1566 32.6678
426 85.7143 71.4286 57.1429 51.5015 51.0700 34.8204
427 14.2857 28.5714 57.1429 9.19975 8.12331 28.7584
428 28.5714 28.5714 57.1429 11.1742 9.14133 28.8509
429 42.8571 28.5714 57.1429 14.7434 10.9816 29.0181
430 57.1429 28.5714 57.1429 20.1506 13.7696 29.2715
431 71.4286 28.5714 57.1429 27.5976 17.6093 29.6205
432 85.7143 28.5714 57.1429 37.2601 22.5913 30.0732
433 85.7143 28.5714 71.4286 40.5197 23.8949 47.2416
434 14.2857 42.8571 42.8571 9.92805 13.3659 17.3245
435 14.2857 42.8571 57.1429 12.2947 14.3124 29.7901
436 28.5714 42.8571 57.1429 14.2692 15.3304 29.8826
437 42.8571 42.8571 57.1429 17.8384 17.1707 30.0498
438 57.1429 42.8571 57.1429 23.2455 19.9587 30.3032
439 71.4286 42.8571 57.1429 30.6926 23.7984 30.6521
440 85.7143 42.8571 57.1429 40.3551 28.7804 31.1049
441 14.2857 28.5714 0.00000 4.08485 6.07767 1.81767
