dispcalGUI/ti1/d3-e4-s0-g52-m4-f3000-crossover.ti1
CTI1   

ORIGINATOR "Argyll targen"
CREATED "Sun Oct 19 08:58:17 2008"
KEYWORD "COMP_GREY_STEPS"
COMP_GREY_STEPS "52"
KEYWORD "ERROR_OPTIMISED_PATCHES"
ERROR_OPTIMISED_PATCHES "2885"
KEYWORD "APPROX_WHITE_POINT"
APPROX_WHITE_POINT "95.106486 100.000000 108.844025"
DESCRIPTOR "Argyll Calibration Target chart information 1"
KEYWORD "MULTI_DIM_STEPS"
MULTI_DIM_STEPS "4"
KEYWORD "WHITE_COLOR_PATCHES"
WHITE_COLOR_PATCHES "4"
KEYWORD "COLOR_REP"
COLOR_REP "RGB"

NUMBER_OF_FIELDS 7
BEGIN_DATA_FORMAT
SAMPLE_ID RGB_R RGB_G RGB_B XYZ_X XYZ_Y XYZ_Z
END_DATA_FORMAT

NUMBER_OF_SETS 3012
BEGIN_DATA
1 100.000 100.000 100.000 95.1060 100.000 108.840
2 100.000 100.000 100.000 95.1060 100.000 108.840
3 100.000 100.000 100.000 95.1060 100.000 108.840
4 100.000 100.000 100.000 95.1060 100.000 108.840
5 0.00000 0.00000 0.00000 1.00000 1.00000 1.00000
6 1.96080 1.96080 1.96080 1.14280 1.15020 1.16370
7 3.92160 3.92160 3.92160 1.28560 1.30050 1.32730
8 5.88240 5.88240 5.88240 1.44950 1.47290 1.51520
9 7.84310 7.84310 7.84310 1.65830 1.69250 1.75440
10 9.80390 9.80390 9.80390 1.91480 1.96240 2.04840
11 11.7650 11.7650 11.7650 2.22180 2.28530 2.40010
12 13.7250 13.7250 13.7250 2.58170 2.66390 2.81260
13 15.6860 15.6860 15.6860 2.99680 3.10070 3.28830
14 17.6470 17.6470 17.6470 3.46950 3.59790 3.83000
15 19.6080 19.6080 19.6080 4.00160 4.15770 4.43980
16 21.5690 21.5690 21.5690 4.59530 4.78220 5.12010
17 23.5290 23.5290 23.5290 5.25230 5.47340 5.87310
18 25.4900 25.4900 25.4900 5.97450 6.23320 6.70070
19 27.4510 27.4510 27.4510 6.76370 7.06340 7.60500
20 29.4120 29.4120 29.4120 7.62130 7.96560 8.58790
21 31.3730 31.3730 31.3730 8.54920 8.94180 9.65120
22 33.3330 33.3330 33.3330 9.54880 9.99330 10.7970
23 35.2940 35.2940 35.2940 10.6220 11.1220 12.0260
24 37.2550 37.2550 37.2550 11.7690 12.3290 13.3410
25 39.2160 39.2160 39.2160 12.9930 13.6160 14.7430
26 41.1760 41.1760 41.1760 14.2940 14.9850 16.2340
27 43.1370 43.1370 43.1370 15.6740 16.4370 17.8160
28 45.0980 45.0980 45.0980 17.1340 17.9730 19.4890
29 47.0590 47.0590 47.0590 18.6750 19.5940 21.2550
30 49.0200 49.0200 49.0200 20.2990 21.3030 23.1170
31 50.9800 50.9800 50.9800 22.0070 23.1000 25.0740
32 52.9410 52.9410 52.9410 23.8000 24.9860 27.1290
33 54.9020 54.9020 54.9020 25.6790 26.9630 29.2820
34 56.8630 56.8630 56.8630 27.6460 29.0320 31.5360
35 58.8240 58.8240 58.8240 29.7010 31.1940 33.8910
36 60.7840 60.7840 60.7840 31.8460 33.4500 36.3490
37 62.7450 62.7450 62.7450 34.0810 35.8020 38.9110
38 64.7060 64.7060 64.7060 36.4090 38.2500 41.5780
39 66.6670 66.6670 66.6670 38.8290 40.7960 44.3510
40 68.6270 68.6270 68.6270 41.3430 43.4400 47.2320
41 70.5880 70.5880 70.5880 43.9510 46.1850 50.2210
42 72.5490 72.5490 72.5490 46.6560 49.0300 53.3210
43 74.5100 74.5100 74.5100 49.4570 51.9770 56.5310
44 76.4710 76.4710 76.4710 52.3560 55.0270 59.8530
45 78.4310 78.4310 78.4310 55.3540 58.1800 63.2890
46 80.3920 80.3920 80.3920 58.4520 61.4390 66.8380
47 82.3530 82.3530 82.3530 61.6500 64.8030 70.5030
48 84.3140 84.3140 84.3140 64.9490 68.2750 74.2850
49 86.2750 86.2750 86.2750 68.3510 71.8540 78.1830
50 88.2350 88.2350 88.2350 71.8570 75.5410 82.2000
51 90.1960 90.1960 90.1960 75.4660 79.3380 86.3370
52 92.1570 92.1570 92.1570 79.1810 83.2460 90.5940
53 94.1180 94.1180 94.1180 83.0010 87.2650 94.9720
54 96.0780 96.0780 96.0780 86.9290 91.3970 99.4720
55 98.0390 98.0390 98.0390 90.9630 95.6410 104.100
56 33.3330 0.00000 0.00000 4.70910 2.91240 1.17380
57 66.6670 0.00000 0.00000 17.4130 9.46250 1.76910
58 100.000 0.00000 0.00000 41.8300 22.0520 2.91320
59 0.00000 33.3330 0.00000 4.21630 7.43160 2.07210
60 33.3330 33.3330 0.00000 7.92540 9.34410 2.24590
61 66.6670 33.3330 0.00000 20.6290 15.8940 2.84120
62 100.000 33.3330 0.00000 45.0460 28.4840 3.98530
63 0.00000 66.6670 0.00000 15.2320 29.4600 5.74410
64 33.3330 66.6670 0.00000 18.9410 31.3730 5.91790
65 66.6670 66.6670 0.00000 31.6450 37.9230 6.51320
66 100.000 66.6670 0.00000 56.0620 50.5120 7.65730
67 0.00000 100.000 0.00000 36.4050 71.8010 12.8020
68 33.3330 100.000 0.00000 40.1140 73.7130 12.9760
69 66.6670 100.000 0.00000 52.8180 80.2630 13.5710
70 100.000 100.000 0.00000 77.2350 92.8530 14.7150
71 0.00000 0.00000 33.3330 2.62340 1.64930 9.55080
72 33.3330 0.00000 33.3330 6.33250 3.56170 9.72460
73 66.6670 0.00000 33.3330 19.0360 10.1120 10.3200
74 100.000 0.00000 33.3330 43.4540 22.7010 11.4640
75 0.00000 33.3330 33.3330 5.83970 8.08090 10.6230
76 66.6670 33.3330 33.3330 22.2530 16.5430 11.3920
77 100.000 33.3330 33.3330 46.6700 29.1330 12.5360
78 0.00000 66.6670 33.3330 16.8560 30.1100 14.2950
79 33.3330 66.6670 33.3330 20.5650 32.0220 14.4690
80 66.6670 66.6670 33.3330 33.2680 38.5720 15.0640
81 100.000 66.6670 33.3330 57.6860 51.1620 16.2080
82 0.00000 100.000 33.3330 38.0290 72.4500 21.3530
83 33.3330 100.000 33.3330 41.7380 74.3620 21.5260
84 66.6670 100.000 33.3330 54.4410 80.9120 22.1220
85 100.000 100.000 33.3330 78.8590 93.5020 23.2660
86 0.00000 0.00000 66.6670 8.18380 3.87310 38.8380
87 33.3330 0.00000 66.6670 11.8930 5.78550 39.0120
88 66.6670 0.00000 66.6670 24.5970 12.3360 39.6070
89 100.000 0.00000 66.6670 49.0140 24.9250 40.7510
90 0.00000 33.3330 66.6670 11.4000 10.3050 39.9100
91 33.3330 33.3330 66.6670 15.1090 12.2170 40.0840
92 66.6670 33.3330 66.6670 27.8130 18.7670 40.6790
93 100.000 33.3330 66.6670 52.2300 31.3570 41.8230
94 0.00000 66.6670 66.6670 22.4160 32.3330 43.5820
95 33.3330 66.6670 66.6670 26.1250 34.2460 43.7560
96 100.000 66.6670 66.6670 63.2460 53.3850 45.4950
97 0.00000 100.000 66.6670 43.5890 74.6740 50.6400
98 33.3330 100.000 66.6670 47.2980 76.5860 50.8130
99 66.6670 100.000 66.6670 60.0020 83.1360 51.4090
100 100.000 100.000 66.6670 84.4190 95.7260 52.5530
101 0.00000 0.00000 100.000 18.8710 8.14730 95.1290
102 33.3330 0.00000 100.000 22.5800 10.0600 95.3030
103 66.6670 0.00000 100.000 35.2840 16.6100 95.8980
104 100.000 0.00000 100.000 59.7010 29.1990 97.0420
105 0.00000 33.3330 100.000 22.0870 14.5790 96.2010
106 33.3330 33.3330 100.000 25.7960 16.4910 96.3750
107 66.6670 33.3330 100.000 38.5000 23.0410 96.9700
108 100.000 33.3330 100.000 62.9180 35.6310 98.1140
109 0.00000 66.6670 100.000 33.1030 36.6080 99.8730
110 33.3330 66.6670 100.000 36.8120 38.5200 100.050
111 66.6670 66.6670 100.000 49.5160 45.0700 100.640
112 100.000 66.6670 100.000 73.9330 57.6600 101.790
113 0.00000 100.000 100.000 54.2760 78.9480 106.930
114 33.3330 100.000 100.000 57.9850 80.8600 107.100
115 66.6670 100.000 100.000 70.6890 87.4100 107.700
116 82.3420 17.5850 81.7350 39.5540 20.9380 62.1860
117 15.7410 84.5820 85.2190 38.5440 54.8830 74.6410
118 16.5030 15.6560 81.0280 13.8030 7.42770 59.7860
119 84.6090 17.4550 51.2870 33.9170 18.8560 23.9010
120 82.9090 82.9880 18.0340 51.4200 61.3960 12.5610
121 51.3910 16.9490 83.1240 22.8990 12.2120 63.6730
122 18.3090 48.2170 82.6990 20.7800 20.2530 64.6290
123 17.0510 82.3300 50.6560 28.7440 48.6930 29.3720
124 48.8820 81.7300 18.7050 32.2770 50.3570 11.6170
125 82.3760 51.4510 17.6200 35.8610 30.8860 7.38440
126 17.8750 81.0850 18.4740 24.6430 45.8350 11.0840
127 84.7240 17.6340 15.5700 30.3530 17.4680 4.59480
128 51.0760 52.2910 15.3720 18.8680 22.5640 6.13950
129 47.5580 82.4300 84.9510 44.0620 55.7100 74.0490
130 82.3570 49.4400 79.9560 45.4910 33.6690 61.4660
131 18.8710 50.7500 51.6980 14.1510 18.9200 25.3240
132 50.4750 15.0420 52.3960 14.8510 8.68730 23.9490
133 83.3780 83.8730 48.8070 55.4650 63.9510 29.3170
134 49.9340 48.7690 85.6040 29.4630 24.8790 69.9940
135 50.4750 83.9120 51.6680 37.8290 54.8390 30.9830
136 82.8070 50.0170 47.9580 38.7220 31.3000 23.1910
137 18.1890 16.6770 51.2890 7.01290 4.87690 22.6220
138 16.8450 51.0570 16.8500 10.3450 17.5360 5.96010
139 50.2760 16.8210 17.2220 11.1440 7.44210 4.06080
140 56.7410 100.000 84.5290 60.1260 82.6180 77.6740
141 100.000 84.5550 59.1150 71.5550 72.6780 40.0060
142 84.1050 100.000 56.9210 69.0680 88.0550 40.8070
143 100.000 55.0460 83.2430 62.9680 45.4450 68.1750
144 14.0200 42.1950 0.89582 6.99160 11.9050 2.85450
145 16.7190 1.16780 42.5470 4.70930 2.64700 15.3090
146 0.00000 14.7840 42.4630 4.37160 3.43110 15.4190
147 82.8450 57.4660 100.000 55.8000 42.4140 99.7980
148 49.1850 23.6550 65.7710 18.0230 11.3700 38.6550
149 36.1120 48.2490 74.9580 21.7220 21.0200 52.6670
150 63.5870 50.5940 27.1960 24.6300 24.5980 9.94280
151 60.5730 82.7970 100.000 55.2480 61.1800 103.450
152 84.2660 43.4330 1.92140 34.3380 26.5000 4.30570
153 48.4570 66.9310 25.1170 24.4430 34.2900 11.0020
154 41.8840 81.5070 0.00000 29.2740 48.6650 8.71160
155 32.1220 15.5880 76.6450 14.9830 8.17830 53.0400
156 17.5890 75.0510 97.1570 37.3300 45.2930 95.3810
157 40.6140 16.4810 0.42468 7.42890 5.53200 1.56700
158 82.9360 56.2160 66.2530 44.5980 37.1700 42.8310
159 55.7680 82.4540 66.3770 42.0760 55.3140 46.6200
160 42.0960 0.00000 15.7600 7.42670 4.26940 3.29740
161 24.5360 62.4920 50.2030 19.1970 28.2430 25.5300
162 97.9400 16.3100 42.8970 43.5020 23.7910 17.5970
163 69.7290 41.1530 50.6640 28.0650 21.9130 24.2460
164 2.76300 83.3530 10.5400 24.7280 48.0080 9.84380
165 76.0960 33.5840 17.3930 26.7610 19.0780 5.52690
166 25.5900 100.000 48.9080 42.2270 74.3810 32.1130
167 26.0330 32.3400 82.5260 17.8450 12.8320 63.0640
168 0.00000 82.8380 89.6470 38.0680 52.8140 82.1690
169 0.00000 42.8760 14.4520 6.77810 12.0290 4.54590
170 91.5040 1.93440 48.0490 37.9420 19.7200 21.0710
171 72.4090 0.00000 84.3460 32.8780 16.0310 65.9440
172 66.6140 52.1690 77.5960 35.7700 30.0930 57.6150
173 74.7500 82.4860 1.00170 45.0910 57.7190 9.69900
174 75.9090 17.8480 100.000 41.7370 21.3450 96.4720
175 49.3980 66.4200 76.1750 33.2980 37.4840 57.0300
176 41.1390 0.00000 84.8490 19.0750 8.89480 66.1530
177 100.000 51.1420 8.86610 49.9370 38.0250 6.35200
178 32.7560 23.3540 51.6410 10.2570 7.63860 23.3000
179 49.9690 35.9190 26.2170 14.4810 13.4070 7.92080
180 83.7360 23.5720 33.0100 31.5160 18.9330 11.1960
181 75.3800 100.000 16.9760 58.4190 83.1000 16.1150
182 10.0550 98.2420 15.4970 35.7890 69.3630 14.3090
183 73.1940 15.9830 0.00000 21.9810 12.9710 2.20570
184 16.8880 75.0000 1.53190 20.5100 38.5140 7.32470
185 25.0970 51.0160 34.5570 12.7580 18.6080 12.9480
186 18.3320 91.9800 34.2510 33.1520 60.8440 19.8600
187 17.5920 43.7890 67.0680 15.0450 15.8590 41.2950
188 65.1690 74.1200 50.6600 38.5610 46.6530 28.4650
189 48.9710 97.0480 9.38520 42.5920 71.5120 13.2720
190 39.7190 15.2690 37.2540 9.10620 6.00600 12.2600
191 66.8830 75.6650 16.2990 36.8060 47.4180 10.2030
192 22.9020 66.7090 82.5590 28.5850 35.0350 66.8380
193 42.7100 16.1510 100.000 25.8960 12.9440 95.6850
194 0.00000 92.6800 51.2240 34.8240 62.1900 32.1620
195 34.2240 75.0640 18.1570 23.9460 40.2820 9.96460
196 16.0490 97.8440 91.3090 50.1350 74.6570 88.8530
197 34.5150 83.4910 62.1800 34.6780 52.5790 41.4670
198 84.8650 67.3890 9.79900 43.9060 44.7360 8.09250
199 17.4390 33.7430 41.3610 7.89550 9.15580 15.5720
200 85.0600 33.5530 58.9390 38.0360 24.3010 32.2450
201 66.6830 15.7130 77.2330 28.1470 14.9620 54.5430
202 16.3890 0.00000 74.5160 11.1410 5.16410 49.5220
203 16.5940 38.9350 97.3430 23.2120 17.1040 91.0650
204 83.2730 11.1490 66.7260 35.6000 18.6330 40.3180
205 100.000 81.6910 9.53860 64.4040 66.9270 11.2600
206 1.87890 42.9290 82.6710 18.1420 16.6040 64.0180
207 33.4730 43.0310 17.7480 10.7070 14.1000 5.50180
208 75.0870 0.72415 16.1160 22.8080 12.2280 4.10490
209 100.000 24.6110 19.9440 44.1650 25.7800 6.59530
210 56.7790 33.4180 84.4410 27.9430 18.2810 66.8000
211 100.000 8.64880 82.0310 53.5320 27.1880 63.1400
212 0.83837 15.7230 74.6090 11.0110 6.21360 49.8660
213 66.3130 18.6830 43.6150 21.1050 12.5680 17.1300
214 18.6830 92.0940 69.1450 39.3490 63.4580 51.8770
215 57.1770 84.5370 33.8370 38.5790 56.1030 18.4350
216 82.5410 58.9370 32.7390 39.8580 36.9480 14.0940
217 18.1880 8.99270 100.000 20.3060 9.33520 95.2830
218 89.0050 70.5210 50.8390 52.4430 50.9970 28.7310
219 84.1360 92.6210 33.4440 59.9990 75.3840 20.8200
220 7.36160 67.3860 15.4480 16.2060 30.4290 7.81450
221 35.4790 82.5500 91.3510 42.7160 54.8730 85.5040
222 48.1900 43.1280 67.4990 21.9730 19.1490 42.1110
223 80.8300 33.6940 91.0470 43.9660 26.3630 79.3610
224 31.2770 51.5350 57.2820 17.4880 20.9150 30.9340
225 48.3800 68.9330 43.3390 27.2830 36.9750 21.3150
226 59.7250 50.2240 0.00000 21.5270 22.9400 4.15390
227 2.19480 50.5610 40.3310 11.2490 17.5260 16.3170
228 40.1810 0.00000 50.5900 10.4000 5.39300 21.9220
229 52.6460 100.000 60.4640 51.9680 79.1550 43.7570
230 15.2540 73.1180 68.5340 26.9410 39.4330 47.0950
231 34.8730 92.4990 16.5230 35.1500 62.5810 13.2700
232 0.38193 49.1540 60.4000 14.0930 17.9220 33.8610
233 38.3460 82.6750 31.4700 30.4260 50.1690 16.5050
234 97.9350 50.0880 62.2000 53.7080 38.7530 37.8190
235 60.2110 1.10940 48.6570 17.7440 9.26130 20.6210
236 48.0780 60.2260 100.000 38.2730 35.0280 99.2960
237 2.52260 15.6730 89.6490 15.7780 8.11960 74.7200
238 82.4340 8.18250 35.0810 29.4400 15.8450 11.8270
239 92.3610 1.47150 17.6770 35.6010 18.8460 5.08870
240 17.3820 94.6650 2.07770 33.3310 64.0590 11.6200
241 18.5910 74.7070 31.9180 22.0030 38.8740 14.9900
242 0.00000 58.6900 83.9480 23.7700 27.2950 67.9220
243 37.6580 50.1670 2.11040 13.4410 18.7400 3.92210
244 97.9580 80.8720 27.2480 62.9440 65.3250 15.8080
245 0.73844 72.8240 49.8210 22.1410 37.1700 26.7670
246 98.9760 26.4500 83.2970 54.7170 30.3180 65.7810
247 49.3380 68.2130 2.46610 24.5000 35.3380 6.56920
248 98.1100 17.2040 60.9370 46.8740 25.2880 34.1520
249 93.4560 16.6750 1.89200 36.8780 20.7400 3.05790
250 3.58710 82.5080 73.2700 32.8910 50.4260 55.3290
251 48.9120 97.2890 26.5900 43.6220 72.2200 17.8880
252 100.000 50.0180 26.0400 50.4000 37.6120 10.6320
253 1.60790 80.6830 26.5750 23.8680 45.0120 13.6700
254 93.7200 97.2670 16.6210 69.9030 85.8160 15.9480
255 92.2100 16.0810 99.1410 53.2740 27.0910 95.1530
256 48.8800 5.37400 67.4740 16.8520 8.54470 40.3020
257 47.7690 37.6530 97.5310 29.9460 20.1200 91.6810
258 33.7810 51.1740 95.2760 28.7920 25.3040 88.1630
259 51.3360 32.0150 8.22480 13.3470 11.7440 3.12490
260 69.2040 93.8800 49.1060 53.1850 73.0060 31.4380
261 69.1310 49.0720 92.8780 41.1790 30.7700 83.8520
262 40.7310 96.1880 83.3550 50.8840 73.4550 74.4060
263 67.2440 20.5650 23.1640 19.7480 12.4090 6.32170
264 97.1240 81.4040 75.2170 70.8390 68.9150 59.7050
265 0.00000 18.5910 25.6430 2.97850 3.42730 6.37560
266 18.1610 25.0060 0.34977 3.93640 5.18790 1.67910
267 76.0860 100.000 82.3720 69.9610 87.7690 74.5300
268 20.0580 23.5860 68.4060 11.5730 7.95690 41.6630
269 82.3970 75.1860 98.7380 63.3100 58.7280 99.8840
270 18.2150 3.00940 26.6720 3.25150 2.16380 6.52420
271 81.1980 32.2950 73.7860 38.5090 23.7710 50.6210
272 54.2160 31.0920 51.9910 18.3700 13.6130 24.3440
273 20.1190 25.1620 98.4120 21.4240 12.2450 92.4370
274 81.3500 43.0130 33.9370 33.7700 25.8450 12.9020
275 31.0960 85.6160 74.5880 38.3450 56.1500 58.0340
276 40.0450 30.3410 80.6020 20.0660 13.4990 59.9420
277 57.5280 18.5500 97.4000 30.7100 15.8830 90.5520
278 13.6830 58.5800 96.8280 28.9920 29.3920 92.0780
279 97.0350 38.2160 49.0900 47.0800 30.6760 23.5750
280 62.9130 17.4900 60.3400 22.1160 12.5770 32.3400
281 50.2460 2.30890 35.7500 11.7730 6.43120 11.3190
282 3.25000 3.72240 82.3850 12.7320 5.86720 61.7560
283 50.8800 1.97290 96.7060 26.6910 12.4110 88.6720
284 100.000 67.3150 17.2990 56.8230 51.3100 10.1420
285 1.24720 34.9690 49.4450 8.32440 9.61470 21.8530
286 81.2000 74.9110 32.4550 46.4810 51.6550 16.4390
287 82.7250 3.37710 97.4060 44.5100 21.6240 90.9450
288 83.7270 96.2360 2.22360 60.7930 79.9830 13.2580
289 3.64690 97.2010 82.3830 45.8350 72.0460 72.7840
290 80.4050 2.35130 0.42819 26.0060 13.9880 2.22110
291 95.6150 50.0170 96.9250 62.1050 41.8360 92.9340
292 50.8680 3.54310 1.06310 10.1830 5.87710 1.53490
293 2.33590 0.16127 52.4430 5.32000 2.74330 23.3470
294 2.63510 49.2450 1.97830 8.44370 15.7180 3.59240
295 100.000 97.2250 50.9490 79.0250 90.0590 34.9680
296 49.0120 96.6320 98.0860 59.2260 77.6520 102.390
297 59.8300 84.8820 3.28100 38.3970 56.5280 9.98690
298 0.89916 50.3860 96.3110 25.1420 22.9850 89.9920
299 58.7220 4.05730 80.9890 24.6100 12.0550 60.0460
300 35.5270 58.8650 18.9130 16.5800 25.0220 7.61000
301 47.3870 70.1550 60.2590 30.4710 39.1860 36.9480
302 57.8660 18.2940 2.50400 14.0400 9.19240 2.07620
303 72.3160 61.3910 47.8950 36.0150 36.2550 24.2370
304 98.1370 54.1690 43.9820 52.0420 40.3640 21.1350
305 48.0830 100.000 42.5850 47.1490 77.0260 27.4590
306 62.3460 73.9120 83.7960 45.0350 48.8930 70.7150
307 19.4620 1.42230 57.0630 7.42240 3.77940 27.9310
308 17.3090 57.8100 2.12810 12.4580 22.3310 4.66830
309 59.3840 3.01370 19.6030 14.3670 7.94880 4.62430
310 24.4700 14.5250 37.9370 5.77210 4.18870 12.5010
311 2.46280 17.9890 58.4840 7.42190 5.11690 29.6710
312 14.9570 37.3880 24.9690 6.78530 9.93600 7.17510
313 77.3680 63.6230 86.9670 49.7290 43.6650 74.9440
314 86.2020 74.0590 63.1870 54.5320 54.5550 41.9670
315 15.6250 57.1640 63.9870 18.5620 24.3470 38.9740
316 35.4970 24.0670 14.2360 7.21640 6.64950 3.44010
317 76.4090 0.72348 53.8880 27.7620 14.3070 25.7520
318 74.4090 86.6730 63.0040 53.9040 65.5440 43.9080
319 50.7800 52.1580 30.9500 19.7360 22.8250 11.5370
320 96.8260 78.9640 43.9350 62.6040 63.2420 24.9600
321 96.2260 43.1840 80.0260 54.7440 35.6740 61.4770
322 68.4870 88.4760 87.0740 58.3060 68.8440 79.5420
323 86.4210 69.4580 87.6550 59.1800 52.6010 77.3950
324 31.1680 10.4960 13.1640 4.89430 3.54360 2.75250
325 28.8840 5.92240 85.1760 16.3660 7.73880 66.6360
326 95.8210 14.0700 26.1710 39.6710 21.7460 8.18540
327 9.85860 31.5610 10.5920 4.47140 7.03410 3.00940
328 89.4010 89.7700 68.6650 68.0570 75.8240 52.1240
329 89.3480 36.1110 21.9870 37.1310 25.1820 7.47850
330 60.3220 57.2600 14.8940 24.6850 28.2790 6.83240
331 73.9590 54.2990 4.73480 30.8090 29.8140 5.33880
332 10.8180 11.9070 33.3600 3.55790 2.82660 9.74290
333 10.3190 29.6790 76.5080 13.7300 10.2000 53.2910
334 30.0150 80.4470 42.9470 28.4020 46.9380 22.8960
335 36.9540 14.2880 59.9600 11.9160 6.91730 31.3690
336 61.0870 40.6480 13.9910 19.7080 17.8330 4.89140
337 64.7890 87.7970 20.2460 43.3720 61.8990 13.6980
338 38.6790 61.3720 86.6470 30.8230 32.4750 73.2140
339 5.24090 52.1200 25.2290 10.3870 18.0380 8.64760
340 14.9750 58.4790 39.0810 14.7190 23.6330 16.5000
341 69.2620 25.5470 86.9130 33.7500 19.1710 70.9610
342 54.8290 24.7960 38.6460 15.6580 10.9330 13.7230
343 24.1100 34.7840 56.9790 11.5300 11.0540 29.0330
344 46.0240 75.6370 96.2880 43.5640 49.0290 94.0030
345 76.0680 61.0750 21.5650 35.4300 36.0790 9.53590
346 86.3860 29.1110 8.90560 32.8970 21.0500 3.97800
347 78.0400 29.8620 43.5490 29.7320 19.2980 17.9260
348 28.8560 20.4100 90.0080 19.0570 10.4890 75.6680
349 27.1040 83.8680 5.27350 27.2870 49.8280 9.43300
350 25.2760 100.000 77.3470 48.5330 76.8960 65.5970
351 73.9440 45.9670 62.1040 34.1340 26.7580 36.4250
352 23.7330 65.5910 20.9550 17.2510 29.6790 9.06780
353 46.0590 90.6570 70.1490 44.7080 64.6670 53.1590
354 78.8860 91.2490 96.7010 70.2110 77.4560 98.9250
355 21.1190 8.99370 0.00000 2.80050 2.37660 1.17090
356 23.0370 98.0390 22.8570 37.3800 69.9010 16.3860
357 0.11868 23.0540 10.3250 2.72960 4.15200 2.50430
358 95.5130 96.8470 81.0000 81.8010 90.2330 72.1430
359 1.52380 4.12980 17.3620 1.61660 1.43330 3.43780
360 97.1670 80.2610 97.6250 77.7040 70.5530 99.0930
361 36.1850 59.6360 43.6430 19.3820 26.6630 19.9610
362 87.4250 43.9480 65.2530 43.7030 30.7500 40.4090
363 90.0480 76.7150 0.00000 52.6490 56.5110 8.99510
364 88.8710 0.00000 75.0000 41.5840 20.8450 51.6490
365 90.4020 58.1540 2.08650 44.0350 38.8140 6.18400
366 9.96850 71.6550 86.7240 31.0570 39.7980 74.7510
367 43.2830 54.7940 63.8340 23.1830 25.4040 38.7530
368 76.4310 22.8840 65.1820 31.6060 18.2400 38.5450
369 10.9380 97.7630 45.2170 38.1820 69.7260 28.4610
370 10.5950 89.2250 98.1000 45.8950 62.7430 100.250
371 71.6430 82.6820 38.9590 45.5310 57.8700 21.4080
372 92.1510 22.7370 69.8500 44.3810 24.6670 45.0560
373 12.2830 11.7260 66.5880 9.19130 5.07320 38.9180
374 72.3780 37.6980 83.8000 36.8360 24.2550 66.3970
375 66.3960 11.5860 12.2770 17.9620 10.3830 3.22260
376 63.5440 49.9920 38.9190 25.5760 24.6550 16.0220
377 27.5360 83.1990 27.9890 28.0030 49.4440 14.8940
378 67.9590 12.1380 88.9310 32.3080 16.2760 74.1070
379 28.4290 11.6150 51.3260 8.18100 4.90240 22.5980
380 5.52000 82.7810 38.3030 26.4330 48.1240 20.1200
381 3.87980 59.2390 50.8950 16.0640 24.5820 25.5970
382 6.22680 81.5580 60.2090 29.2710 48.0470 38.6660
383 46.8430 26.8060 92.1750 25.5150 14.9910 80.2790
384 4.56430 52.0560 74.7940 18.6960 21.3230 52.6470
385 37.8410 90.4830 47.8410 37.5230 61.3080 28.9500
386 65.0990 26.0900 12.0150 18.7700 13.0430 3.64780
387 79.5340 43.8100 97.1480 47.7720 31.6480 92.1800
388 79.6970 99.8130 44.9200 63.7380 85.3190 29.8990
389 41.5850 34.5450 53.7600 14.8290 12.7510 26.0100
390 12.9980 30.4320 56.3900 9.26350 8.64760 28.0890
391 35.3330 48.5040 28.9510 13.4990 17.8370 9.97700
392 60.9560 58.8160 86.7600 38.2150 34.7110 73.4560
393 26.6640 31.6960 10.1940 6.44470 8.09050 3.04950
394 20.8330 0.00000 9.58890 2.62800 1.82000 1.95290
395 39.3970 74.0180 80.5630 35.1800 44.0150 64.9740
396 56.1940 12.6830 30.8020 14.1670 8.40200 8.97500
397 12.3720 63.5540 79.4820 25.0140 31.1520 61.3090
398 80.2810 71.2530 44.5890 45.3400 48.0040 23.4150
399 53.0640 39.4080 35.2970 17.3280 15.9730 12.6110
400 28.6930 48.1200 6.85700 10.8140 16.4020 4.00130
401 10.7410 23.9600 31.6100 4.57100 5.13250 9.24210
402 25.2530 12.2740 64.5600 10.3020 5.75400 36.5050
403 78.6050 66.9350 57.8250 44.3090 44.0340 34.5470
404 16.1680 0.00000 86.3890 14.7430 6.60200 68.6110
405 61.2980 44.4740 61.6310 26.5650 22.2270 35.4110
406 100.000 10.9590 13.3210 42.5250 22.9860 4.55320
407 33.0260 12.1500 26.3810 6.13480 4.24980 6.65810
408 35.1170 68.9930 50.3970 24.3800 35.3980 26.8080
409 68.9140 89.6950 74.5270 55.5380 69.1140 59.5430
410 10.5550 43.8340 37.1140 9.18650 13.4640 13.6120
411 87.6360 67.2100 75.5930 55.2680 49.3870 57.3080
412 25.3450 87.6790 97.9460 46.4610 61.4700 99.6510
413 43.2760 88.1160 100.000 51.8580 64.5980 104.290
414 0.11517 57.0690 12.9060 11.3790 21.3170 5.79340
415 11.6140 99.0190 55.6770 40.9710 72.4300 38.0170
416 89.1480 26.9210 43.3320 37.3650 22.5200 17.9880
417 14.5100 68.9740 56.6260 22.1180 34.0880 32.5620
418 41.3850 42.4300 89.7870 26.1560 20.2620 76.7720
419 27.7920 46.2870 45.6450 13.1250 16.4130 19.8190
420 22.0350 57.7320 70.8100 21.2030 25.8470 47.7930
421 9.20380 33.4170 92.2540 19.4760 13.6030 80.4810
422 94.6310 54.1620 73.1800 54.8740 41.1330 52.2510
423 97.0020 38.4970 12.2730 43.6900 29.4230 5.54220
424 59.9250 93.3740 39.8460 46.6270 69.2230 24.1130
425 27.7980 18.2660 4.38370 4.61490 4.32580 1.77050
426 41.3300 79.6060 70.0600 35.9780 49.4850 50.5690
427 90.8020 61.5320 21.0420 46.3750 42.0130 9.94140
428 31.1180 13.1940 100.000 22.6490 10.9210 95.4650
429 29.6760 90.8920 88.4230 45.9540 64.9230 81.8540
430 100.000 78.2140 88.1820 75.5910 68.0660 80.4650
431 24.2800 97.8240 11.4220 36.8600 69.4460 13.4830
432 52.9790 52.6350 70.6540 27.5520 26.3160 47.3390
433 93.7010 41.0840 37.9300 43.3230 29.9640 15.4940
434 58.6690 95.9450 14.4570 45.9360 71.9590 14.0530
435 73.2640 75.3830 90.0910 54.0630 54.4990 82.4750
436 74.5520 84.7560 25.7730 47.3610 60.9220 15.1870
437 24.9400 71.3570 8.82330 19.7700 35.2290 7.39550
438 85.2220 70.7180 21.2220 46.3110 48.3670 11.2270
439 37.2920 11.8340 88.9030 19.8330 9.81610 73.4660
440 2.32130 26.9680 85.4460 15.6810 10.2280 67.6190
441 44.3360 26.6610 44.4690 12.7690 9.76010 17.6590
442 0.00000 29.9350 18.8570 4.11160 6.37450 4.65200
443 78.7620 98.0590 66.1780 65.7360 83.8170 50.6290
444 1.05500 72.3240 73.8950 27.1250 38.7410 54.2670
445 11.0980 100.000 75.4090 46.3400 75.8300 62.6110
446 27.8800 0.00000 20.7420 4.21330 2.58350 4.45900
447 88.1990 89.3400 43.2280 61.9320 72.7850 26.3210
448 78.0430 8.68680 26.0320 25.5930 13.9920 7.37570
449 56.5310 100.000 71.4000 56.1860 81.0320 57.4060
450 72.4910 87.6270 12.4710 47.2730 63.7790 12.0200
451 38.2390 10.3810 44.4650 9.28350 5.48540 17.0140
452 43.4750 42.0460 10.2050 12.8860 14.8660 4.01970
