dispcalGUI/ti1/d3-e4-s0-g61-m0-f0-cubic10-crossover.ti1
CTI1   

ORIGINATOR "Argyll targen"
CREATED "Tue Feb 23 09:13:29 2010"
KEYWORD "COMP_GREY_STEPS"
COMP_GREY_STEPS "61"
KEYWORD "ERROR_OPTIMISED_PATCHES"
ERROR_OPTIMISED_PATCHES "0"
KEYWORD "APPROX_WHITE_POINT"
APPROX_WHITE_POINT "95.106486 100.000000 108.844025"
DESCRIPTOR "Argyll Calibration Target chart information 1"
KEYWORD "MULTI_DIM_STEPS"
MULTI_DIM_STEPS "0"
KEYWORD "WHITE_COLOR_PATCHES"
WHITE_COLOR_PATCHES "4"
KEYWORD "SINGLE_DIM_STEPS"
SINGLE_DIM_STEPS "0"
KEYWORD "COLOR_REP"
COLOR_REP "RGB"

NUMBER_OF_FIELDS 7
BEGIN_DATA_FORMAT
SAMPLE_ID RGB_R RGB_G RGB_B XYZ_X XYZ_Y XYZ_Z
END_DATA_FORMAT

NUMBER_OF_SETS 2386
BEGIN_DATA
1 100.000 100.000 100.000 95.1060 100.000 108.840
2 100.000 100.000 100.000 95.1060 100.000 108.840
3 100.000 100.000 100.000 95.1060 100.000 108.840
4 100.000 100.000 100.000 95.1060 100.000 108.840
5 0.00000 0.00000 0.00000 1.00000 1.00000 1.00000
6 1.66670 1.66670 1.66670 1.12140 1.12770 1.13910
7 3.33330 3.33330 3.33330 1.24280 1.25540 1.27820
8 5.00000 5.00000 5.00000 1.37040 1.38970 1.42450
9 6.66670 6.66670 6.66670 1.52750 1.55490 1.60450
10 8.33330 8.33330 8.33330 1.71790 1.75520 1.82260
11 10.0000 10.0000 10.0000 1.94320 1.99230 2.08090
12 11.6670 11.6670 11.6670 2.20520 2.26790 2.38110
13 13.3330 13.3330 13.3330 2.50540 2.58360 2.72510
14 15.0000 15.0000 15.0000 2.84510 2.94110 3.11450
15 16.6670 16.6670 16.6670 3.22580 3.34160 3.55080
16 18.3330 18.3330 18.3330 3.64880 3.78660 4.03550
17 20.0000 20.0000 20.0000 4.11540 4.27740 4.57020
18 21.6670 21.6670 21.6670 4.62660 4.81520 5.15600
19 23.3330 23.3330 23.3330 5.18370 5.40130 5.79440
20 25.0000 25.0000 25.0000 5.78780 6.03670 6.48670
21 26.6670 26.6670 26.6670 6.43990 6.72270 7.23400
22 28.3330 28.3330 28.3330 7.14100 7.46040 8.03750
23 30.0000 30.0000 30.0000 7.89230 8.25070 8.89840
24 31.6670 31.6670 31.6670 8.69450 9.09460 9.81780
25 33.3330 33.3330 33.3330 9.54880 9.99330 10.7970
26 35.0000 35.0000 35.0000 10.4560 10.9480 11.8360
27 36.6670 36.6670 36.6670 11.4170 11.9590 12.9380
28 38.3330 38.3330 38.3330 12.4330 13.0270 14.1010
29 40.0000 40.0000 40.0000 13.5040 14.1540 15.3290
30 41.6670 41.6670 41.6670 14.6310 15.3400 16.6210
31 43.3330 43.3330 43.3330 15.8160 16.5860 17.9790
32 45.0000 45.0000 45.0000 17.0590 17.8940 19.4030
33 46.6670 46.6670 46.6670 18.3600 19.2630 20.8950
34 48.3330 48.3330 48.3330 19.7210 20.6950 22.4540
35 50.0000 50.0000 50.0000 21.1430 22.1900 24.0830
36 51.6670 51.6670 51.6670 22.6250 23.7500 25.7820
37 53.3330 53.3330 53.3330 24.1690 25.3740 27.5510
38 55.0000 55.0000 55.0000 25.7760 27.0640 29.3920
39 56.6670 56.6670 56.6670 27.4460 28.8210 31.3060
40 58.3330 58.3330 58.3330 29.1790 30.6440 33.2930
41 60.0000 60.0000 60.0000 30.9770 32.5360 35.3530
42 61.6670 61.6670 61.6670 32.8410 34.4960 37.4890
43 63.3330 63.3330 63.3330 34.7700 36.5260 39.7000
44 65.0000 65.0000 65.0000 36.7660 38.6260 41.9870
45 66.6670 66.6670 66.6670 38.8290 40.7960 44.3510
46 68.3330 68.3330 68.3330 40.9590 43.0370 46.7930
47 70.0000 70.0000 70.0000 43.1590 45.3510 49.3130
48 71.6670 71.6670 71.6670 45.4270 47.7370 51.9120
49 73.3330 73.3330 73.3330 47.7650 50.1960 54.5910
50 75.0000 75.0000 75.0000 50.1730 52.7300 57.3510
51 76.6670 76.6670 76.6670 52.6520 55.3370 60.1920
52 78.3330 78.3330 78.3330 55.2020 58.0200 63.1140
53 80.0000 80.0000 80.0000 57.8240 60.7790 66.1190
54 81.6670 81.6670 81.6670 60.5190 63.6140 69.2070
55 83.3330 83.3330 83.3330 63.2870 66.5260 72.3790
56 85.0000 85.0000 85.0000 66.1280 69.5150 75.6360
57 86.6670 86.6670 86.6670 69.0440 72.5820 78.9770
58 88.3330 88.3330 88.3330 72.0350 75.7290 82.4040
59 90.0000 90.0000 90.0000 75.1010 78.9540 85.9180
60 91.6670 91.6670 91.6670 78.2420 82.2590 89.5180
61 93.3330 93.3330 93.3330 81.4600 85.6440 93.2060
62 95.0000 95.0000 95.0000 84.7550 89.1110 96.9820
63 96.6670 96.6670 96.6670 88.1280 92.6580 100.850
64 98.3330 98.3330 98.3330 91.5780 96.2880 104.800
65 0.00000 0.00000 10.0000 1.17912 1.07164 1.94344
66 5.00000 5.00000 15.0000 1.65045 1.50166 2.89954
67 0.00000 0.00000 20.0000 1.59162 1.23661 4.11612
68 5.00000 5.00000 25.0000 2.20927 1.72515 5.84289
69 0.00000 0.00000 30.0000 2.30886 1.52346 7.89391
70 5.00000 5.00000 35.0000 3.09577 2.07970 10.5122
71 0.00000 0.00000 40.0000 3.37450 1.94965 13.5068
72 5.00000 5.00000 45.0000 4.34967 2.58118 17.1166
73 0.00000 0.00000 50.0000 4.82515 2.52982 21.1475
74 5.00000 5.00000 55.0000 6.00505 3.24322 25.8356
75 0.00000 0.00000 60.0000 6.69278 3.27675 30.9845
76 5.00000 5.00000 65.0000 8.09209 4.07791 36.8283
77 0.00000 0.00000 70.0000 9.00605 4.20191 43.1687
78 5.00000 5.00000 75.0000 10.6381 5.09615 50.2384
79 0.00000 0.00000 80.0000 11.7911 5.31574 57.8376
80 5.00000 5.00000 85.0000 13.6681 6.30798 66.1979
81 0.00000 0.00000 90.0000 15.0719 6.62788 75.1183
82 5.00000 5.00000 95.0000 17.2054 7.72267 84.8293
83 0.00000 0.00000 100.000 18.8711 8.14731 95.1290
84 0.00000 10.0000 0.00000 1.35486 1.70962 1.11829
85 5.00000 15.0000 5.00000 1.92522 2.49915 1.60941
86 0.00000 10.0000 10.0000 1.53398 1.78126 2.06173
87 5.00000 15.0000 15.0000 2.20528 2.61116 3.08448
88 0.00000 10.0000 20.0000 1.94648 1.94623 4.23440
89 5.00000 15.0000 25.0000 2.76409 2.83465 6.02784
90 0.00000 10.0000 30.0000 2.66372 2.23308 8.01219
91 5.00000 15.0000 35.0000 3.65060 3.18919 10.6971
92 0.00000 10.0000 40.0000 3.72936 2.65927 13.6250
93 5.00000 15.0000 45.0000 4.90450 3.69067 17.3016
94 0.00000 10.0000 50.0000 5.18001 3.23944 21.2658
95 5.00000 15.0000 55.0000 6.55987 4.35272 26.0206
96 0.00000 10.0000 60.0000 7.04764 3.98638 31.1028
97 5.00000 15.0000 65.0000 8.64691 5.18740 37.0132
98 0.00000 10.0000 70.0000 9.36091 4.91154 43.2870
99 5.00000 15.0000 75.0000 11.1929 6.20565 50.4233
100 0.00000 10.0000 80.0000 12.1459 6.02536 57.9559
101 5.00000 15.0000 85.0000 14.2230 7.41747 66.3829
102 0.00000 10.0000 90.0000 15.4268 7.33750 75.2366
103 5.00000 15.0000 95.0000 17.7603 8.83217 85.0142
104 0.00000 10.0000 100.000 19.2260 8.85694 95.2472
105 0.00000 20.0000 0.00000 2.17208 3.34383 1.39070
106 5.00000 25.0000 5.00000 3.03232 4.71304 1.97845
107 0.00000 20.0000 10.0000 2.35120 3.41547 2.33414
108 5.00000 25.0000 15.0000 3.31238 4.82505 3.45351
109 0.00000 20.0000 20.0000 2.76370 3.58044 4.50681
110 5.00000 25.0000 25.0000 3.87120 5.04854 6.39687
111 0.00000 20.0000 30.0000 3.48094 3.86730 8.28460
112 5.00000 25.0000 35.0000 4.75770 5.40309 11.0662
113 0.00000 20.0000 40.0000 4.54659 4.29349 13.8975
114 5.00000 25.0000 45.0000 6.01160 5.90457 17.6706
115 0.00000 20.0000 50.0000 5.99723 4.87365 21.5382
116 5.00000 25.0000 55.0000 7.66697 6.56661 26.3896
117 0.00000 20.0000 60.0000 7.86486 5.62059 31.3752
118 5.00000 25.0000 65.0000 9.75401 7.40130 37.3823
119 0.00000 20.0000 70.0000 10.1781 6.54575 43.5594
120 5.00000 25.0000 75.0000 12.3000 8.41954 50.7924
121 0.00000 20.0000 80.0000 12.9631 7.65958 58.2283
122 5.00000 25.0000 85.0000 15.3301 9.63136 66.7519
123 0.00000 20.0000 90.0000 16.2440 8.97172 75.5090
124 5.00000 25.0000 95.0000 18.8674 11.0461 85.3832
125 0.00000 20.0000 100.000 20.0432 10.4911 95.5197
126 0.00000 30.0000 0.00000 3.59304 6.18536 1.86435
127 5.00000 35.0000 5.00000 4.78861 8.22513 2.56388
128 0.00000 30.0000 10.0000 3.77216 6.25699 2.80779
129 5.00000 35.0000 15.0000 5.06867 8.33714 4.03895
130 0.00000 30.0000 20.0000 4.18466 6.42197 4.98047
131 5.00000 35.0000 25.0000 5.62749 8.56063 6.98231
132 0.00000 30.0000 30.0000 4.90190 6.70882 8.75826
133 5.00000 35.0000 35.0000 6.51399 8.91518 11.6516
134 0.00000 30.0000 40.0000 5.96754 7.13501 14.3711
135 5.00000 35.0000 45.0000 7.76789 9.41666 18.2560
136 0.00000 30.0000 50.0000 7.41819 7.71518 22.0118
137 5.00000 35.0000 55.0000 9.42326 10.0787 26.9750
138 0.00000 30.0000 60.0000 9.28582 8.46211 31.8488
139 5.00000 35.0000 65.0000 11.5103 10.9134 37.9677
140 0.00000 30.0000 70.0000 11.5991 9.38727 44.0330
141 5.00000 35.0000 75.0000 14.0563 11.9316 51.3778
142 0.00000 30.0000 80.0000 14.3841 10.5011 58.7020
143 5.00000 35.0000 85.0000 17.0864 13.1435 67.3373
144 0.00000 30.0000 90.0000 17.6650 11.8132 75.9827
145 5.00000 35.0000 95.0000 20.6237 14.5582 85.9687
146 0.00000 30.0000 100.000 21.4641 13.3327 95.9933
147 0.00000 40.0000 0.00000 5.70423 10.4071 2.56809
148 5.00000 45.0000 5.00000 7.27276 13.1927 3.39194
149 0.00000 40.0000 10.0000 5.88335 10.4788 3.51153
150 5.00000 45.0000 15.0000 7.55282 13.3047 4.86701
151 0.00000 40.0000 20.0000 6.29585 10.6438 5.68421
152 5.00000 45.0000 25.0000 8.11164 13.5282 7.81037
153 0.00000 40.0000 30.0000 7.01309 10.9306 9.46200
154 5.00000 45.0000 35.0000 8.99814 13.8828 12.4797
155 0.00000 40.0000 40.0000 8.07873 11.3568 15.0748
156 5.00000 45.0000 45.0000 10.2520 14.3843 19.0841
157 0.00000 40.0000 50.0000 9.52938 11.9370 22.7156
158 5.00000 45.0000 55.0000 11.9074 15.0463 27.8031
159 0.00000 40.0000 60.0000 11.3970 12.6839 32.5526
160 5.00000 45.0000 65.0000 13.9945 15.8810 38.7958
161 0.00000 40.0000 70.0000 13.7103 13.6091 44.7368
162 5.00000 45.0000 75.0000 16.5405 16.8992 52.2059
163 0.00000 40.0000 80.0000 16.4953 14.7229 59.4057
164 5.00000 45.0000 85.0000 19.5705 18.1111 68.1654
165 0.00000 40.0000 90.0000 19.7762 16.0350 76.6864
166 5.00000 45.0000 95.0000 23.1078 19.5258 86.7967
167 0.00000 40.0000 100.000 23.5753 17.5545 96.6970
168 0.00000 50.0000 0.00000 8.57817 16.1542 3.52608
169 5.00000 55.0000 5.00000 10.5523 19.7509 4.48513
170 0.00000 50.0000 10.0000 8.75729 16.2259 4.46952
171 5.00000 55.0000 15.0000 10.8323 19.8629 5.96019
172 0.00000 50.0000 20.0000 9.16979 16.3908 6.64220
173 5.00000 55.0000 25.0000 11.3912 20.0864 8.90355
174 0.00000 50.0000 30.0000 9.88703 16.6777 10.4200
175 5.00000 55.0000 35.0000 12.2777 20.4409 13.5729
176 0.00000 50.0000 40.0000 10.9527 17.1039 16.0328
177 5.00000 55.0000 45.0000 13.5316 20.9424 20.1773
178 0.00000 50.0000 50.0000 12.4033 17.6840 23.6735
179 5.00000 55.0000 55.0000 15.1869 21.6045 28.8963
180 0.00000 50.0000 60.0000 14.2710 18.4310 33.5106
181 5.00000 55.0000 65.0000 17.2740 22.4391 39.8889
182 0.00000 50.0000 70.0000 16.5842 19.3561 45.6948
183 5.00000 55.0000 75.0000 19.8200 23.4574 53.2991
184 0.00000 50.0000 80.0000 19.3692 20.4700 60.3637
185 5.00000 55.0000 85.0000 22.8500 24.6692 69.2586
186 0.00000 50.0000 90.0000 22.6501 21.7821 77.6444
187 5.00000 55.0000 95.0000 26.3873 26.0839 87.8899
188 0.00000 50.0000 100.000 26.4493 23.3015 97.6550
189 0.00000 60.0000 0.00000 12.2782 23.5533 4.75944
190 5.00000 65.0000 5.00000 14.6870 28.0192 5.86338
191 0.00000 60.0000 10.0000 12.4573 23.6249 5.70287
192 5.00000 65.0000 15.0000 14.9671 28.1312 7.33845
193 0.00000 60.0000 20.0000 12.8698 23.7899 7.87555
194 5.00000 65.0000 25.0000 15.5259 28.3547 10.2818
195 0.00000 60.0000 30.0000 13.5871 24.0767 11.6533
196 5.00000 65.0000 35.0000 16.4124 28.7092 14.9511
197 0.00000 60.0000 40.0000 14.6527 24.5029 17.2662
198 5.00000 65.0000 45.0000 17.6663 29.2107 21.5555
199 0.00000 60.0000 50.0000 16.1034 25.0831 24.9069
200 5.00000 65.0000 55.0000 19.3217 29.8727 30.2745
201 0.00000 60.0000 60.0000 17.9710 25.8300 34.7439
202 5.00000 65.0000 65.0000 21.4087 30.7074 41.2672
203 0.00000 60.0000 70.0000 20.2843 26.7552 46.9281
204 5.00000 65.0000 75.0000 23.9547 31.7257 54.6773
205 0.00000 60.0000 80.0000 23.0693 27.8690 61.5971
206 5.00000 65.0000 85.0000 26.9848 32.9375 70.6368
207 0.00000 60.0000 90.0000 26.3501 29.1812 78.8777
208 5.00000 65.0000 95.0000 30.5221 34.3522 89.2682
209 0.00000 60.0000 100.000 30.1493 30.7006 98.8884
210 0.00000 70.0000 0.00000 16.8611 32.7178 6.28709
211 5.00000 75.0000 5.00000 19.7310 38.1058 7.54473
212 0.00000 70.0000 10.0000 17.0402 32.7894 7.23052
213 5.00000 75.0000 15.0000 20.0111 38.2178 9.01980
214 0.00000 70.0000 20.0000 17.4527 32.9544 9.40320
215 5.00000 75.0000 25.0000 20.5699 38.4413 11.9632
216 0.00000 70.0000 30.0000 18.1700 33.2413 13.1810
217 5.00000 75.0000 35.0000 21.4564 38.7958 16.6325
218 0.00000 70.0000 40.0000 19.2356 33.6675 18.7938
219 5.00000 75.0000 45.0000 22.7103 39.2973 23.2369
220 0.00000 70.0000 50.0000 20.6863 34.2476 26.4346
221 5.00000 75.0000 55.0000 24.3657 39.9594 31.9559
222 0.00000 70.0000 60.0000 22.5539 34.9946 36.2716
223 5.00000 75.0000 65.0000 26.4527 40.7940 42.9486
224 0.00000 70.0000 70.0000 24.8672 35.9197 48.4558
225 5.00000 75.0000 75.0000 28.9987 41.8123 56.3587
226 0.00000 70.0000 80.0000 27.6522 37.0336 63.1247
227 5.00000 75.0000 85.0000 32.0288 43.0241 72.3182
228 0.00000 70.0000 90.0000 30.9331 38.3457 80.4054
229 5.00000 75.0000 95.0000 35.5661 44.4388 90.9495
230 0.00000 70.0000 100.000 34.7322 39.8651 100.416
231 0.00000 80.0000 0.00000 22.3786 43.7513 8.12627
232 5.00000 85.0000 5.00000 25.7340 50.1100 9.54572
233 0.00000 80.0000 10.0000 22.5578 43.8229 9.06971
234 5.00000 85.0000 15.0000 26.0140 50.2220 11.0208
235 0.00000 80.0000 20.0000 22.9703 43.9879 11.2424
236 5.00000 85.0000 25.0000 26.5728 50.4455 13.9642
237 0.00000 80.0000 30.0000 23.6875 44.2747 15.0202
238 5.00000 85.0000 35.0000 27.4593 50.8000 18.6335
239 0.00000 80.0000 40.0000 24.7531 44.7009 20.6330
240 5.00000 85.0000 45.0000 28.7132 51.3015 25.2379
241 0.00000 80.0000 50.0000 26.2038 45.2811 28.2737
242 5.00000 85.0000 55.0000 30.3686 51.9635 33.9569
243 0.00000 80.0000 60.0000 28.0714 46.0280 38.1107
244 5.00000 85.0000 65.0000 32.4557 52.7982 44.9495
245 0.00000 80.0000 70.0000 30.3847 46.9532 50.2950
246 5.00000 85.0000 75.0000 35.0017 53.8165 58.3596
247 0.00000 80.0000 80.0000 33.1697 48.0670 64.9639
248 5.00000 85.0000 85.0000 38.0317 55.0283 74.3192
249 0.00000 80.0000 90.0000 36.4506 49.3792 82.2446
250 5.00000 85.0000 95.0000 41.5690 56.4430 92.9505
251 0.00000 80.0000 100.000 40.2497 50.8986 102.255
252 0.00000 90.0000 0.00000 28.8785 56.7492 10.2929
253 5.00000 95.0000 5.00000 32.7419 64.1238 11.8817
254 0.00000 90.0000 10.0000 29.0576 56.8208 11.2363
255 5.00000 95.0000 15.0000 33.0219 64.2358 13.3568
256 0.00000 90.0000 20.0000 29.4701 56.9858 13.4090
257 5.00000 95.0000 25.0000 33.5807 64.4593 16.3001
258 0.00000 90.0000 30.0000 30.1874 57.2727 17.1868
259 5.00000 95.0000 35.0000 34.4672 64.8139 20.9694
260 0.00000 90.0000 40.0000 31.2530 57.6988 22.7997
261 5.00000 95.0000 45.0000 35.7211 65.3154 27.5739
262 0.00000 90.0000 50.0000 32.7036 58.2790 30.4404
263 5.00000 95.0000 55.0000 37.3765 65.9774 36.2929
264 0.00000 90.0000 60.0000 34.5713 59.0260 40.2774
265 5.00000 95.0000 65.0000 39.4636 66.8121 47.2855
266 0.00000 90.0000 70.0000 36.8845 59.9511 52.4616
267 5.00000 95.0000 75.0000 42.0096 67.8303 60.6956
268 0.00000 90.0000 80.0000 39.6696 61.0649 67.1305
269 5.00000 95.0000 85.0000 45.0396 69.0422 76.6552
270 0.00000 90.0000 90.0000 42.9504 62.3771 84.4112
271 5.00000 95.0000 95.0000 48.5769 70.4569 95.2865
272 0.00000 90.0000 100.000 46.7496 63.8965 104.422
273 0.00000 100.000 0.00000 36.4052 71.8005 12.8018
274 0.00000 100.000 10.0000 36.5843 71.8722 13.7453
275 0.00000 100.000 20.0000 36.9968 72.0371 15.9180
276 0.00000 100.000 30.0000 37.7141 72.3240 19.6957
277 0.00000 100.000 40.0000 38.7797 72.7502 25.3086
278 0.00000 100.000 50.0000 40.2304 73.3303 32.9493
279 0.00000 100.000 60.0000 42.0980 74.0773 42.7863
280 0.00000 100.000 70.0000 44.4113 75.0024 54.9705
281 0.00000 100.000 80.0000 47.1963 76.1163 69.6395
282 0.00000 100.000 90.0000 50.4771 77.4284 86.9201
283 0.00000 100.000 100.000 54.2763 78.9478 106.931
284 10.0000 0.00000 0.00000 1.40923 1.21100 1.01918
285 15.0000 5.00000 5.00000 2.01024 1.71956 1.45445
286 10.0000 0.00000 10.0000 1.58835 1.28264 1.96261
287 15.0000 5.00000 15.0000 2.29029 1.83156 2.92952
288 10.0000 0.00000 20.0000 2.00085 1.44761 4.13529
289 15.0000 5.00000 25.0000 2.84911 2.05506 5.87288
290 10.0000 0.00000 30.0000 2.71809 1.73446 7.91308
291 15.0000 5.00000 35.0000 3.73561 2.40960 10.5422
292 10.0000 0.00000 40.0000 3.78374 2.16065 13.5259
293 15.0000 5.00000 45.0000 4.98951 2.91108 17.1466
294 10.0000 0.00000 50.0000 5.23439 2.74082 21.1666
295 15.0000 5.00000 55.0000 6.64488 3.57313 25.8656
296 10.0000 0.00000 60.0000 7.10202 3.48776 31.0037
297 15.0000 5.00000 65.0000 8.73192 4.40781 36.8583
298 10.0000 0.00000 70.0000 9.41528 4.41292 43.1879
299 15.0000 5.00000 75.0000 11.2779 5.42605 50.2684
300 10.0000 0.00000 80.0000 12.2003 5.52675 57.8568
301 15.0000 5.00000 85.0000 14.3080 6.63788 66.2279
302 10.0000 0.00000 90.0000 15.4812 6.83889 75.1375
303 15.0000 5.00000 95.0000 17.8453 8.05258 84.8592
304 10.0000 0.00000 100.000 19.2803 8.35832 95.1481
305 10.0000 10.0000 0.00000 1.76409 1.92062 1.13746
306 15.0000 15.0000 5.00000 2.56506 2.82905 1.63939
307 10.0000 10.0000 20.0000 2.35571 2.15723 4.25358
308 15.0000 15.0000 25.0000 3.40393 3.16455 6.05782
309 10.0000 10.0000 30.0000 3.07296 2.44409 8.03137
310 15.0000 15.0000 35.0000 4.29044 3.51910 10.7271
311 10.0000 10.0000 40.0000 4.13860 2.87028 13.6442
312 15.0000 15.0000 45.0000 5.54433 4.02058 17.3315
313 10.0000 10.0000 50.0000 5.58925 3.45044 21.2849
314 15.0000 15.0000 55.0000 7.19971 4.68262 26.0506
315 10.0000 10.0000 60.0000 7.45688 4.19738 31.1219
316 15.0000 15.0000 65.0000 9.28675 5.51731 37.0432
317 10.0000 10.0000 70.0000 9.77014 5.12254 43.3061
318 15.0000 15.0000 75.0000 11.8328 6.53555 50.4533
319 10.0000 10.0000 80.0000 12.5552 6.23637 57.9751
320 15.0000 15.0000 85.0000 14.8628 7.74737 66.4128
321 10.0000 10.0000 90.0000 15.8360 7.54851 75.2558
322 15.0000 15.0000 95.0000 18.4001 9.16207 85.0442
323 10.0000 10.0000 100.000 19.6352 9.06794 95.2664
324 10.0000 20.0000 0.00000 2.58131 3.55484 1.40987
325 15.0000 25.0000 5.00000 3.67216 5.04295 2.00843
326 10.0000 20.0000 10.0000 2.76043 3.62647 2.35331
327 15.0000 25.0000 15.0000 3.95221 5.15495 3.48350
328 10.0000 20.0000 20.0000 3.17293 3.79145 4.52599
329 15.0000 25.0000 25.0000 4.51103 5.37844 6.42686
330 10.0000 20.0000 30.0000 3.89018 4.07830 8.30378
331 15.0000 25.0000 35.0000 5.39754 5.73299 11.0962
332 10.0000 20.0000 40.0000 4.95582 4.50449 13.9166
333 15.0000 25.0000 45.0000 6.65144 6.23447 17.7006
334 10.0000 20.0000 50.0000 6.40647 5.08466 21.5573
335 15.0000 25.0000 55.0000 8.30681 6.89651 26.4196
336 10.0000 20.0000 60.0000 8.27410 5.83159 31.3943
337 15.0000 25.0000 65.0000 10.3938 7.73120 37.4123
338 10.0000 20.0000 70.0000 10.5874 6.75675 43.5786
339 15.0000 25.0000 75.0000 12.9399 8.74944 50.8224
340 10.0000 20.0000 80.0000 13.3724 7.87058 58.2475
341 15.0000 25.0000 85.0000 15.9699 9.96127 66.7819
342 10.0000 20.0000 90.0000 16.6532 9.18272 75.5282
343 15.0000 25.0000 95.0000 19.5072 11.3760 85.4132
344 10.0000 20.0000 100.000 20.4524 10.7022 95.5388
345 10.0000 30.0000 0.00000 4.00227 6.39636 1.88353
346 15.0000 35.0000 5.00000 5.42845 8.55504 2.59386
347 10.0000 30.0000 10.0000 4.18139 6.46799 2.82697
348 15.0000 35.0000 15.0000 5.70850 8.66704 4.06893
349 10.0000 30.0000 20.0000 4.59389 6.63297 4.99965
350 15.0000 35.0000 25.0000 6.26732 8.89053 7.01229
351 10.0000 30.0000 30.0000 5.31114 6.91982 8.77744
352 15.0000 35.0000 35.0000 7.15383 9.24508 11.6816
353 10.0000 30.0000 40.0000 6.37678 7.34601 14.3903
354 15.0000 35.0000 45.0000 8.40773 9.74656 18.2860
355 10.0000 30.0000 50.0000 7.82743 7.92618 22.0310
356 15.0000 35.0000 55.0000 10.0631 10.4086 27.0050
357 10.0000 30.0000 60.0000 9.69506 8.67311 31.8680
358 15.0000 35.0000 65.0000 12.1501 11.2433 37.9977
359 10.0000 30.0000 70.0000 12.0083 9.59827 44.0522
360 15.0000 35.0000 75.0000 14.6962 12.2615 51.4078
361 10.0000 30.0000 80.0000 14.7933 10.7121 58.7212
362 15.0000 35.0000 85.0000 17.7262 13.4734 67.3673
363 10.0000 30.0000 90.0000 18.0742 12.0242 76.0018
364 15.0000 35.0000 95.0000 21.2635 14.8881 85.9987
365 10.0000 30.0000 100.000 21.8734 13.5437 96.0125
366 10.0000 40.0000 0.00000 6.11346 10.6181 2.58727
367 15.0000 45.0000 5.00000 7.91260 13.5226 3.42192
368 10.0000 40.0000 10.0000 6.29258 10.6898 3.53070
369 15.0000 45.0000 15.0000 8.19265 13.6346 4.89699
370 10.0000 40.0000 20.0000 6.70508 10.8548 5.70338
371 15.0000 45.0000 25.0000 8.75147 13.8581 7.84035
372 10.0000 40.0000 30.0000 7.42233 11.1416 9.48117
373 15.0000 45.0000 35.0000 9.63798 14.2127 12.5097
374 10.0000 40.0000 40.0000 8.48797 11.5678 15.0940
375 15.0000 45.0000 45.0000 10.8919 14.7142 19.1141
376 10.0000 40.0000 50.0000 9.93862 12.1480 22.7347
377 15.0000 45.0000 55.0000 12.5472 15.3762 27.8331
378 10.0000 40.0000 60.0000 11.8062 12.8949 32.5717
379 15.0000 45.0000 65.0000 14.6343 16.2109 38.8257
380 10.0000 40.0000 70.0000 14.1195 13.8201 44.7559
381 15.0000 45.0000 75.0000 17.1803 17.2291 52.2358
382 10.0000 40.0000 80.0000 16.9045 14.9339 59.4249
383 15.0000 45.0000 85.0000 20.2103 18.4410 68.1954
384 10.0000 40.0000 90.0000 20.1854 16.2460 76.7056
385 15.0000 45.0000 95.0000 23.7476 19.8557 86.8267
386 10.0000 40.0000 100.000 23.9846 17.7655 96.7162
387 10.0000 50.0000 0.00000 8.98740 16.3652 3.54525
388 15.0000 55.0000 5.00000 11.1921 20.0808 4.51511
389 10.0000 50.0000 10.0000 9.16652 16.4369 4.48869
390 15.0000 55.0000 15.0000 11.4722 20.1928 5.99017
391 10.0000 50.0000 20.0000 9.57902 16.6018 6.66137
392 15.0000 55.0000 25.0000 12.0310 20.4163 8.93353
393 10.0000 50.0000 30.0000 10.2963 16.8887 10.4392
394 15.0000 55.0000 35.0000 12.9175 20.7708 13.6028
395 10.0000 50.0000 40.0000 11.3619 17.3149 16.0520
396 15.0000 55.0000 45.0000 14.1714 21.2723 20.2073
397 10.0000 50.0000 50.0000 12.8126 17.8950 23.6927
398 15.0000 55.0000 55.0000 15.8268 21.9344 28.9263
399 10.0000 50.0000 60.0000 14.6802 18.6420 33.5297
400 15.0000 55.0000 65.0000 17.9138 22.7690 39.9189
401 10.0000 50.0000 70.0000 16.9935 19.5671 45.7139
402 15.0000 55.0000 75.0000 20.4598 23.7873 53.3290
403 10.0000 50.0000 80.0000 19.7785 20.6810 60.3829
404 15.0000 55.0000 85.0000 23.4899 24.9991 69.2886
405 10.0000 50.0000 90.0000 23.0593 21.9931 77.6636
406 15.0000 55.0000 95.0000 27.0272 26.4138 87.9199
407 10.0000 50.0000 100.000 26.8585 23.5125 97.6742
408 10.0000 60.0000 0.00000 12.6874 23.7643 4.77861
409 15.0000 65.0000 5.00000 15.3269 28.3491 5.89336
410 10.0000 60.0000 10.0000 12.8666 23.8359 5.72205
411 15.0000 65.0000 15.0000 15.6069 28.4611 7.36843
412 10.0000 60.0000 20.0000 13.2791 24.0009 7.89473
413 15.0000 65.0000 25.0000 16.1657 28.6846 10.3118
414 10.0000 60.0000 30.0000 13.9963 24.2877 11.6725
415 15.0000 65.0000 35.0000 17.0522 29.0391 14.9811
416 10.0000 60.0000 40.0000 15.0620 24.7139 17.2854
417 15.0000 65.0000 45.0000 18.3061 29.5406 21.5855
418 10.0000 60.0000 50.0000 16.5126 25.2941 24.9261
419 15.0000 65.0000 55.0000 19.9615 30.2026 30.3045
420 10.0000 60.0000 60.0000 18.3802 26.0410 34.7631
421 15.0000 65.0000 65.0000 22.0485 31.0373 41.2972
422 10.0000 60.0000 70.0000 20.6935 26.9662 46.9473
423 15.0000 65.0000 75.0000 24.5946 32.0556 54.7073
424 10.0000 60.0000 80.0000 23.4785 28.0800 61.6163
425 15.0000 65.0000 85.0000 27.6246 33.2674 70.6668
426 10.0000 60.0000 90.0000 26.7594 29.3922 78.8969
427 15.0000 65.0000 95.0000 31.1619 34.6821 89.2982
428 10.0000 60.0000 100.000 30.5586 30.9116 98.9076
429 10.0000 70.0000 0.00000 17.2704 32.9288 6.30626
430 15.0000 75.0000 5.00000 20.3709 38.4357 7.57471
431 10.0000 70.0000 10.0000 17.4495 33.0004 7.24970
432 15.0000 75.0000 15.0000 20.6509 38.5477 9.04978
433 10.0000 70.0000 20.0000 17.8620 33.1654 9.42238
434 15.0000 75.0000 25.0000 21.2097 38.7712 11.9931
435 10.0000 70.0000 30.0000 18.5792 33.4523 13.2002
436 15.0000 75.0000 35.0000 22.0962 39.1257 16.6624
437 10.0000 70.0000 40.0000 19.6449 33.8785 18.8130
438 15.0000 75.0000 45.0000 23.3501 39.6272 23.2669
439 10.0000 70.0000 50.0000 21.0955 34.4586 26.4537
440 15.0000 75.0000 55.0000 25.0055 40.2893 31.9859
441 10.0000 70.0000 60.0000 22.9631 35.2056 36.2907
442 15.0000 75.0000 65.0000 27.0926 41.1239 42.9785
