dispcalGUI/ti1/d3-e4-s0-g9-m3-f0-crossover.ti1
CTI1   

ORIGINATOR "Argyll targen"
CREATED "Mon Feb 22 03:29:01 2010"
KEYWORD "COMP_GREY_STEPS"
COMP_GREY_STEPS "9"
KEYWORD "ERROR_OPTIMISED_PATCHES"
ERROR_OPTIMISED_PATCHES "0"
KEYWORD "APPROX_WHITE_POINT"
APPROX_WHITE_POINT "95.106486 100.000000 108.844025"
DESCRIPTOR "Argyll Calibration Target chart information 1"
KEYWORD "MULTI_DIM_STEPS"
MULTI_DIM_STEPS "3"
KEYWORD "WHITE_COLOR_PATCHES"
WHITE_COLOR_PATCHES "4"
KEYWORD "SINGLE_DIM_STEPS"
SINGLE_DIM_STEPS "0"
KEYWORD "COLOR_REP"
COLOR_REP "RGB"

NUMBER_OF_FIELDS 7
BEGIN_DATA_FORMAT
SAMPLE_ID RGB_R RGB_G RGB_B XYZ_X XYZ_Y XYZ_Z
END_DATA_FORMAT

NUMBER_OF_SETS 48
BEGIN_DATA
1 100.00 100.00 100.00 95.106 100.00 108.84
2 100.00 100.00 100.00 95.106 100.00 108.84
3 100.00 100.00 100.00 95.106 100.00 108.84
4 100.00 100.00 100.00 95.106 100.00 108.84
5 0.0000 0.0000 0.0000 1.0000 1.0000 1.0000
6 12.500 12.500 12.500 2.3504 2.4206 2.5475
7 25.000 25.000 25.000 5.7878 6.0367 6.4867
8 37.500 37.500 37.500 11.918 12.486 13.512
9 50.000 50.000 50.000 21.143 22.190 24.083
10 62.500 62.500 62.500 33.797 35.503 38.585
11 75.000 75.000 75.000 50.173 52.730 57.351
12 87.500 87.500 87.500 70.530 74.146 80.680
13 50.000 0.0000 0.0000 9.7393 5.5060 1.4095
14 100.00 0.0000 0.0000 41.830 22.052 2.9132
15 0.0000 50.000 0.0000 8.5782 16.154 3.5261
16 50.000 50.000 0.0000 17.318 20.660 3.9356
17 100.00 50.000 0.0000 49.408 37.206 5.4393
18 0.0000 100.00 0.0000 36.405 71.801 12.802
19 50.000 100.00 0.0000 45.145 76.307 13.211
20 100.00 100.00 0.0000 77.235 92.853 14.715
21 0.0000 0.0000 50.000 4.8252 2.5298 21.147
22 50.000 0.0000 50.000 13.564 7.0358 21.557
23 100.00 0.0000 50.000 45.655 23.582 23.061
24 0.0000 50.000 50.000 12.403 17.684 23.674
25 100.00 50.000 50.000 53.233 38.736 25.587
26 0.0000 100.00 50.000 40.230 73.330 32.949
27 50.000 100.00 50.000 48.970 77.836 33.359
28 100.00 100.00 50.000 81.061 94.383 34.863
29 0.0000 0.0000 100.00 18.871 8.1473 95.129
30 50.000 0.0000 100.00 27.610 12.653 95.538
31 100.00 0.0000 100.00 59.701 29.199 97.042
32 0.0000 50.000 100.00 26.449 23.302 97.655
33 50.000 50.000 100.00 35.189 27.808 98.065
34 100.00 50.000 100.00 67.279 44.354 99.568
35 0.0000 100.00 100.00 54.276 78.948 106.93
36 50.000 100.00 100.00 63.016 83.454 107.34
37 0.0000 12.549 100.00 19.382 9.1699 95.299
38 12.549 0.0000 100.00 19.461 8.4514 95.157
39 0.0000 100.00 12.549 36.663 71.904 14.161
40 12.549 100.00 0.0000 36.995 72.105 12.829
41 100.00 0.0000 12.549 42.088 22.155 4.2728
42 100.00 12.549 0.0000 42.342 23.075 3.0837
43 0.0000 25.098 100.00 20.686 11.777 95.734
44 25.098 0.0000 100.00 20.964 9.2266 95.227
45 0.0000 100.00 25.098 37.321 72.167 17.628
46 25.098 100.00 0.0000 38.499 72.880 12.900
47 100.00 0.0000 25.098 42.746 22.419 7.7392
48 100.00 25.098 0.0000 43.645 25.682 3.5183
END_DATA
CTI1   

ORIGINATOR "Argyll targen"
KEYWORD "DENSITY_EXTREME_VALUES"
DENSITY_EXTREME_VALUES "8"
CREATED "February 22, 2010"
DESCRIPTOR "Argyll Calibration Target chart information 1"

KEYWORD "INDEX"
NUMBER_OF_FIELDS 7
BEGIN_DATA_FORMAT
INDEX RGB_R RGB_G RGB_B XYZ_X XYZ_Y XYZ_Z
END_DATA_FORMAT

NUMBER_OF_SETS 8
BEGIN_DATA
0 100.00 100.00 100.00 95.106 100.00 108.84
1 0.0000 47.361 100.00 25.613 21.629 97.376
2 100.00 0.0000 79.351 52.426 26.290 58.722
3 0.0000 0.0000 58.997 6.4858 3.1940 29.894
4 100.00 66.659 0.0000 56.059 50.505 7.6561
5 0.0000 35.601 0.0000 4.6856 8.3702 2.2286
6 84.444 0.0000 0.0000 28.843 15.356 2.3047
7 0.0000 0.0000 0.0000 1.0000 1.0000 1.0000
END_DATA
CTI1   

ORIGINATOR "Argyll targen"
CREATED "February 22, 2010"
DESCRIPTOR "Argyll Calibration Target chart information 1"
KEYWORD "DEVICE_COMBINATION_VALUES"
DEVICE_COMBINATION_VALUES "9"

KEYWORD "INDEX"
NUMBER_OF_FIELDS 7
BEGIN_DATA_FORMAT
INDEX RGB_R RGB_G RGB_B XYZ_X XYZ_Y XYZ_Z
END_DATA_FORMAT

NUMBER_OF_SETS 9
BEGIN_DATA
0 100.00 100.00 100.00 95.106 100.00 108.84
1 0.0000 100.00 100.00 54.276 78.948 106.93
2 100.00 0.0000 100.00 59.701 29.199 97.042
3 0.0000 0.0000 100.00 18.871 8.1473 95.129
4 100.00 100.00 0.0000 77.235 92.853 14.715
5 0.0000 100.00 0.0000 36.405 71.801 12.802
6 100.00 0.0000 0.0000 41.830 22.052 2.9132
7 0.0000 0.0000 0.0000 1.0000 1.0000 1.0000
8 60.000 60.000 60.000 30.977 32.536 35.353
END_DATA