dispcalGUI/ti1/d3-e4-s0-g73-m0-f0-cubic9-crossover.ti1
CTI1   

ORIGINATOR "Argyll targen"
CREATED "Thu Oct 10 23:39:57 2013"
KEYWORD "COMP_GREY_STEPS"
COMP_GREY_STEPS "73"
KEYWORD "ERROR_OPTIMISED_PATCHES"
ERROR_OPTIMISED_PATCHES "0"
KEYWORD "APPROX_WHITE_POINT"
APPROX_WHITE_POINT "95.106486 100.000000 108.844025"
DESCRIPTOR "Argyll Calibration Target chart information 1"
KEYWORD "MULTI_DIM_BCC_STEPS"
MULTI_DIM_BCC_STEPS "10"
KEYWORD "WHITE_COLOR_PATCHES"
WHITE_COLOR_PATCHES "4"
KEYWORD "SINGLE_DIM_STEPS"
SINGLE_DIM_STEPS "0"
KEYWORD "COLOR_REP"
COLOR_REP "RGB"

NUMBER_OF_FIELDS 7
BEGIN_DATA_FORMAT
SAMPLE_ID RGB_R RGB_G RGB_B XYZ_X XYZ_Y XYZ_Z
END_DATA_FORMAT

NUMBER_OF_SETS 1798
BEGIN_DATA
1 100.00 100.00 100.00 95.106 100.00 108.84
2 100.00 100.00 100.00 95.106 100.00 108.84
3 100.00 100.00 100.00 95.106 100.00 108.84
4 100.00 100.00 100.00 95.106 100.00 108.84
5 0.0000 0.0000 0.0000 1.0000 1.0000 1.0000
6 1.3889 1.3889 1.3889 1.1012 1.1064 1.1159
7 2.7778 2.7778 2.7778 1.2023 1.2128 1.2319
8 4.1667 4.1667 4.1667 1.3037 1.3195 1.3481
9 5.5556 5.5556 5.5556 1.4192 1.4410 1.4804
10 6.9444 6.9444 6.9444 1.5569 1.5858 1.6382
11 8.3333 8.3333 8.3333 1.7179 1.7552 1.8226
12 9.7222 9.7222 9.7222 1.9032 1.9501 2.0350
13 11.111 11.111 11.111 2.1137 2.1716 2.2763
14 12.500 12.500 12.500 2.3504 2.4206 2.5475
15 13.889 13.889 13.889 2.6141 2.6981 2.8498
16 15.278 15.278 15.278 2.9057 3.0048 3.1839
17 16.667 16.667 16.667 3.2258 3.3416 3.5508
18 18.056 18.056 18.056 3.5754 3.7093 3.9513
19 19.444 19.444 19.444 3.9550 4.1086 4.3863
20 20.833 20.833 20.833 4.3653 4.5403 4.8566
21 22.222 22.222 22.222 4.8072 5.0051 5.3629
22 23.611 23.611 23.611 5.2811 5.5037 5.9060
23 25.000 25.000 25.000 5.7878 6.0367 6.4867
24 26.389 26.389 26.389 6.3278 6.6048 7.1055
25 27.778 27.778 27.778 6.9018 7.2087 7.7633
26 29.167 29.167 29.167 7.5103 7.8489 8.4607
27 30.556 30.556 30.556 8.1540 8.5260 9.1983
28 31.944 31.944 31.944 8.8333 9.2406 9.9768
29 33.333 33.333 33.333 9.5488 9.9933 10.797
30 34.722 34.722 34.722 10.301 10.785 11.659
31 36.111 36.111 36.111 11.091 11.615 12.564
32 37.500 37.500 37.500 11.918 12.486 13.512
33 38.889 38.889 38.889 12.783 13.396 14.504
34 40.278 40.278 40.278 13.688 14.348 15.540
35 41.667 41.667 41.667 14.631 15.340 16.621
36 43.056 43.056 43.056 15.615 16.375 17.748
37 44.444 44.444 44.444 16.638 17.451 18.921
38 45.833 45.833 45.833 17.702 18.571 20.140
39 47.222 47.222 47.222 18.807 19.733 21.407
40 48.611 48.611 48.611 19.954 20.940 22.721
41 50.000 50.000 50.000 21.143 22.190 24.083
42 51.389 51.389 51.389 22.374 23.485 25.494
43 52.778 52.778 52.778 23.648 24.825 26.954
44 54.167 54.167 54.167 24.965 26.211 28.463
45 55.556 55.556 55.556 26.325 27.642 30.022
46 56.944 56.944 56.944 27.730 29.120 31.632
47 58.333 58.333 58.333 29.179 30.644 33.293
48 59.722 59.722 59.722 30.673 32.216 35.005
49 61.111 61.111 61.111 32.212 33.835 36.769
50 62.500 62.500 62.500 33.797 35.503 38.585
51 63.889 63.889 63.889 35.428 37.218 40.454
52 65.278 65.278 65.278 37.105 38.982 42.375
53 66.667 66.667 66.667 38.829 40.796 44.351
54 68.056 68.056 68.056 40.600 42.659 46.380
55 69.444 69.444 69.444 42.418 44.572 48.464
56 70.833 70.833 70.833 44.284 46.535 50.603
57 72.222 72.222 72.222 46.198 48.549 52.796
58 73.611 73.611 73.611 48.161 50.613 55.046
59 75.000 75.000 75.000 50.173 52.730 57.351
60 76.389 76.389 76.389 52.233 54.898 59.712
61 77.778 77.778 77.778 54.344 57.118 62.131
62 79.167 79.167 79.167 56.504 59.390 64.606
63 80.556 80.556 80.556 58.714 61.715 67.139
64 81.944 81.944 81.944 60.975 64.094 69.730
65 83.333 83.333 83.333 63.287 66.526 72.379
66 84.722 84.722 84.722 65.650 69.011 75.087
67 86.111 86.111 86.111 68.064 71.551 77.854
68 87.500 87.500 87.500 70.530 74.146 80.680
69 88.889 88.889 88.889 73.048 76.795 83.566
70 90.278 90.278 90.278 75.619 79.499 86.512
71 91.667 91.667 91.667 78.242 82.259 89.518
72 93.056 93.056 93.056 80.919 85.074 92.585
73 94.444 94.444 94.444 83.648 87.946 95.713
74 95.833 95.833 95.833 86.432 90.874 98.903
75 97.222 97.222 97.222 89.269 93.859 102.15
76 98.611 98.611 98.611 92.160 96.901 105.47
77 0.0000 0.0000 11.111 1.2115 1.0846 2.1140
78 0.0000 0.0000 22.222 1.7230 1.2892 4.8081
79 0.0000 0.0000 33.333 2.6234 1.6493 9.5508
80 0.0000 0.0000 44.444 3.9697 2.1877 16.642
81 0.0000 0.0000 55.556 5.8093 2.9234 26.331
82 0.0000 0.0000 66.667 8.1838 3.8731 38.838
83 0.0000 0.0000 77.778 11.130 5.0514 54.356
84 0.0000 0.0000 88.889 14.682 6.4720 73.066
85 0.0000 0.0000 100.00 18.871 8.1473 95.129
86 0.0000 11.111 0.0000 1.4190 1.8379 1.1397
87 0.0000 11.111 11.111 1.6305 1.9225 2.2536
88 0.0000 11.111 22.222 2.1420 2.1270 4.9477
89 0.0000 11.111 33.333 3.0424 2.4872 9.6905
90 0.0000 11.111 44.444 4.3887 3.0256 16.781
91 0.0000 11.111 55.556 6.2283 3.7613 26.471
92 0.0000 11.111 66.667 8.6028 4.7110 38.977
93 0.0000 11.111 77.778 11.549 5.8893 54.496
94 0.0000 11.111 88.889 15.101 7.3099 73.205
95 0.0000 11.111 100.00 19.290 8.9852 95.269
96 0.0000 22.222 0.0000 2.4323 3.8643 1.4775
97 0.0000 22.222 11.111 2.6438 3.9489 2.5914
98 0.0000 22.222 22.222 3.1553 4.1534 5.2855
99 0.0000 22.222 33.333 4.0558 4.5136 10.028
100 0.0000 22.222 44.444 5.4021 5.0520 17.119
101 0.0000 22.222 55.556 7.2417 5.7877 26.809
102 0.0000 22.222 66.667 9.6161 6.7374 39.315
103 0.0000 22.222 77.778 12.562 7.9157 54.834
104 0.0000 22.222 88.889 16.115 9.3363 73.543
105 0.0000 22.222 100.00 20.303 11.012 95.606
106 0.0000 33.333 0.0000 4.2163 7.4316 2.0721
107 0.0000 33.333 11.111 4.4278 7.5162 3.1861
108 0.0000 33.333 22.222 4.9393 7.7208 5.8802
109 0.0000 33.333 33.333 5.8397 8.0809 10.623
110 0.0000 33.333 44.444 7.1860 8.6193 17.714
111 0.0000 33.333 55.556 9.0256 9.3551 27.403
112 0.0000 33.333 66.667 11.400 10.305 39.910
113 0.0000 33.333 77.778 14.346 11.483 55.429
114 0.0000 33.333 88.889 17.898 12.904 74.138
115 0.0000 33.333 100.00 22.087 14.579 96.201
116 0.0000 44.444 0.0000 6.8834 12.765 2.9612
117 0.0000 44.444 11.111 7.0949 12.850 4.0751
118 0.0000 44.444 22.222 7.6064 13.054 6.7692
119 0.0000 44.444 33.333 8.5069 13.414 11.512
120 0.0000 44.444 44.444 9.8531 13.953 18.603
121 0.0000 44.444 55.556 11.693 14.689 28.292
122 0.0000 44.444 66.667 14.067 15.638 40.799
123 0.0000 44.444 77.778 17.014 16.817 56.318
124 0.0000 44.444 88.889 20.566 18.237 75.027
125 0.0000 44.444 100.00 24.755 19.913 97.090
126 0.0000 55.556 0.0000 10.528 20.053 4.1760
127 0.0000 55.556 11.111 10.739 20.138 5.2900
128 0.0000 55.556 22.222 11.251 20.342 7.9841
129 0.0000 55.556 33.333 12.151 20.703 12.727
130 0.0000 55.556 44.444 13.498 21.241 19.818
131 0.0000 55.556 55.556 15.337 21.977 29.507
132 0.0000 55.556 66.667 17.712 22.926 42.014
133 0.0000 55.556 77.778 20.658 24.105 57.533
134 0.0000 55.556 88.889 24.210 25.525 76.242
135 0.0000 55.556 100.00 28.399 27.201 98.305
136 0.0000 66.667 0.0000 15.232 29.460 5.7441
137 0.0000 66.667 11.111 15.444 29.545 6.8580
138 0.0000 66.667 22.222 15.955 29.749 9.5521
139 0.0000 66.667 33.333 16.856 30.110 14.295
140 0.0000 66.667 44.444 18.202 30.648 21.386
141 0.0000 66.667 55.556 20.041 31.384 31.075
142 0.0000 66.667 66.667 22.416 32.333 43.582
143 0.0000 66.667 77.778 25.362 33.512 59.101
144 0.0000 66.667 88.889 28.914 34.932 77.810
145 0.0000 66.667 100.00 33.103 36.608 99.873
146 0.0000 77.778 0.0000 21.069 41.133 7.6898
147 0.0000 77.778 11.111 21.281 41.217 8.8038
148 0.0000 77.778 22.222 21.792 41.422 11.498
149 0.0000 77.778 33.333 22.693 41.782 16.241
150 0.0000 77.778 44.444 24.039 42.321 23.332
151 0.0000 77.778 55.556 25.879 43.056 33.021
152 0.0000 77.778 66.667 28.253 44.006 45.528
153 0.0000 77.778 77.778 31.199 45.184 61.046
154 0.0000 77.778 88.889 34.751 46.605 79.755
155 0.0000 77.778 100.00 38.940 48.280 101.82
156 0.0000 88.889 0.0000 28.106 55.205 10.036
157 0.0000 88.889 11.111 28.318 55.290 11.150
158 0.0000 88.889 22.222 28.829 55.494 13.844
159 0.0000 88.889 33.333 29.730 55.854 18.586
160 0.0000 88.889 44.444 31.076 56.393 25.677
161 0.0000 88.889 55.556 32.916 57.129 35.367
162 0.0000 88.889 66.667 35.290 58.078 47.873
163 0.0000 88.889 77.778 38.237 59.257 63.392
164 0.0000 88.889 88.889 41.789 60.677 82.101
165 0.0000 88.889 100.00 45.977 62.352 104.16
166 0.0000 100.00 0.0000 36.405 71.801 12.802
167 0.0000 100.00 11.111 36.617 71.885 13.916
168 0.0000 100.00 22.222 37.128 72.090 16.610
169 0.0000 100.00 33.333 38.029 72.450 21.353
170 0.0000 100.00 44.444 39.375 72.988 28.444
171 0.0000 100.00 55.556 41.215 73.724 38.133
172 0.0000 100.00 66.667 43.589 74.674 50.640
173 0.0000 100.00 77.778 46.535 75.852 66.158
174 0.0000 100.00 88.889 50.087 77.273 84.867
175 0.0000 100.00 100.00 54.276 78.948 106.93
176 5.5556 5.5556 16.667 1.7623 1.5782 3.2875
177 5.5556 5.5556 27.778 2.4604 1.8574 6.9643
178 5.5556 5.5556 38.889 3.5773 2.3041 12.847
179 5.5556 5.5556 50.000 5.1647 2.9390 21.209
180 5.5556 5.5556 61.111 7.2669 3.7797 32.281
181 5.5556 5.5556 72.222 9.9229 4.8419 46.270
182 5.5556 5.5556 83.333 13.168 6.1398 63.363
183 5.5556 5.5556 94.444 17.035 7.6862 83.729
184 5.5556 16.667 5.5556 2.0989 2.8002 1.7070
185 5.5556 16.667 16.667 2.4420 2.9374 3.5140
186 5.5556 16.667 27.778 3.1401 3.2166 7.1909
187 5.5556 16.667 38.889 4.2570 3.6633 13.074
188 5.5556 16.667 50.000 5.8444 4.2982 21.435
189 5.5556 16.667 61.111 7.9466 5.1389 32.507
190 5.5556 16.667 72.222 10.603 6.2012 46.497
191 5.5556 16.667 83.333 13.848 7.4990 63.589
192 5.5556 16.667 94.444 17.714 9.0455 83.956
193 5.5556 27.778 5.5556 3.4819 5.5658 2.1679
194 5.5556 27.778 16.667 3.8250 5.7030 3.9750
195 5.5556 27.778 27.778 4.5230 5.9822 7.6519
196 5.5556 27.778 38.889 5.6400 6.4289 13.535
197 5.5556 27.778 50.000 7.2274 7.0638 21.896
198 5.5556 27.778 61.111 9.3296 7.9045 32.968
199 5.5556 27.778 72.222 11.986 8.9667 46.958
200 5.5556 27.778 83.333 15.231 10.265 64.050
201 5.5556 27.778 94.444 19.097 11.811 84.417
202 5.5556 38.889 5.5556 5.6947 9.9908 2.9056
203 5.5556 38.889 16.667 6.0378 10.128 4.7127
204 5.5556 38.889 27.778 6.7359 10.407 8.3895
205 5.5556 38.889 38.889 7.8528 10.854 14.273
206 5.5556 38.889 50.000 9.4402 11.489 22.634
207 5.5556 38.889 61.111 11.542 12.330 33.706
208 5.5556 38.889 72.222 14.198 13.392 47.695
209 5.5556 38.889 83.333 17.444 14.690 64.788
210 5.5556 38.889 94.444 21.310 16.236 85.154
211 5.5556 50.000 5.5556 8.8396 16.280 3.9539
212 5.5556 50.000 16.667 9.1827 16.417 5.7610
213 5.5556 50.000 27.778 9.8808 16.696 9.4378
214 5.5556 50.000 38.889 10.998 17.143 15.321
215 5.5556 50.000 50.000 12.585 17.778 23.682
216 5.5556 50.000 61.111 14.687 18.619 34.754
217 5.5556 50.000 72.222 17.343 19.681 48.744
218 5.5556 50.000 83.333 20.588 20.979 65.836
219 5.5556 50.000 94.444 24.455 22.525 86.203
220 5.5556 61.111 5.5556 13.004 24.608 5.3421
221 5.5556 61.111 16.667 13.347 24.745 7.1492
222 5.5556 61.111 27.778 14.045 25.024 10.826
223 5.5556 61.111 38.889 15.162 25.471 16.709
224 5.5556 61.111 50.000 16.750 26.106 25.070
225 5.5556 61.111 61.111 18.852 26.947 36.143
226 5.5556 61.111 72.222 21.508 28.009 50.132
227 5.5556 61.111 83.333 24.753 29.307 67.225
228 5.5556 61.111 94.444 28.620 30.853 87.591
229 5.5556 72.222 5.5556 18.266 35.130 7.0961
230 5.5556 72.222 16.667 18.609 35.268 8.9032
231 5.5556 72.222 27.778 19.307 35.547 12.580
232 5.5556 72.222 38.889 20.424 35.993 18.463
233 5.5556 72.222 50.000 22.012 36.628 26.824
234 5.5556 72.222 61.111 24.114 37.469 37.897
235 5.5556 72.222 72.222 26.770 38.531 51.886
236 5.5556 72.222 83.333 30.015 39.829 68.978
237 5.5556 72.222 94.444 33.882 41.376 89.345
238 5.5556 83.333 5.5556 24.695 47.987 9.2392
239 5.5556 83.333 16.667 25.038 48.124 11.046
240 5.5556 83.333 27.778 25.736 48.403 14.723
241 5.5556 83.333 38.889 26.853 48.850 20.606
242 5.5556 83.333 50.000 28.441 49.485 28.967
243 5.5556 83.333 61.111 30.543 50.325 40.040
244 5.5556 83.333 72.222 33.199 51.388 54.029
245 5.5556 83.333 83.333 36.444 52.686 71.122
246 5.5556 83.333 94.444 40.311 54.232 91.488
247 5.5556 94.444 5.5556 32.356 63.306 11.793
248 5.5556 94.444 16.667 32.699 63.443 13.600
249 5.5556 94.444 27.778 33.397 63.722 17.277
250 5.5556 94.444 38.889 34.514 64.169 23.160
251 5.5556 94.444 50.000 36.101 64.804 31.521
252 5.5556 94.444 61.111 38.204 65.644 42.593
253 5.5556 94.444 72.222 40.860 66.707 56.583
254 5.5556 94.444 83.333 44.105 68.004 73.675
255 5.5556 94.444 94.444 47.971 69.551 94.042
256 11.111 0.0000 0.0000 1.4832 1.2491 1.0226
257 11.111 0.0000 11.111 1.6947 1.3337 2.1366
258 11.111 0.0000 22.222 2.2062 1.5383 4.8307
259 11.111 0.0000 33.333 3.1066 1.8984 9.5735
260 11.111 0.0000 44.444 4.4529 2.4368 16.664
261 11.111 0.0000 55.556 6.2926 3.1726 26.354
262 11.111 0.0000 66.667 8.6670 4.1222 38.860
263 11.111 0.0000 77.778 11.613 5.3006 54.379
264 11.111 0.0000 88.889 15.165 6.7212 73.088
265 11.111 0.0000 100.00 19.354 8.3965 95.152
266 11.111 11.111 0.0000 1.9022 2.0870 1.1623
267 11.111 11.111 22.222 2.6252 2.3762 4.9704
268 11.111 11.111 33.333 3.5257 2.7363 9.7131
269 11.111 11.111 44.444 4.8719 3.2747 16.804
270 11.111 11.111 55.556 6.7116 4.0105 26.494
271 11.111 11.111 66.667 9.0860 4.9601 39.000
272 11.111 11.111 77.778 12.032 6.1384 54.519
273 11.111 11.111 88.889 15.584 7.5590 73.228
274 11.111 11.111 100.00 19.773 9.2343 95.291
275 11.111 22.222 0.0000 2.9156 4.1134 1.5001
276 11.111 22.222 11.111 3.1270 4.1980 2.6141
277 11.111 22.222 22.222 3.6385 4.4026 5.3082
278 11.111 22.222 33.333 4.5390 4.7627 10.051
279 11.111 22.222 44.444 5.8853 5.3011 17.142
280 11.111 22.222 55.556 7.7249 6.0369 26.831
281 11.111 22.222 66.667 10.099 6.9865 39.338
282 11.111 22.222 77.778 13.046 8.1649 54.857
283 11.111 22.222 88.889 16.598 9.5855 73.566
284 11.111 22.222 100.00 20.787 11.261 95.629
285 11.111 33.333 0.0000 4.6995 7.6808 2.0947
286 11.111 33.333 11.111 4.9110 7.7654 3.2087
287 11.111 33.333 22.222 5.4225 7.9699 5.9028
288 11.111 33.333 33.333 6.3229 8.3301 10.646
289 11.111 33.333 44.444 7.6692 8.8685 17.737
290 11.111 33.333 55.556 9.5088 9.6042 27.426
291 11.111 33.333 66.667 11.883 10.554 39.932
292 11.111 33.333 77.778 14.830 11.732 55.451
293 11.111 33.333 88.889 18.382 13.153 74.160
294 11.111 33.333 100.00 22.571 14.828 96.224
295 11.111 44.444 0.0000 7.3666 13.014 2.9838
296 11.111 44.444 11.111 7.5781 13.099 4.0978
297 11.111 44.444 22.222 8.0896 13.304 6.7919
298 11.111 44.444 33.333 8.9901 13.664 11.535
299 11.111 44.444 44.444 10.336 14.202 18.626
300 11.111 44.444 55.556 12.176 14.938 28.315
301 11.111 44.444 66.667 14.550 15.887 40.822
302 11.111 44.444 77.778 17.497 17.066 56.340
303 11.111 44.444 88.889 21.049 18.486 75.049
304 11.111 44.444 100.00 25.238 20.162 97.113
305 11.111 55.556 0.0000 11.011 20.302 4.1987
306 11.111 55.556 11.111 11.223 20.387 5.3126
307 11.111 55.556 22.222 11.734 20.592 8.0067
308 11.111 55.556 33.333 12.635 20.952 12.750
309 11.111 55.556 44.444 13.981 21.490 19.840
310 11.111 55.556 55.556 15.821 22.226 29.530
311 11.111 55.556 66.667 18.195 23.176 42.036
312 11.111 55.556 77.778 21.141 24.354 57.555
313 11.111 55.556 88.889 24.693 25.774 76.264
314 11.111 55.556 100.00 28.882 27.450 98.328
315 11.111 66.667 0.0000 15.715 29.709 5.7667
316 11.111 66.667 11.111 15.927 29.794 6.8807
317 11.111 66.667 22.222 16.438 29.999 9.5748
318 11.111 66.667 33.333 17.339 30.359 14.318
319 11.111 66.667 44.444 18.685 30.897 21.409
320 11.111 66.667 55.556 20.525 31.633 31.098
321 11.111 66.667 66.667 22.899 32.582 43.604
322 11.111 66.667 77.778 25.845 33.761 59.123
323 11.111 66.667 88.889 29.398 35.181 77.832
324 11.111 66.667 100.00 33.586 36.857 99.896
325 11.111 77.778 0.0000 21.552 41.382 7.7124
326 11.111 77.778 11.111 21.764 41.467 8.8264
327 11.111 77.778 22.222 22.275 41.671 11.521
328 11.111 77.778 33.333 23.176 42.031 16.263
329 11.111 77.778 44.444 24.522 42.570 23.354
330 11.111 77.778 55.556 26.362 43.305 33.044
331 11.111 77.778 66.667 28.736 44.255 45.550
332 11.111 77.778 77.778 31.683 45.433 61.069
333 11.111 77.778 88.889 35.235 46.854 79.778
334 11.111 77.778 100.00 39.424 48.529 101.84
335 11.111 88.889 0.0000 28.590 55.454 10.058
336 11.111 88.889 11.111 28.801 55.539 11.172
337 11.111 88.889 22.222 29.313 55.743 13.866
338 11.111 88.889 33.333 30.213 56.104 18.609
339 11.111 88.889 44.444 31.559 56.642 25.700
340 11.111 88.889 55.556 33.399 57.378 35.389
341 11.111 88.889 66.667 35.773 58.327 47.896
342 11.111 88.889 77.778 38.720 59.506 63.415
343 11.111 88.889 88.889 42.272 60.926 82.124
344 11.111 88.889 100.00 46.461 62.602 104.19
345 11.111 100.00 0.0000 36.888 72.050 12.824
346 11.111 100.00 11.111 37.100 72.134 13.938
347 11.111 100.00 22.222 37.611 72.339 16.633
348 11.111 100.00 33.333 38.512 72.699 21.375
349 11.111 100.00 44.444 39.858 73.237 28.466
350 11.111 100.00 55.556 41.698 73.973 38.156
351 11.111 100.00 66.667 44.072 74.923 50.662
352 11.111 100.00 77.778 47.019 76.101 66.181
353 11.111 100.00 88.889 50.571 77.522 84.890
354 11.111 100.00 100.00 54.760 79.197 106.95
355 16.667 5.5556 5.5556 2.2030 1.8451 1.5171
356 16.667 5.5556 16.667 2.5461 1.9824 3.3242
357 16.667 5.5556 27.778 3.2442 2.2615 7.0010
358 16.667 5.5556 38.889 4.3611 2.7082 12.884
359 16.667 5.5556 50.000 5.9486 3.3431 21.245
360 16.667 5.5556 61.111 8.0507 4.1839 32.318
361 16.667 5.5556 72.222 10.707 5.2461 46.307
362 16.667 5.5556 83.333 13.952 6.5439 63.399
363 16.667 5.5556 94.444 17.819 8.0904 83.766
364 16.667 16.667 5.5556 2.8828 3.2044 1.7437
365 16.667 16.667 27.778 3.9239 3.6208 7.2276
366 16.667 16.667 38.889 5.0409 4.0675 13.111
367 16.667 16.667 50.000 6.6283 4.7024 21.472
368 16.667 16.667 61.111 8.7305 5.5431 32.544
369 16.667 16.667 72.222 11.386 6.6053 46.533
370 16.667 16.667 83.333 14.632 7.9032 63.626
371 16.667 16.667 94.444 18.498 9.4496 83.993
372 16.667 27.778 5.5556 4.2657 5.9700 2.2047
373 16.667 27.778 16.667 4.6088 6.1072 4.0118
374 16.667 27.778 27.778 5.3069 6.3864 7.6886
375 16.667 27.778 38.889 6.4238 6.8331 13.572
376 16.667 27.778 50.000 8.0113 7.4679 21.933
377 16.667 27.778 61.111 10.113 8.3087 33.005
378 16.667 27.778 72.222 12.769 9.3709 46.994
379 16.667 27.778 83.333 16.015 10.669 64.087
380 16.667 27.778 94.444 19.881 12.215 84.454
381 16.667 38.889 5.5556 6.4786 10.395 2.9423
382 16.667 38.889 16.667 6.8216 10.532 4.7494
383 16.667 38.889 27.778 7.5197 10.811 8.4262
384 16.667 38.889 38.889 8.6367 11.258 14.309
385 16.667 38.889 50.000 10.224 11.893 22.670
386 16.667 38.889 61.111 12.326 12.734 33.743
387 16.667 38.889 72.222 14.982 13.796 47.732
388 16.667 38.889 83.333 18.227 15.094 64.825
389 16.667 38.889 94.444 22.094 16.640 85.191
390 16.667 50.000 5.5556 9.6235 16.684 3.9906
391 16.667 50.000 16.667 9.9666 16.821 5.7977
392 16.667 50.000 27.778 10.665 17.100 9.4745
393 16.667 50.000 38.889 11.782 17.547 15.358
394 16.667 50.000 50.000 13.369 18.182 23.719
395 16.667 50.000 61.111 15.471 19.023 34.791
396 16.667 50.000 72.222 18.127 20.085 48.780
397 16.667 50.000 83.333 21.372 21.383 65.873
398 16.667 50.000 94.444 25.239 22.929 86.239
399 16.667 61.111 5.5556 13.788 25.012 5.3789
400 16.667 61.111 16.667 14.131 25.149 7.1859
401 16.667 61.111 27.778 14.829 25.429 10.863
402 16.667 61.111 38.889 15.946 25.875 16.746
403 16.667 61.111 50.000 17.534 26.510 25.107
404 16.667 61.111 61.111 19.636 27.351 36.179
405 16.667 61.111 72.222 22.292 28.413 50.169
406 16.667 61.111 83.333 25.537 29.711 67.261
407 16.667 61.111 94.444 29.404 31.257 87.628
408 16.667 72.222 5.5556 19.050 35.534 7.1328
409 16.667 72.222 16.667 19.393 35.672 8.9399
410 16.667 72.222 27.778 20.091 35.951 12.617
411 16.667 72.222 38.889 21.208 36.398 18.500
412 16.667 72.222 50.000 22.796 37.032 26.861
413 16.667 72.222 61.111 24.898 37.873 37.933
414 16.667 72.222 72.222 27.554 38.935 51.923
415 16.667 72.222 83.333 30.799 40.233 69.015
416 16.667 72.222 94.444 34.666 41.780 89.382
417 16.667 83.333 5.5556 25.479 48.391 9.2759
418 16.667 83.333 16.667 25.822 48.528 11.083
419 16.667 83.333 27.778 26.520 48.807 14.760
420 16.667 83.333 38.889 27.637 49.254 20.643
421 16.667 83.333 50.000 29.225 49.889 29.004
422 16.667 83.333 61.111 31.327 50.730 40.076
423 16.667 83.333 72.222 33.983 51.792 54.066
424 16.667 83.333 83.333 37.228 53.090 71.158
425 16.667 83.333 94.444 41.095 54.636 91.525
426 16.667 94.444 5.5556 33.140 63.710 11.829
427 16.667 94.444 16.667 33.483 63.847 13.637
428 16.667 94.444 27.778 34.181 64.126 17.313
429 16.667 94.444 38.889 35.298 64.573 23.196
430 16.667 94.444 50.000 36.885 65.208 31.558
431 16.667 94.444 61.111 38.987 66.049 42.630
432 16.667 94.444 72.222 41.643 67.111 56.619
433 16.667 94.444 83.333 44.889 68.409 73.712
434 16.667 94.444 94.444 48.755 69.955 94.078
435 22.222 0.0000 0.0000 2.6518 1.8517 1.0774
436 22.222 0.0000 11.111 2.8633 1.9363 2.1914
437 22.222 0.0000 22.222 3.3748 2.1408 4.8855
438 22.222 0.0000 33.333 4.2753 2.5010 9.6282
439 22.222 0.0000 44.444 5.6215 3.0394 16.719
440 22.222 0.0000 55.556 7.4612 3.7751 26.409
441 22.222 0.0000 66.667 9.8356 4.7247 38.915
442 22.222 0.0000 77.778 12.782 5.9031 54.434
443 22.222 0.0000 88.889 16.334 7.3237 73.143
444 22.222 0.0000 100.00 20.523 8.9990 95.206
445 22.222 11.111 0.0000 3.0708 2.6896 1.2171
446 22.222 11.111 11.111 3.2823 2.7742 2.3310
447 22.222 11.111 22.222 3.7938 2.9787 5.0251
448 22.222 11.111 33.333 4.6943 3.3388 9.7679
449 22.222 11.111 44.444 6.0405 3.8773 16.859
450 22.222 11.111 55.556 7.8802 4.6130 26.548
451 22.222 11.111 66.667 10.255 5.5626 39.055
452 22.222 11.111 77.778 13.201 6.7410 54.574
453 22.222 11.111 88.889 16.753 8.1616 73.283
454 22.222 11.111 100.00 20.942 9.8369 95.346
455 22.222 22.222 0.0000 4.0842 4.7160 1.5549
456 22.222 22.222 11.111 4.2957 4.8006 2.6688
457 22.222 22.222 33.333 5.7076 5.3653 10.106
458 22.222 22.222 44.444 7.0539 5.9037 17.197
459 22.222 22.222 55.556 8.8935 6.6394 26.886
460 22.222 22.222 66.667 11.268 7.5890 39.393
461 22.222 22.222 77.778 14.214 8.7674 54.911
462 22.222 22.222 88.889 17.766 10.188 73.620
463 22.222 22.222 100.00 21.955 11.863 95.684
464 22.222 33.333 0.0000 5.8681 8.2833 2.1495
465 22.222 33.333 11.111 6.0796 8.3679 3.2635
466 22.222 33.333 22.222 6.5911 8.5725 5.9576
467 22.222 33.333 33.333 7.4915 8.9326 10.700
468 22.222 33.333 44.444 8.8378 9.4710 17.791
469 22.222 33.333 55.556 10.677 10.207 27.481
470 22.222 33.333 66.667 13.052 11.156 39.987
471 22.222 33.333 77.778 15.998 12.335 55.506
472 22.222 33.333 88.889 19.550 13.755 74.215
473 22.222 33.333 100.00 23.739 15.431 96.278
474 22.222 44.444 0.0000 8.5352 13.617 3.0386
475 22.222 44.444 11.111 8.7467 13.701 4.1525
476 22.222 44.444 22.222 9.2582 13.906 6.8466
477 22.222 44.444 33.333 10.159 14.266 11.589
478 22.222 44.444 44.444 11.505 14.805 18.680
479 22.222 44.444 55.556 13.345 15.540 28.370
480 22.222 44.444 66.667 15.719 16.490 40.876
481 22.222 44.444 77.778 18.665 17.668 56.395
482 22.222 44.444 88.889 22.217 19.089 75.104
483 22.222 44.444 100.00 26.406 20.764 97.168
484 22.222 55.556 0.0000 12.180 20.905 4.2534
485 22.222 55.556 11.111 12.391 20.990 5.3674
486 22.222 55.556 22.222 12.903 21.194 8.0615
487 22.222 55.556 33.333 13.803 21.554 12.804
488 22.222 55.556 44.444 15.150 22.093 19.895
489 22.222 55.556 55.556 16.989 22.828 29.585
490 22.222 55.556 66.667 19.364 23.778 42.091
491 22.222 55.556 77.778 22.310 24.956 57.610
492 22.222 55.556 88.889 25.862 26.377 76.319
493 22.222 55.556 100.00 30.051 28.052 98.382
494 22.222 66.667 0.0000 16.884 30.312 5.8215
495 22.222 66.667 11.111 17.095 30.397 6.9354
496 22.222 66.667 22.222 17.607 30.601 9.6295
497 22.222 66.667 33.333 18.507 30.961 14.372
498 22.222 66.667 44.444 19.854 31.500 21.463
