dispcalGUI/ti1/d3-e4-s33-g97-m0-f1399-ceRGBv2.ti1
CTI1   

ORIGINATOR "Argyll targen"
KEYWORD "OFPS_PATCHES"
OFPS_PATCHES "1200"
CREATED "Sat Oct 19 13:06:35 2013"
KEYWORD "COMP_GREY_STEPS"
COMP_GREY_STEPS "97"
KEYWORD "BLACK_COLOR_PATCHES"
BLACK_COLOR_PATCHES "4"
KEYWORD "APPROX_WHITE_POINT"
APPROX_WHITE_POINT "96.415999 99.996948 82.488027"
DESCRIPTOR "Argyll Calibration Target chart information 1"
KEYWORD "ACCURATE_EXPECTED_VALUES"
ACCURATE_EXPECTED_VALUES "true"
KEYWORD "WHITE_COLOR_PATCHES"
WHITE_COLOR_PATCHES "4"
KEYWORD "SINGLE_DIM_STEPS"
SINGLE_DIM_STEPS "33"
KEYWORD "COLOR_REP"
COLOR_REP "RGB"

NUMBER_OF_FIELDS 7
BEGIN_DATA_FORMAT
SAMPLE_ID RGB_R RGB_G RGB_B XYZ_X XYZ_Y XYZ_Z
END_DATA_FORMAT

NUMBER_OF_SETS 1399
BEGIN_DATA
1 100.00000 100.00000 100.00000 96.416000 99.996900 82.488000
2 55.889900 53.359800 41.347400 20.925300 21.431600 10.597300
3 63.519700 62.162700 51.099400 29.024000 30.239100 16.727700
4 72.618400 73.553400 57.566600 40.649400 43.962100 22.432100
5 52.587400 52.329800 100.00000 30.667300 26.689000 77.090500
6 64.811300 52.183700 100.00000 39.187900 30.818500 77.081700
7 66.744800 73.657600 100.00000 45.409300 47.186900 78.836300
8 83.181200 90.623100 100.00000 68.057100 74.536500 80.972300
9 65.005400 76.483900 84.020500 39.877200 46.395500 51.968000
10 75.007600 82.728200 100.00000 55.965600 60.348900 79.886500
11 84.682000 83.504400 100.00000 67.341400 66.705600 79.985900
12 92.396700 93.624200 100.00000 81.672400 84.711200 81.429700
13 28.152700 30.965300 0.0000000 4.7676000 5.7622400 0.4502730
14 29.607100 38.927200 0.0000000 5.8420900 8.3381800 0.7202100
15 32.804800 48.746600 0.0000000 7.9390400 12.855100 1.1797200
16 48.981400 59.785200 0.0000000 16.395400 22.419000 1.8917700
17 70.359300 100.00000 19.309100 45.019300 73.641600 8.9187800
18 82.763000 100.00000 21.303100 58.388500 80.231700 9.3020300
19 0.0000000 9.3750000 0.0000000 0.1864620 0.6304730 0.0710392
20 0.0000000 0.0000000 0.0000000 0.0000000 0.0000000 0.0000000
21 4.1666700 4.1666700 4.1666700 0.4448580 0.4613810 0.3805950
22 1.0416700 1.0416700 1.0416700 0.1112150 0.1153450 0.0951488
23 2.0833300 2.0833300 2.0833300 0.2224290 0.2306900 0.1902980
24 9.3750000 0.0000000 0.0000000 0.6808740 0.3353490 0.0000000
25 53.125000 0.0000000 0.0000000 13.759000 6.7766900 7e-070000
26 56.250000 0.0000000 0.0000000 15.711000 7.7380700 8e-070000
27 59.375000 0.0000000 0.0000000 17.838600 8.7859900 9e-070000
28 62.500000 0.0000000 0.0000000 20.150400 9.9246200 1e-060000
29 65.625000 0.0000000 0.0000000 22.654300 11.157900 1.2e-0600
30 68.750000 0.0000000 0.0000000 25.357300 12.489100 1.3e-0600
31 71.875000 0.0000000 0.0000000 28.266800 13.922200 1.4e-0600
32 75.000000 0.0000000 0.0000000 31.391700 15.461200 1.6e-0600
33 78.125000 0.0000000 0.0000000 34.737600 17.109200 1.8e-0600
34 81.250000 0.0000000 0.0000000 38.313400 18.870400 2e-060000
35 84.375000 0.0000000 0.0000000 42.126800 20.748600 2.2e-0600
36 87.500000 0.0000000 0.0000000 46.185900 22.747800 2.4e-0600
37 90.625000 0.0000000 0.0000000 50.496400 24.870900 2.6e-0600
38 93.750000 0.0000000 0.0000000 55.067500 27.122200 2.8e-0600
39 96.875000 0.0000000 0.0000000 59.906900 29.505800 3.1e-0600
40 100.00000 0.0000000 52.128700 67.774400 33.597700 15.336900
41 100.00000 0.0000000 63.226200 69.350600 34.498300 24.118600
42 100.00000 26.693400 72.070400 71.856000 38.424600 33.469200
43 100.00000 44.505800 76.902300 74.528700 44.557400 39.851900
44 100.00000 45.773400 90.810100 78.318200 47.178500 60.123300
45 100.00000 56.839800 100.00000 83.018100 54.695400 77.383600
46 32.842200 18.821300 27.757500 6.0651500 4.4364800 4.2474600
47 47.637800 22.668100 45.764400 13.446600 8.6895600 11.679300
48 61.460500 36.043200 79.739600 28.608300 19.338100 43.174200
49 55.698800 55.763800 73.740300 25.861500 25.412900 36.657500
50 84.416700 100.00000 74.033300 66.338800 84.612700 42.179600
51 100.00000 100.00000 80.795600 90.723100 96.744200 50.770000
52 33.046900 65.138300 0.0000000 11.009100 23.025600 2.3216600
53 46.090200 70.709200 0.0000000 17.408400 30.057500 2.8333900
54 75.617300 100.00000 0.0000000 49.840900 75.986200 6.7840500
55 88.077500 100.00000 0.0000000 64.769300 83.338800 6.7840500
56 0.0000000 50.000000 0.0000000 3.2796900 11.089400 1.2495100
57 0.0000000 53.125000 0.0000000 3.7680000 12.740500 1.4355500
58 0.0000000 56.250000 0.0000000 4.3025500 14.548000 1.6392100
59 0.0000000 59.375000 0.0000000 4.8852100 16.518100 1.8611900
60 0.0000000 62.500000 0.0000000 5.5183200 18.658800 2.1024000
61 0.0000000 65.625000 0.0000000 6.2040300 20.977300 2.3636400
62 0.0000000 68.750000 0.0000000 6.9442600 23.480200 2.6456600
63 0.0000000 71.875000 0.0000000 7.7410500 26.174400 2.9492300
64 0.0000000 75.000000 0.0000000 8.5968100 29.067900 3.2752600
65 0.0000000 78.125000 0.0000000 9.5131100 32.166100 3.6243500
66 0.0000000 81.250000 0.0000000 10.492400 35.477300 3.9974400
67 0.0000000 84.375000 0.0000000 11.536700 39.008300 4.3953100
68 0.0000000 87.500000 0.0000000 12.648300 42.766900 4.8188100
69 0.0000000 90.625000 0.0000000 13.828800 46.758400 5.2685600
70 0.0000000 93.750000 0.0000000 15.080600 50.991200 5.7454800
71 56.630300 100.00000 23.074800 34.286300 68.366100 9.6777900
72 56.131400 100.00000 43.510200 35.275200 68.956800 17.005800
73 69.848100 100.00000 51.715400 46.865200 74.733600 21.843700
74 92.429300 100.00000 54.065300 73.904500 88.074200 23.466300
75 81.015600 62.190800 43.886100 45.360300 38.242100 12.493900
76 88.590500 82.692400 63.786100 63.048200 63.080100 28.811300
77 0.0000000 7.7260200 15.603500 0.4270490 0.6717480 1.5891500
78 0.0000000 0.0000000 15.625000 0.2753680 0.1573370 1.5342100
79 0.0000000 0.0000000 18.750000 0.3653650 0.2087590 2.0356200
80 0.0000000 9.1745500 25.632900 0.8101760 0.9743190 3.5691900
81 0.0000000 0.0000000 25.000000 0.5999780 0.3428100 3.3427700
82 0.0000000 0.0000000 34.375000 1.1128400 0.6358450 6.2001900
83 0.0000000 0.0000000 37.500000 1.3329400 0.7616000 7.4264300
84 0.0000000 0.0000000 40.625000 1.5805500 0.9030810 8.8060300
85 0.0000000 0.0000000 43.750000 1.8568500 1.0609500 10.345400
86 0.0000000 0.0000000 46.875000 2.1637600 1.2363100 12.055400
87 0.0000000 0.0000000 50.000000 2.5026500 1.4299400 13.943500
88 0.0000000 11.725300 51.329800 2.9000300 2.3399600 14.895900
89 0.0000000 0.0000000 53.125000 2.8752600 1.6428400 16.019500
90 0.0000000 0.0000000 56.250000 3.2831700 1.8759000 18.292100
91 0.0000000 0.0000000 59.375000 3.7277800 2.1299400 20.769300
92 0.0000000 0.0000000 62.500000 4.2108900 2.4059800 23.460900
93 0.0000000 0.0000000 65.625000 4.7341400 2.7049500 26.376200
94 0.0000000 0.0000000 68.750000 5.2989900 3.0276800 29.523200
95 0.0000000 0.0000000 71.875000 5.9070000 3.3750800 32.910800
96 0.0000000 0.0000000 75.000000 6.5600100 3.7481900 36.549000
97 0.0000000 0.0000000 78.125000 7.2592100 4.1477000 40.444600
98 0.0000000 0.0000000 81.250000 8.0064700 4.5746600 44.607900
99 0.0000000 0.0000000 84.375000 8.8033600 5.0299700 49.047700
100 0.0000000 0.0000000 87.500000 9.6515900 5.5146300 53.773700
101 0.0000000 0.0000000 90.625000 10.552400 6.0293200 58.792500
102 0.0000000 0.0000000 93.750000 11.507600 6.5751100 64.114500
103 0.0000000 0.0000000 96.875000 12.518900 7.1529400 69.749000
104 71.406500 23.991300 100.00000 42.134800 23.931700 75.982000
105 91.968500 24.515500 100.00000 66.776000 36.151600 75.993000
106 36.681600 0.0000000 35.542900 7.2824800 3.6808000 6.6409800
107 39.529500 33.008200 45.132300 10.464100 9.1897600 11.592400
108 11.458300 11.458300 11.458300 1.2784400 1.3259200 1.0937600
109 6.2500000 0.0000000 0.0000000 0.4500100 0.2216420 0.0000000
110 0.0000000 0.0000000 3.1250000 0.0470199 0.0268658 0.2619710
111 0.0000000 3.1250000 0.0000000 0.0616190 0.2083490 0.0234759
112 0.0000000 0.0000000 6.2500000 0.0940398 0.0537315 0.5239410
113 0.0000000 0.0000000 12.500000 0.2014790 0.1151190 1.1225400
114 0.0000000 0.0000000 9.3750000 0.1422840 0.0812970 0.7927340
115 3.1250000 3.1250000 3.1250000 0.3336440 0.3460350 0.2854470
116 6.2500000 6.2500000 6.2500000 0.6672870 0.6920710 0.5708930
117 9.3750000 9.3750000 9.3750000 1.0096200 1.0471200 0.8637740
118 14.583300 14.583300 14.583300 1.7670200 1.8326500 1.5117600
119 15.625000 15.625000 15.625000 1.9539600 2.0265300 1.6716900
120 16.666700 16.666700 16.666700 2.1531200 2.2330900 1.8420900
121 17.708300 17.708300 17.708300 2.3659900 2.4538600 2.0242000
122 18.750000 18.750000 18.750000 2.5925500 2.6888400 2.2180400
123 19.791700 19.791700 19.791700 2.8321300 2.9373200 2.4230100
124 20.833300 20.833300 20.833300 3.0867900 3.2014400 2.6408800
125 21.875000 21.875000 21.875000 3.3559300 3.4805700 2.8711400
126 22.916700 22.916700 22.916700 3.6402400 3.7754400 3.1143800
127 23.958300 23.958300 23.958300 3.9412000 4.0875800 3.3718600
128 25.000000 25.000000 25.000000 4.2573300 4.4154400 3.6423200
129 26.041700 26.041700 26.041700 4.5901000 4.7605700 3.9270200
130 27.083300 27.083300 27.083300 4.9395100 5.1229600 4.2259600
131 28.125000 28.125000 28.125000 5.3070400 5.5041400 4.5404000
132 29.166700 29.166700 29.166700 5.6912100 5.9025800 4.8690700
133 30.208300 30.208300 30.208300 6.0949600 6.3213300 5.2145000
134 31.250000 31.250000 31.250000 6.5163700 6.7584000 5.5750400
135 32.291700 32.291700 32.291700 6.9568200 7.2152000 5.9518600
136 33.333300 33.333300 33.333300 7.4163900 7.6918400 6.3450400
137 34.375000 34.375000 34.375000 7.8965100 8.1897900 6.7558000
138 35.416700 35.416700 35.416700 8.3962200 8.7080600 7.1833200
139 36.458300 36.458300 36.458300 8.9169400 9.2481200 7.6288200
140 37.500000 37.500000 37.500000 9.4582500 9.8095400 8.0919400
141 38.541700 38.541700 38.541700 10.022500 10.394700 8.5746800
142 39.583300 39.583300 39.583300 10.606900 11.000800 9.0746600
143 40.625000 40.625000 40.625000 11.215300 11.631800 9.5951600
144 41.666700 41.666700 41.666700 11.845100 12.285000 10.134000
145 42.708300 42.708300 42.708300 12.499400 12.963600 10.693800
146 43.750000 43.750000 43.750000 13.175800 13.665200 11.272500
147 44.791700 44.791700 44.791700 13.877700 14.393200 11.873000
148 45.833300 45.833300 45.833300 14.603500 15.145800 12.493900
149 46.875000 46.875000 46.875000 15.353600 15.923900 13.135700
150 47.916700 47.916700 47.916700 16.129500 16.728500 13.799500
151 48.958300 48.958300 48.958300 16.930500 17.559400 14.484800
152 50.000000 50.000000 50.000000 17.758300 18.417800 15.193000
153 51.041700 51.041700 51.041700 18.613200 19.304500 15.924400
154 52.083300 52.083300 52.083300 19.494000 20.218100 16.678000
155 53.125000 53.125000 53.125000 20.402300 21.160000 17.455000
156 54.166700 54.166700 54.166700 21.339200 22.131800 18.256600
157 55.208300 55.208300 55.208300 22.302800 23.131100 19.081000
158 56.250000 56.250000 56.250000 23.296700 24.161900 19.931300
159 57.291700 57.291700 57.291700 24.318100 25.221300 20.805200
160 58.333300 58.333300 58.333300 25.370000 26.312200 21.705100
161 59.375000 59.375000 59.375000 26.451600 27.434000 22.630500
162 60.416700 60.416700 60.416700 27.563900 28.587700 23.582100
163 61.458300 61.458300 61.458300 28.706600 29.772800 24.559700
164 62.500000 62.500000 62.500000 29.879600 30.989400 25.563300
165 63.541700 63.541700 63.541700 31.085900 32.240500 26.595300
166 64.583300 64.583300 64.583300 32.322600 33.523000 27.653300
167 65.625000 65.625000 65.625000 33.592500 34.840100 28.739800
168 66.666700 66.666700 66.666700 34.895700 36.191800 29.854800
169 67.708300 67.708300 67.708300 36.230800 37.576400 30.997000
170 68.750000 68.750000 68.750000 37.600500 38.997100 32.168900
171 69.791700 69.791700 69.791700 39.003600 40.452200 33.369300
172 70.833300 70.833300 70.833300 40.442400 41.944400 34.600200
173 71.875000 71.875000 71.875000 41.914900 43.471600 35.860000
174 72.916700 72.916700 72.916700 43.422800 45.035500 37.150100
175 73.958300 73.958300 73.958300 44.967300 46.637400 38.471500
176 75.000000 75.000000 75.000000 46.548500 48.277300 39.824200
177 76.041700 76.041700 76.041700 48.165000 49.953800 41.207200
178 77.083300 77.083300 77.083300 49.818500 51.668800 42.621900
179 78.125000 78.125000 78.125000 51.509900 53.423000 44.068900
180 79.166700 79.166700 79.166700 53.239000 55.216300 45.548200
181 80.208300 80.208300 80.208300 55.006600 57.049500 47.060500
182 81.250000 81.250000 81.250000 56.812300 58.922300 48.605400
183 82.291700 82.291700 82.291700 58.657900 60.836500 50.184300
184 83.333300 83.333300 83.333300 60.542700 62.791200 51.796800
185 84.375000 84.375000 84.375000 62.466800 64.786900 53.443000
186 85.416700 85.416700 85.416700 64.432100 66.825100 55.124400
187 86.458300 86.458300 86.458300 66.437800 68.905300 56.840400
188 87.500000 87.500000 87.500000 68.485700 71.029300 58.592500
189 88.541700 88.541700 88.541700 70.573700 73.194800 60.378800
190 89.583300 89.583300 89.583300 72.704400 75.404600 62.201700
191 90.625000 90.625000 90.625000 74.877600 77.658600 64.061000
192 91.666700 91.666700 91.666700 77.093400 79.956700 65.956800
193 92.708300 92.708300 92.708300 79.353300 82.300600 67.890200
194 93.750000 93.750000 93.750000 81.655800 84.688500 69.860000
195 94.791700 94.791700 94.791700 84.002700 87.122600 71.867900
196 95.833300 95.833300 95.833300 86.395200 89.604000 73.914800
197 22.496700 86.730000 0.0000000 14.744900 42.990200 4.7120600
198 52.995300 87.078300 0.0000000 26.175500 48.984200 4.7600900
199 67.958500 79.529000 0.0000000 34.598300 45.769500 3.7889800
200 71.936700 78.485600 69.327200 43.357800 49.579000 33.796900
201 89.091100 78.063000 74.178600 64.226100 59.562800 39.184500
202 28.285900 31.511800 21.707600 5.3085300 6.1859800 3.0666400
203 82.138900 34.439500 21.619800 41.300900 24.607200 3.1396200
204 100.00000 78.123000 22.453800 75.029200 64.471900 6.3822600
205 100.00000 91.555100 38.785700 80.646800 80.835300 13.382700
206 0.0000000 34.375000 0.0000000 1.4583700 4.9310900 0.5556160
207 0.0000000 37.500000 0.0000000 1.7468000 5.9063500 0.6655040
208 0.0000000 100.00000 0.0000000 17.806600 60.208400 6.7840500
209 0.0000000 100.00000 85.697800 26.962700 65.439900 57.796900
210 0.0000000 100.00000 100.00000 31.394400 67.972000 82.488000
211 12.453100 0.0000000 15.729100 1.2374000 0.6313710 1.5489700
212 18.650100 0.0000000 57.738800 5.2234200 2.8478500 19.445800
213 100.00000 52.346600 60.677700 72.588100 46.582000 23.252300
214 34.375000 0.0000000 0.0000000 5.3253000 2.6228500 3e-070000
215 37.500000 0.0000000 0.0000000 6.3785200 3.1415900 3e-070000
216 53.730000 0.0000000 49.370500 16.555700 8.3458300 13.548000
217 54.068300 74.114700 59.180900 26.377300 37.398600 23.789900
218 14.203000 44.837400 0.0000000 3.7162300 9.2506700 0.9786470
219 18.709900 59.763100 0.0000000 6.7033800 17.632800 1.8901100
220 25.216300 84.783600 100.00000 28.183100 48.687100 80.153200
221 23.802500 93.695500 100.00000 31.272700 59.972700 81.440900
222 39.905700 0.0000000 11.084000 7.4517200 3.6838100 0.9639940
223 40.625000 0.0000000 0.0000000 7.5634400 3.7252000 4e-070000
224 43.750000 0.0000000 0.0000000 8.8856000 4.3763900 5e-070000
225 60.601700 59.916400 0.0000000 23.715300 26.099000 1.9016300
226 59.979800 68.301800 0.0000000 25.106600 32.109200 2.6039200
227 13.541700 13.541700 13.541700 1.5923100 1.6514500 1.3622900
228 7.2916700 7.2916700 7.2916700 0.7785020 0.8074160 0.6660420
229 12.500000 0.0000000 0.0000000 0.9641380 0.4748640 0.0000000
230 8.3333300 8.3333300 8.3333300 0.8897170 0.9227610 0.7611910
231 71.395600 23.592300 39.673500 30.017000 16.947700 8.6385400
232 75.430900 43.451600 82.525200 42.562100 28.544100 47.299000
233 41.204100 24.459200 100.00000 22.140900 14.158600 75.991800
234 56.665300 22.809600 100.00000 30.238000 17.890600 75.958000
235 82.800600 69.138500 100.00000 60.803700 51.355800 78.386200
236 0.0000000 21.875000 0.0000000 0.6197900 2.0956600 0.2361310
237 10.254100 30.701900 0.0000000 1.9160200 4.3000400 0.4426600
238 0.0000000 31.250000 0.0000000 1.2034800 4.0692500 0.4585070
239 27.176000 34.436100 45.866500 6.8777600 7.7780200 12.042400
240 50.581400 38.733100 85.537800 23.278900 17.587100 51.485300
241 83.775400 0.0000000 28.848700 42.161200 20.827400 4.3746900
242 84.003200 0.0000000 66.741800 46.591600 23.336400 27.474000
243 85.873000 0.0000000 80.887000 51.959000 26.215400 44.110600
244 88.152200 0.0000000 100.00000 60.652000 30.944000 75.704000
245 0.0000000 0.0000000 21.875000 0.4729460 0.2702270 2.6350100
246 0.0000000 0.0000000 28.125000 0.7479130 0.4273350 4.1669800
247 14.029800 93.825800 58.918600 19.900300 53.744300 26.151800
248 21.147100 100.00000 69.892200 25.457500 64.411600 37.517000
249 0.0000000 43.750000 0.0000000 2.4333800 8.2278400 0.9270810
250 11.346100 42.717600 8.7616800 3.2936300 8.3042600 1.6162400
251 0.0000000 52.263000 22.828800 4.1382900 12.560700 4.2215400
252 100.00000 0.0000000 0.0000000 65.021600 32.024900 3.3e-0600
253 100.00000 0.0000000 13.749900 65.250800 32.155800 1.2767900
254 100.00000 88.498900 92.264400 89.086400 82.353600 66.506300
255 100.00000 92.893800 100.00000 93.339800 89.595400 81.316000
256 96.875000 96.875000 96.875000 88.831800 92.131000 75.999400
257 97.916700 97.916700 97.916700 91.313800 94.705300 78.122900
258 0.0000000 15.625000 0.0000000 0.3608660 1.2201800 0.1374850
259 0.0000000 18.750000 0.0000000 0.4788060 1.6189600 0.1824180
260 0.0000000 16.488300 10.524700 0.5536200 1.4155600 1.0539400
261 0.0000000 61.546800 43.119500 7.1187000 19.015600 12.048800
262 0.0000000 76.483900 52.331500 11.801500 32.099600 18.912000
263 34.708600 77.604800 71.926000 20.705100 37.692200 36.533200
264 23.468600 0.0000000 79.483400 10.139500 5.5914400 42.221300
265 26.749900 0.0000000 100.00000 16.842400 9.3666400 75.704000
266 44.477000 0.0000000 100.00000 22.802000 12.301900 75.704000
267 66.853900 0.0000000 49.581400 26.148200 13.072300 13.680100
268 89.198400 58.359600 48.966200 55.573800 41.108900 15.085300
269 100.00000 85.133900 58.185600 80.376200 73.955600 24.297900
270 100.00000 100.00000 65.982400 87.625000 94.974000 33.508900
271 57.810700 43.423000 29.276500 19.952400 16.805400 5.4135900
272 73.636700 66.479000 30.357200 37.269200 36.914800 7.2700300
273 100.00000 69.859800 89.273500 82.398500 62.242500 59.336300
274 100.00000 83.285700 100.00000 89.774700 77.541200 79.957800
275 55.030500 40.833700 47.726300 19.275900 15.721000 13.349900
276 66.302900 41.187500 61.137500 29.352900 20.935300 23.073900
277 88.635800 100.00000 63.496300 69.902700 86.212000 31.150300
278 21.200700 29.316200 15.579200 3.4800100 4.8026100 1.9322100
279 23.718500 49.176000 25.176600 6.3763500 12.311900 4.5898600
280 35.745000 54.443900 25.710300 10.391000 16.687300 5.0383500
281 54.186000 68.176200 23.529800 21.744600 30.407500 5.5881900
282 39.662200 38.185200 0.0000000 8.9985500 9.6750100 0.6914830
283 58.097400 37.973100 0.0000000 18.740800 14.412000 0.6833990
284 71.320900 39.673200 0.0000000 29.704100 20.316300 0.7499410
285 100.00000 53.984000 39.216100 70.397400 46.083900 9.6543500
286 100.00000 57.088900 51.916400 72.203000 48.643900 16.890900
287 100.00000 65.686600 64.239900 75.737000 55.619300 27.425500
288 100.00000 76.833600 64.054900 78.614900 65.437400 28.361100
289 33.811100 0.0000000 55.823100 8.3732000 4.3783100 17.969200
290 48.123500 0.0000000 70.665300 16.649800 8.6472400 31.570000
291 67.702700 0.0000000 73.644000 30.699600 15.614800 34.938500
292 71.587600 47.209200 91.838900 41.788400 29.765400 61.921000
293 16.865700 6.4701400 24.311100 2.1765400 1.4853300 3.2253700
294 26.471500 33.046900 53.604400 7.4730900 7.8005400 16.868100
295 29.115300 33.720300 68.631000 10.504000 9.6402000 29.933700
296 0.0000000 25.830400 23.580700 1.3747800 3.1317700 3.3254800
297 0.0000000 36.490800 25.642200 2.2784800 5.9378600 4.1307300
298 0.0000000 74.422600 26.913100 9.1220400 28.910800 7.0462000
299 0.0000000 100.00000 25.663000 18.436100 60.568100 10.291400
300 43.446400 100.00000 23.328600 27.087200 64.821100 9.7347900
301 58.196900 48.365900 0.0000000 20.057800 18.666700 1.1589800
302 69.278500 50.002800 0.0000000 29.114900 23.815100 1.2496700
303 73.076300 62.960900 0.0000000 35.058700 33.491100 2.1397100
304 0.0000000 0.0000000 0.0000000 0.0000000 0.0000000 0.0000000
305 5.2083300 5.2083300 5.2083300 0.5560730 0.5767260 0.4757440
306 12.500000 12.500000 12.500000 1.4296500 1.4827500 1.2231300
307 30.088400 77.092600 22.364400 13.772800 33.408500 6.2452700
308 56.941600 78.851200 35.334600 27.078700 41.551300 10.269800
309 65.524300 86.287700 57.452100 38.229200 54.368900 23.871700
310 82.454400 100.00000 92.793900 68.770800 86.193400 69.238000
311 0.0000000 20.898200 52.118200 3.3246300 3.5100700 15.548200
312 0.0000000 24.602200 100.00000 14.351300 10.345500 75.994900
313 0.0000000 39.135800 100.00000 15.499900 14.229000 76.432500
314 28.435400 44.158700 100.00000 19.726000 17.961400 76.650200
315 98.958300 98.958300 98.958300 93.841400 97.326700 80.285400
316 100.00000 100.00000 100.00000 96.416000 99.996900 82.488000
317 68.989800 0.0000000 28.102100 26.320000 13.022200 4.1605000
318 80.826700 20.108300 70.955800 44.076500 23.711400 32.093700
319 84.058300 67.243600 83.758500 56.951800 47.740800 50.656500
320 0.0000000 40.625000 0.0000000 2.0713000 7.0035600 0.7891330
321 0.0000000 46.875000 0.0000000 2.8355900 9.5878100 1.0803200
322 0.0000000 96.875000 0.0000000 16.405900 55.472300 6.2504000
323 26.369100 100.00000 50.198700 23.500500 63.211900 20.853700
324 48.278500 100.00000 56.699200 32.214400 67.568300 25.419400
325 0.0000000 12.500000 0.0000000 0.2640350 0.8927680 0.1005940
326 0.0000000 6.2500000 0.0000000 0.1232380 0.4166980 0.0469518
327 10.416700 10.416700 10.416700 1.1388100 1.1811100 0.9743020
328 0.0000000 42.766900 52.563200 5.1210000 9.4317200 16.514000
329 0.0000000 50.390400 54.357400 6.3700900 13.019900 18.163500
330 43.151600 100.00000 70.963400 32.153600 67.726100 38.681500
331 48.261500 100.00000 81.374200 36.898100 70.245200 51.563700
332 0.0000000 25.000000 0.0000000 0.7862640 2.6585500 0.2995550
333 0.0000000 28.125000 0.0000000 0.9801300 3.3140600 0.3734150
334 0.0000000 62.251100 58.626800 9.0840400 20.549200 22.240000
335 59.580700 62.562600 100.00000 37.104500 35.325300 77.811400
336 89.871800 64.107100 100.00000 68.886600 51.940500 77.938300
337 58.542300 43.831300 64.624000 24.259500 19.366200 26.348300
338 100.00000 56.148000 73.058500 75.455000 50.024900 35.891300
339 100.00000 86.610800 79.988300 85.045600 78.097600 47.590200
340 20.110800 14.699400 0.0000000 2.2912400 2.0817500 0.1257220
341 17.858900 19.909400 0.0000000 2.1451300 2.5822000 0.2012160
342 34.328300 21.100000 0.0000000 5.8930700 4.5850400 0.2219060
343 100.00000 40.365000 34.963600 68.216800 39.590600 7.1983600
344 100.00000 42.572600 48.707100 69.672500 41.123500 14.013600
345 26.575600 11.099500 0.0000000 3.4418600 2.3513200 0.0865337
346 28.125000 0.0000000 0.0000000 3.5789900 1.7627500 2e-070000
347 31.250000 0.0000000 0.0000000 4.3945500 2.1644400 2e-070000
348 46.875000 0.0000000 0.0000000 10.354300 5.0997600 5e-070000
349 50.436600 91.711200 69.399500 31.893100 57.316300 35.637900
350 59.029700 100.00000 71.320300 41.196800 72.185700 39.075700
351 71.697100 100.00000 90.522200 56.424500 80.058300 65.406500
352 60.507800 77.840300 74.900600 34.620900 44.799200 40.020700
353 100.00000 82.299200 83.435000 84.415800 73.553100 51.811200
354 18.750000 0.0000000 0.0000000 1.7483800 0.8611260 1e-070000
355 15.625000 0.0000000 0.0000000 1.3177200 0.6490130 1e-070000
356 21.875000 0.0000000 0.0000000 2.2631900 1.1146800 1e-070000
357 39.793800 22.834000 19.521200 8.2934600 6.0452900 2.4280000
358 61.739200 29.446900 30.672800 21.526100 13.765300 5.3386300
359 63.586600 100.00000 60.910600 42.766500 72.814100 28.849400
