dispcalGUI/ti1/d3-e4-s65-g129-m0-f1524-cRec709_Gamma22.ti1
CTI1   

ORIGINATOR "Argyll targen"
KEYWORD "OFPS_PATCHES"
OFPS_PATCHES "1197"
CREATED "Wed Oct 16 20:05:44 2013"
KEYWORD "COMP_GREY_STEPS"
COMP_GREY_STEPS "129"
KEYWORD "BLACK_COLOR_PATCHES"
BLACK_COLOR_PATCHES "4"
KEYWORD "APPROX_WHITE_POINT"
APPROX_WHITE_POINT "95.045781 100.000003 108.905751"
DESCRIPTOR "Argyll Calibration Target chart information 1"
KEYWORD "ACCURATE_EXPECTED_VALUES"
ACCURATE_EXPECTED_VALUES "true"
KEYWORD "WHITE_COLOR_PATCHES"
WHITE_COLOR_PATCHES "4"
KEYWORD "SINGLE_DIM_STEPS"
SINGLE_DIM_STEPS "65"
KEYWORD "COLOR_REP"
COLOR_REP "RGB"

NUMBER_OF_FIELDS 7
BEGIN_DATA_FORMAT
SAMPLE_ID RGB_R RGB_G RGB_B XYZ_X XYZ_Y XYZ_Z
END_DATA_FORMAT

NUMBER_OF_SETS 1524
BEGIN_DATA
1 100.0000000 100.0000000 100.0000000 95.04580000 100.0000000 108.9060000
2 35.15630000 35.15630000 35.15630000 9.538790000 10.03600000 10.92980000
3 39.84380000 39.84380000 39.84380000 12.56140000 13.21610000 14.39310000
4 40.62500000 40.62500000 40.62500000 13.10940000 13.79280000 15.02110000
5 100.0000000 70.80230000 59.54690000 63.74420000 57.03810000 37.90660000
6 100.0000000 100.0000000 70.89210000 85.46630000 96.16800000 58.45840000
7 100.0000000 100.0000000 81.97720000 88.65500000 97.44350000 75.25060000
8 7.812500000 7.812500000 7.812500000 0.349089000 0.367285000 0.399994000
9 31.22590000 0.000000000 50.06800000 7.131070000 3.220930000 20.90990000
10 70.77650000 0.000000000 61.91910000 25.57310000 12.45720000 34.02720000
11 14.06250000 0.000000000 0.000000000 0.551703000 0.284419000 0.025827700
12 8.593750000 8.593750000 8.593750000 0.430494000 0.452934000 0.493271000
13 0.000000000 0.000000000 3.125000000 0.008837370 0.003535180 0.046539200
14 4.687500000 0.000000000 0.000000000 0.049250600 0.025390100 0.002305650
15 6.250000000 0.000000000 0.000000000 0.092721300 0.047800500 0.004340700
16 7.812500000 0.000000000 0.000000000 0.151463000 0.078083500 0.007090660
17 12.50000000 0.000000000 0.000000000 0.425804000 0.219515000 0.019933800
18 15.62500000 0.000000000 0.000000000 0.695563000 0.358583000 0.032562500
19 17.18750000 0.000000000 0.000000000 0.857764000 0.442203000 0.040155800
20 18.75000000 0.000000000 0.000000000 1.038660000 0.535460000 0.048624400
21 20.31250000 0.000000000 0.000000000 1.238580000 0.638523000 0.057983400
22 21.87500000 0.000000000 0.000000000 1.457820000 0.751549000 0.068247200
23 23.43750000 0.000000000 0.000000000 1.696680000 0.874688000 0.079429200
24 25.00000000 0.000000000 0.000000000 1.955420000 1.008080000 0.091542300
25 26.56250000 0.000000000 0.000000000 2.234310000 1.151850000 0.104598000
26 28.12500000 0.000000000 0.000000000 2.533590000 1.306140000 0.118609000
27 29.68750000 0.000000000 0.000000000 2.853490000 1.471060000 0.133585000
28 31.25000000 0.000000000 0.000000000 3.194240000 1.646720000 0.149537000
29 32.81250000 0.000000000 0.000000000 3.556040000 1.833250000 0.166475000
30 34.37500000 0.000000000 0.000000000 3.939120000 2.030730000 0.184408000
31 35.93750000 0.000000000 0.000000000 4.343650000 2.239280000 0.203346000
32 37.50000000 0.000000000 0.000000000 4.769840000 2.458990000 0.223298000
33 39.06250000 0.000000000 0.000000000 5.217870000 2.689970000 0.244272000
34 40.62500000 0.000000000 0.000000000 5.687920000 2.932290000 0.266277000
35 42.18750000 0.000000000 0.000000000 6.180160000 3.186050000 0.289321000
36 43.75000000 0.000000000 0.000000000 6.694760000 3.451340000 0.313412000
37 45.31250000 0.000000000 0.000000000 7.231870000 3.728240000 0.338557000
38 46.87500000 0.000000000 0.000000000 7.791670000 4.016830000 0.364763000
39 48.43750000 0.000000000 0.000000000 8.374300000 4.317200000 0.392039000
40 50.00000000 0.000000000 0.000000000 8.979910000 4.629410000 0.420390000
41 51.56250000 0.000000000 0.000000000 9.608640000 4.953540000 0.449824000
42 53.12500000 0.000000000 0.000000000 10.26060000 5.289670000 0.480348000
43 54.68750000 0.000000000 0.000000000 10.93610000 5.637860000 0.511967000
44 56.25000000 0.000000000 0.000000000 11.63500000 5.998200000 0.544688000
45 57.81250000 0.000000000 0.000000000 12.35770000 6.370740000 0.578518000
46 59.37500000 0.000000000 0.000000000 13.10410000 6.755550000 0.613463000
47 60.93750000 0.000000000 0.000000000 13.87450000 7.152700000 0.649528000
48 62.50000000 0.000000000 0.000000000 14.66890000 7.562260000 0.686719000
49 64.06250000 0.000000000 0.000000000 15.48750000 7.984280000 0.725042000
50 65.62500000 0.000000000 0.000000000 16.33040000 8.418820000 0.764502000
51 67.18750000 0.000000000 0.000000000 17.19780000 8.865960000 0.805106000
52 68.75000000 0.000000000 0.000000000 18.08960000 9.325740000 0.846858000
53 70.31250000 0.000000000 0.000000000 19.00610000 9.798220000 0.889763000
54 71.87500000 0.000000000 0.000000000 19.94740000 10.28350000 0.933828000
55 73.43750000 0.000000000 0.000000000 20.91350000 10.78150000 0.979056000
56 75.00000000 0.000000000 0.000000000 21.90460000 11.29250000 1.025450000
57 76.56250000 0.000000000 0.000000000 22.92070000 11.81630000 1.073020000
58 78.12500000 0.000000000 0.000000000 23.96210000 12.35320000 1.121770000
59 79.68750000 0.000000000 0.000000000 25.02870000 12.90300000 1.171710000
60 81.25000000 0.000000000 0.000000000 26.12070000 13.46600000 1.222830000
61 82.81250000 0.000000000 0.000000000 27.23810000 14.04210000 1.275140000
62 84.37500000 0.000000000 0.000000000 28.38120000 14.63130000 1.328650000
63 85.93750000 0.000000000 0.000000000 29.54990000 15.23380000 1.383360000
64 87.50000000 0.000000000 0.000000000 30.74440000 15.84960000 1.439280000
65 89.06250000 0.000000000 0.000000000 31.96470000 16.47870000 1.496410000
66 90.62500000 0.000000000 0.000000000 33.21100000 17.12120000 1.554760000
67 92.18750000 0.000000000 0.000000000 34.48330000 17.77710000 1.614320000
68 93.75000000 0.000000000 0.000000000 35.78170000 18.44650000 1.675110000
69 95.31250000 0.000000000 0.000000000 37.10640000 19.12940000 1.737120000
70 96.87500000 0.000000000 0.000000000 38.45730000 19.82590000 1.800360000
71 100.0000000 59.38060000 0.000000000 52.60320000 43.99080000 5.719280000
72 100.0000000 68.87840000 0.000000000 56.98820000 52.76150000 7.181130000
73 9.375000000 0.000000000 0.000000000 0.226174000 0.116599000 0.010588200
74 0.000000000 0.000000000 1.562500000 0.001924390 0.000769804 0.010134200
75 0.000000000 1.562500000 0.000000000 0.003812240 0.007625040 0.001270900
76 0.000000000 3.125000000 0.000000000 0.017507000 0.035016500 0.005836370
77 0.000000000 4.687500000 0.000000000 0.042704500 0.085415400 0.014236600
78 4.687500000 4.687500000 4.687500000 0.113512000 0.119429000 0.130065000
79 0.000000000 6.250000000 0.000000000 0.080397300 0.160807000 0.026802400
80 0.000000000 7.812500000 0.000000000 0.131331000 0.262682000 0.043782400
81 0.000000000 12.50000000 0.000000000 0.369209000 0.738473000 0.123085000
82 0.000000000 14.06250000 0.000000000 0.478374000 0.956819000 0.159478000
83 0.000000000 15.62500000 0.000000000 0.603113000 1.206320000 0.201062000
84 0.000000000 17.18750000 0.000000000 0.743756000 1.487620000 0.247949000
85 0.000000000 20.31250000 0.000000000 1.073950000 2.148060000 0.358028000
86 0.000000000 21.87500000 0.000000000 1.264060000 2.528300000 0.421404000
87 0.000000000 23.43750000 0.000000000 1.471170000 2.942550000 0.490449000
88 0.000000000 25.00000000 0.000000000 1.695520000 3.391290000 0.565243000
89 0.000000000 26.56250000 0.000000000 1.937340000 3.874970000 0.645860000
90 0.000000000 28.12500000 0.000000000 2.196840000 4.394010000 0.732371000
91 0.000000000 29.68750000 0.000000000 2.474220000 4.948810000 0.824842000
92 0.000000000 31.25000000 0.000000000 2.769680000 5.539770000 0.923340000
93 0.000000000 32.81250000 0.000000000 3.083400000 6.167250000 1.027930000
94 0.000000000 34.37500000 0.000000000 3.415550000 6.831610000 1.138660000
95 0.000000000 35.93750000 0.000000000 3.766320000 7.533200000 1.255590000
96 0.000000000 37.50000000 0.000000000 4.135860000 8.272340000 1.378790000
97 0.000000000 39.06250000 0.000000000 4.524350000 9.049360000 1.508300000
98 0.000000000 40.62500000 0.000000000 4.931920000 9.864560000 1.644170000
99 0.000000000 42.18750000 0.000000000 5.358730000 10.71830000 1.786460000
100 0.000000000 43.75000000 0.000000000 5.804930000 11.61070000 1.935210000
101 0.000000000 45.31250000 0.000000000 6.270660000 12.54220000 2.090480000
102 0.000000000 46.87500000 0.000000000 6.756050000 13.51310000 2.252290000
103 0.000000000 48.43750000 0.000000000 7.261240000 14.52350000 2.420710000
104 0.000000000 50.00000000 0.000000000 7.786350000 15.57390000 2.595770000
105 0.000000000 51.56250000 0.000000000 8.331520000 16.66430000 2.777510000
106 0.000000000 53.12500000 0.000000000 8.896870000 17.79500000 2.965990000
107 0.000000000 54.68750000 0.000000000 9.482510000 18.96640000 3.161230000
108 0.000000000 56.25000000 0.000000000 10.08860000 20.17860000 3.363270000
109 0.000000000 57.81250000 0.000000000 10.71520000 21.43190000 3.572160000
110 0.000000000 59.37500000 0.000000000 11.36240000 22.72650000 3.787930000
111 0.000000000 60.93750000 0.000000000 12.03040000 24.06250000 4.010620000
112 0.000000000 62.50000000 0.000000000 12.71920000 25.44030000 4.240260000
113 0.000000000 64.06250000 0.000000000 13.42900000 26.86000000 4.476890000
114 0.000000000 65.62500000 0.000000000 14.15990000 28.32190000 4.720550000
115 0.000000000 67.18750000 0.000000000 14.91190000 29.82610000 4.971260000
116 0.000000000 68.75000000 0.000000000 15.68530000 31.37280000 5.229060000
117 0.000000000 70.31250000 0.000000000 16.47990000 32.96230000 5.493990000
118 0.000000000 71.87500000 0.000000000 17.29610000 34.59470000 5.766070000
119 0.000000000 73.43750000 0.000000000 18.13380000 36.27030000 6.045340000
120 0.000000000 75.00000000 0.000000000 18.99320000 37.98910000 6.331830000
121 0.000000000 76.56250000 0.000000000 19.87430000 39.75140000 6.625570000
122 0.000000000 78.12500000 0.000000000 20.77720000 41.55740000 6.926580000
123 0.000000000 79.68750000 0.000000000 21.70200000 43.40730000 7.234900000
124 0.000000000 81.25000000 0.000000000 22.64890000 45.30110000 7.550550000
125 0.000000000 82.81250000 0.000000000 23.61780000 47.23910000 7.873570000
126 0.000000000 84.37500000 0.000000000 24.60890000 49.22150000 8.203990000
127 0.000000000 85.93750000 0.000000000 25.62230000 51.24840000 8.541820000
128 0.000000000 87.50000000 0.000000000 26.65800000 53.32000000 8.887100000
129 0.000000000 89.06250000 0.000000000 27.71610000 55.43640000 9.239850000
130 0.000000000 90.62500000 0.000000000 28.79680000 57.59780000 9.600100000
131 0.000000000 100.0000000 86.44450000 48.85960000 76.76120000 80.91980000
132 0.000000000 100.0000000 100.0000000 53.80730000 78.74040000 106.9750000
133 99.21880000 99.21880000 99.21880000 93.42040000 98.28990000 107.0430000
134 100.0000000 100.0000000 100.0000000 95.04580000 100.0000000 108.9060000
135 70.66340000 93.57100000 81.83740000 61.72660000 76.34860000 72.36900000
136 0.000000000 24.98210000 30.25520000 2.994950000 3.906830000 7.421430000
137 0.000000000 26.10120000 67.80240000 9.543890000 6.800620000 41.06450000
138 0.000000000 40.41070000 100.0000000 22.92490000 16.97100000 96.67980000
139 0.000000000 50.04140000 100.0000000 25.85050000 22.82270000 97.65510000
140 18.70450000 8.168150000 25.33310000 2.059120000 1.174790000 4.737010000
141 75.27310000 0.000000000 26.70460000 23.06990000 11.77890000 6.244560000
142 100.0000000 0.000000000 39.15180000 43.53380000 22.17780000 14.01830000
143 10.93750000 0.000000000 0.000000000 0.317448000 0.163654000 0.014861200
144 0.000000000 0.000000000 7.812500000 0.066294900 0.026519700 0.349121000
145 9.375000000 9.375000000 9.375000000 0.521282000 0.548454000 0.597298000
146 0.000000000 0.000000000 12.50000000 0.186374000 0.074554300 0.981479000
147 0.000000000 0.000000000 14.06250000 0.241480000 0.096598000 1.271680000
148 0.000000000 0.000000000 17.18750000 0.375442000 0.150186000 1.977150000
149 0.000000000 0.000000000 20.31250000 0.542123000 0.216863000 2.854920000
150 0.000000000 0.000000000 21.87500000 0.638085000 0.255250000 3.360270000
151 0.000000000 0.000000000 23.43750000 0.742633000 0.297072000 3.910840000
152 0.000000000 0.000000000 25.00000000 0.855885000 0.342376000 4.507250000
153 0.000000000 0.000000000 26.56250000 0.977955000 0.391207000 5.150090000
154 0.000000000 0.000000000 28.12500000 1.108950000 0.443608000 5.839920000
155 0.000000000 0.000000000 29.68750000 1.248970000 0.499619000 6.577290000
156 0.000000000 0.000000000 31.25000000 1.398110000 0.559281000 7.362710000
157 0.000000000 0.000000000 32.81250000 1.556470000 0.622630000 8.196680000
158 0.000000000 0.000000000 34.37500000 1.724140000 0.689702000 9.079660000
159 0.000000000 0.000000000 35.93750000 1.901210000 0.760532000 10.01210000
160 0.000000000 0.000000000 37.50000000 2.087750000 0.835154000 10.99450000
161 0.000000000 0.000000000 39.06250000 2.283850000 0.913600000 12.02720000
162 0.000000000 0.000000000 40.62500000 2.489590000 0.995901000 13.11070000
163 0.000000000 0.000000000 42.18750000 2.705040000 1.082090000 14.24530000
164 0.000000000 0.000000000 43.75000000 2.930280000 1.172190000 15.43140000
165 0.000000000 0.000000000 45.31250000 3.165380000 1.266230000 16.66950000
166 0.000000000 0.000000000 46.87500000 3.410400000 1.364250000 17.95980000
167 0.000000000 0.000000000 48.43750000 3.665410000 1.466260000 19.30270000
168 0.000000000 0.000000000 50.00000000 3.930490000 1.572300000 20.69870000
169 0.000000000 0.000000000 51.56250000 4.205680000 1.682380000 22.14790000
170 0.000000000 0.000000000 53.12500000 4.491070000 1.796540000 23.65080000
171 0.000000000 0.000000000 54.68750000 4.786700000 1.914800000 25.20760000
172 0.000000000 0.000000000 56.25000000 5.092630000 2.037180000 26.81870000
173 0.000000000 0.000000000 57.81250000 5.408930000 2.163710000 28.48440000
174 0.000000000 0.000000000 59.37500000 5.735640000 2.294400000 30.20490000
175 0.000000000 0.000000000 60.93750000 6.072840000 2.429290000 31.98070000
176 0.000000000 0.000000000 62.50000000 6.420560000 2.568390000 33.81180000
177 0.000000000 0.000000000 64.06250000 6.778860000 2.711720000 35.69870000
178 0.000000000 0.000000000 65.62500000 7.147800000 2.859310000 37.64170000
179 0.000000000 0.000000000 67.18750000 7.527430000 3.011170000 39.64080000
180 0.000000000 0.000000000 68.75000000 7.917800000 3.167320000 41.69660000
181 0.000000000 0.000000000 70.31250000 8.318950000 3.327790000 43.80910000
182 0.000000000 0.000000000 71.87500000 8.730930000 3.492600000 45.97870000
183 0.000000000 0.000000000 73.43750000 9.153800000 3.661750000 48.20560000
184 0.000000000 0.000000000 75.00000000 9.587590000 3.835280000 50.49000000
185 0.000000000 0.000000000 76.56250000 10.03240000 4.013200000 52.83230000
186 0.000000000 0.000000000 78.12500000 10.48820000 4.195530000 55.23250000
187 0.000000000 0.000000000 79.68750000 10.95500000 4.382280000 57.69110000
188 0.000000000 0.000000000 81.25000000 11.43300000 4.573480000 60.20810000
189 0.000000000 0.000000000 82.81250000 11.92210000 4.769140000 62.78390000
190 0.000000000 0.000000000 84.37500000 12.42240000 4.969280000 65.41860000
191 0.000000000 0.000000000 85.93750000 12.93390000 5.173910000 68.11250000
192 0.000000000 0.000000000 87.50000000 13.45680000 5.383050000 70.86570000
193 0.000000000 0.000000000 89.06250000 13.99090000 5.596710000 73.67860000
194 0.000000000 0.000000000 90.62500000 14.53640000 5.814930000 76.55130000
195 0.000000000 0.000000000 92.18750000 15.09330000 6.037700000 79.48390000
196 0.000000000 0.000000000 93.75000000 15.66160000 6.265040000 82.47680000
197 0.000000000 0.000000000 95.31250000 16.24140000 6.496970000 85.53010000
198 0.000000000 0.000000000 96.87500000 16.83270000 6.733510000 88.64410000
199 0.000000000 0.000000000 98.43750000 17.43560000 6.974670000 91.81890000
200 0.000000000 31.19280000 100.0000000 20.80850000 12.73800000 95.97420000
201 47.23680000 45.23080000 100.0000000 32.22040000 23.79830000 97.50780000
202 59.28140000 74.35160000 100.0000000 49.74270000 51.22320000 101.8780000
203 0.000000000 0.000000000 15.62500000 0.304447000 0.121786000 1.603270000
204 0.000000000 0.000000000 10.93750000 0.138947000 0.055582200 0.731718000
205 0.781250000 0.781250000 0.781250000 0.002206570 0.002321580 0.002528340
206 1.562500000 1.562500000 1.562500000 0.010133200 0.010661400 0.011610900
207 3.125000000 0.000000000 0.000000000 0.020190600 0.010408800 0.000945212
208 2.343750000 2.343750000 2.343750000 0.024717900 0.026006300 0.028322300
209 3.125000000 3.125000000 3.125000000 0.046534900 0.048960500 0.053320800
210 3.906250000 3.906250000 3.906250000 0.076016000 0.079978300 0.087101000
211 0.000000000 9.375000000 0.000000000 0.196112000 0.392253000 0.065378800
212 7.031250000 7.031250000 7.031250000 0.276889000 0.291321000 0.317266000
213 0.000000000 0.000000000 4.687500000 0.021556900 0.008623320 0.113523000
214 0.000000000 0.000000000 6.250000000 0.040583900 0.016234600 0.213722000
215 5.468750000 5.468750000 5.468750000 0.159321000 0.167625000 0.182554000
216 6.250000000 6.250000000 6.250000000 0.213702000 0.224842000 0.244865000
217 12.50000000 12.50000000 12.50000000 0.981387000 1.032540000 1.124500000
218 13.28130000 13.28130000 13.28130000 1.121360000 1.179810000 1.284880000
219 14.06250000 14.06250000 14.06250000 1.271560000 1.337840000 1.456980000
220 14.84380000 14.84380000 14.84380000 1.432110000 1.506760000 1.640950000
221 15.62500000 15.62500000 15.62500000 1.603120000 1.686680000 1.836900000
222 17.18750000 17.18750000 17.18750000 1.976960000 2.080010000 2.265250000
223 17.96880000 17.96880000 17.96880000 2.179990000 2.293620000 2.497890000
224 18.75000000 18.75000000 18.75000000 2.393890000 2.518670000 2.742970000
225 19.53130000 19.53130000 19.53130000 2.618740000 2.755240000 3.000620000
226 20.31250000 20.31250000 20.31250000 2.854650000 3.003450000 3.270930000
227 21.09380000 21.09380000 21.09380000 3.101700000 3.263370000 3.554000000
228 21.87500000 21.87500000 21.87500000 3.359960000 3.535100000 3.849920000
229 22.65630000 22.65630000 22.65630000 3.629530000 3.818720000 4.158800000
230 23.43750000 23.43750000 23.43750000 3.910480000 4.114310000 4.480720000
231 24.21880000 24.21880000 24.21880000 4.202890000 4.421960000 4.815770000
232 25.00000000 25.00000000 25.00000000 4.506830000 4.741750000 5.164040000
233 25.78130000 25.78130000 25.78130000 4.822380000 5.073750000 5.525600000
234 26.56250000 26.56250000 26.56250000 5.149610000 5.418030000 5.900550000
235 27.34380000 27.34380000 27.34380000 5.488590000 5.774680000 6.288960000
236 28.12500000 28.12500000 28.12500000 5.839380000 6.143760000 6.690900000
237 10.93750000 10.93750000 10.93750000 0.731650000 0.769787000 0.838342000
238 0.000000000 0.000000000 0.000000000 0.000000000 0.000000000 0.000000000
239 28.90630000 28.90630000 28.90630000 6.202060000 6.525340000 7.106470000
240 29.68750000 29.68750000 29.68750000 6.576680000 6.919490000 7.535720000
241 31.25000000 31.25000000 31.25000000 7.362030000 7.745770000 8.435590000
242 32.03130000 32.03130000 32.03130000 7.772870000 8.178030000 8.906350000
243 32.81250000 32.81250000 32.81250000 8.195910000 8.623120000 9.391080000
244 33.59380000 33.59380000 33.59380000 8.631210000 9.081110000 9.889850000
245 34.37500000 34.37500000 34.37500000 9.078810000 9.552040000 10.40270000
246 35.93750000 35.93750000 35.93750000 10.01120000 10.53300000 11.47110000
247 36.71880000 36.71880000 36.71880000 10.49610000 11.04320000 12.02660000
248 37.50000000 37.50000000 37.50000000 10.99350000 11.56650000 12.59660000
249 38.28130000 38.28130000 38.28130000 11.50340000 12.10310000 13.18090000
250 39.06250000 39.06250000 39.06250000 12.02610000 12.65290000 13.77980000
251 44.09720000 68.83120000 68.11580000 30.29630000 38.06970000 46.41690000
252 100.0000000 100.0000000 100.0000000 95.04580000 100.0000000 108.9060000
253 41.40630000 41.40630000 41.40630000 13.67030000 14.38280000 15.66370000
254 42.18750000 42.18750000 42.18750000 14.24390000 14.98640000 16.32100000
255 42.96880000 42.96880000 42.96880000 14.83050000 15.60350000 16.99310000
256 43.75000000 43.75000000 43.75000000 15.43000000 16.23420000 17.68000000
257 44.53130000 44.53130000 44.53130000 16.04240000 16.87860000 18.38180000
258 45.31250000 45.31250000 45.31250000 16.66790000 17.53670000 19.09850000
259 46.09380000 46.09380000 46.09380000 17.30650000 18.20850000 19.83020000
260 46.87500000 46.87500000 46.87500000 17.95810000 18.89420000 20.57680000
261 47.65630000 47.65630000 47.65630000 18.62290000 19.59360000 21.33860000
262 48.43750000 48.43750000 48.43750000 19.30090000 20.30700000 22.11550000
263 49.21880000 49.21880000 49.21880000 19.99220000 21.03430000 22.90750000
264 50.00000000 50.00000000 50.00000000 20.69670000 21.77560000 23.71480000
265 50.78130000 50.78130000 50.78130000 21.41460000 22.53080000 24.53740000
266 51.56250000 51.56250000 51.56250000 22.14580000 23.30020000 25.37520000
267 52.34380000 52.34380000 52.34380000 22.89050000 24.08360000 26.22850000
268 53.12500000 53.12500000 53.12500000 23.64860000 24.88130000 27.09710000
269 53.90630000 53.90630000 53.90630000 24.42020000 25.69310000 27.98120000
270 54.68750000 54.68750000 54.68750000 25.20530000 26.51910000 28.88080000
271 55.46880000 55.46880000 55.46880000 26.00390000 27.35940000 29.79590000
272 56.25000000 56.25000000 56.25000000 26.81620000 28.21400000 30.72670000
273 57.03130000 57.03130000 57.03130000 27.64210000 29.08300000 31.67300000
274 57.81250000 57.81250000 57.81250000 28.48170000 29.96630000 32.63510000
275 58.59380000 58.59380000 58.59380000 29.33510000 30.86410000 33.61280000
276 59.37500000 59.37500000 59.37500000 30.20210000 31.77640000 34.60630000
277 60.15630000 60.15630000 60.15630000 31.08300000 32.70320000 35.61570000
278 60.93750000 60.93750000 60.93750000 31.97770000 33.64450000 36.64080000
279 61.71880000 61.71880000 61.71880000 32.88620000 34.60040000 37.68190000
280 62.50000000 62.50000000 62.50000000 33.80870000 35.57100000 38.73880000
281 63.28130000 63.28130000 63.28130000 34.74510000 36.55610000 39.81170000
282 64.06250000 64.06250000 64.06250000 35.69540000 37.55600000 40.90070000
283 64.84380000 64.84380000 64.84380000 36.65980000 38.57060000 42.00560000
284 65.62500000 65.62500000 65.62500000 37.63810000 39.60000000 43.12670000
285 66.40630000 66.40630000 66.40630000 38.63060000 40.64420000 44.26390000
286 67.18750000 67.18750000 67.18750000 39.63720000 41.70320000 45.41720000
287 67.96880000 67.96880000 67.96880000 40.65780000 42.77710000 46.58670000
288 68.75000000 68.75000000 68.75000000 41.69270000 43.86590000 47.77250000
289 69.53130000 69.53130000 69.53130000 42.74170000 44.96960000 48.97450000
290 70.31250000 70.31250000 70.31250000 43.80500000 46.08830000 50.19290000
291 71.09380000 71.09380000 71.09380000 44.88260000 47.22210000 51.42750000
292 71.87500000 71.87500000 71.87500000 45.97440000 48.37080000 52.67860000
293 72.65630000 72.65630000 72.65630000 47.08060000 49.53460000 53.94610000
294 73.43750000 73.43750000 73.43750000 48.20110000 50.71360000 55.23000000
295 74.21880000 74.21880000 74.21880000 49.33600000 51.90760000 56.53040000
296 75.00000000 75.00000000 75.00000000 50.48530000 53.11690000 57.84730000
297 75.78130000 75.78130000 75.78130000 51.64910000 54.34130000 59.18080000
298 76.56250000 76.56250000 76.56250000 52.82740000 55.58100000 60.53090000
299 77.34380000 77.34380000 77.34380000 54.02010000 56.83590000 61.89760000
300 78.12500000 78.12500000 78.12500000 55.22740000 58.10610000 63.28090000
301 78.90630000 78.90630000 78.90630000 56.44930000 59.39170000 64.68090000
302 79.68750000 79.68750000 79.68750000 57.68570000 60.69260000 66.09770000
303 80.46880000 80.46880000 80.46880000 58.93680000 62.00890000 67.53120000
