dispcalGUI/ti1/d3-e4-s41-g121-m11-b11-f0.ti1
CTI1   

ORIGINATOR "Argyll targen"
KEYWORD "MULTI_DIM_BCC_STEPS"
MULTI_DIM_BCC_STEPS "11"
CREATED "Sat Oct 19 04:56:23 2013"
KEYWORD "COMP_GREY_STEPS"
COMP_GREY_STEPS "121"
KEYWORD "BLACK_COLOR_PATCHES"
BLACK_COLOR_PATCHES "4"
KEYWORD "APPROX_WHITE_POINT"
APPROX_WHITE_POINT "95.106486 100.000000 108.844025"
DESCRIPTOR "Argyll Calibration Target chart information 1"
KEYWORD "MULTI_DIM_STEPS"
MULTI_DIM_STEPS "11"
KEYWORD "WHITE_COLOR_PATCHES"
WHITE_COLOR_PATCHES "4"
KEYWORD "SINGLE_DIM_STEPS"
SINGLE_DIM_STEPS "41"
KEYWORD "COLOR_REP"
COLOR_REP "RGB"

NUMBER_OF_FIELDS 7
BEGIN_DATA_FORMAT
SAMPLE_ID RGB_R RGB_G RGB_B XYZ_X XYZ_Y XYZ_Z
END_DATA_FORMAT

NUMBER_OF_SETS 2527
BEGIN_DATA
1 100.0000 100.0000 100.0000 95.10650 100.0000 108.8440
2 0.000000 75.00000 0.000000 19.50000 37.99480 7.166710
3 0.000000 87.50000 0.000000 27.15900 53.31060 9.719720
4 0.000000 92.50000 0.000000 30.66220 60.31620 10.88750
5 0.000000 30.00000 10.00000 3.772160 6.256990 2.807790
6 10.00000 30.00000 0.000000 4.002270 6.396360 1.883530
7 30.00000 30.00000 10.00000 6.762520 7.798830 2.947920
8 35.83330 35.83330 35.83330 10.92970 11.44600 12.37920
9 36.66670 36.66670 36.66670 11.41690 11.95860 12.93760
10 55.00000 65.00000 45.00000 28.25510 34.67030 22.05170
11 0.000000 12.50000 0.000000 1.508060 2.015980 1.169350
12 0.000000 10.00000 10.00000 1.533980 1.781260 2.061730
13 10.00000 0.000000 10.00000 1.588350 1.282640 1.962610
14 15.00000 0.000000 0.000000 1.800540 1.412760 1.037510
15 17.50000 0.000000 0.000000 2.055170 1.544050 1.049440
16 20.00000 0.000000 0.000000 2.351670 1.696930 1.063340
17 20.00000 0.000000 10.00000 2.530790 1.768560 2.006780
18 20.00000 10.00000 0.000000 2.706530 2.406550 1.181620
19 20.00000 10.00000 10.00000 2.885650 2.478180 2.125060
20 22.50000 0.000000 0.000000 2.691820 1.872310 1.079280
21 25.00000 0.000000 0.000000 3.077280 2.071050 1.097340
22 40.00000 10.00000 0.000000 6.779900 4.506790 1.372500
23 40.00000 10.00000 10.00000 6.959020 4.578420 2.315930
24 40.00000 0.000000 0.000000 6.425040 3.797170 1.254210
25 40.00000 0.000000 10.00000 6.604160 3.868800 2.197650
26 50.00000 10.00000 0.000000 10.09420 6.215650 1.527800
27 50.00000 10.00000 10.00000 10.27330 6.287290 2.471240
28 50.00000 0.000000 0.000000 9.739340 5.506030 1.409510
29 50.00000 0.000000 10.00000 9.918460 5.577670 2.352950
30 60.00000 10.00000 0.000000 14.36120 8.415720 1.727740
31 60.00000 10.00000 10.00000 14.54030 8.487360 2.671180
32 60.00000 0.000000 0.000000 14.00630 7.706100 1.609450
33 60.00000 0.000000 10.00000 14.18540 7.777740 2.552890
34 70.00000 10.00000 0.000000 19.64630 11.14070 1.975390
35 70.00000 10.00000 10.00000 19.82540 11.21240 2.918830
36 70.00000 0.000000 0.000000 19.29140 10.43110 1.857110
37 70.00000 0.000000 10.00000 19.47060 10.50280 2.800540
38 80.00000 10.00000 0.000000 26.00920 14.42150 2.273550
39 80.00000 10.00000 10.00000 26.18840 14.49310 3.216990
40 80.00000 0.000000 0.000000 25.65440 13.71190 2.155260
41 80.00000 0.000000 10.00000 25.83350 13.78350 3.098700
42 90.00000 10.00000 0.000000 33.50500 18.28640 2.624790
43 90.00000 10.00000 10.00000 33.68420 18.35800 3.568230
44 90.00000 0.000000 0.000000 33.15020 17.57670 2.506500
45 90.00000 0.000000 10.00000 33.32930 17.64840 3.449940
46 92.50000 0.000000 0.000000 35.20720 18.63740 2.602890
47 95.00000 0.000000 0.000000 37.33910 19.73650 2.702790
48 35.00000 15.00000 25.00000 6.706070 4.867140 6.212550
49 10.83330 10.83330 10.83330 2.069530 2.125150 2.225660
50 0.000000 0.000000 2.500000 1.034580 1.013830 1.182140
51 0.000000 5.000000 0.000000 1.139350 1.278670 1.046450
52 0.000000 7.500000 0.000000 1.232660 1.465260 1.077550
53 10.00000 10.00000 0.000000 1.764090 1.920620 1.137460
54 0.000000 15.00000 0.000000 1.694180 2.388160 1.231390
55 0.000000 17.50000 0.000000 1.914970 2.829690 1.304990
56 0.000000 20.00000 0.000000 2.172080 3.343830 1.390700
57 0.000000 22.50000 0.000000 2.467040 3.933660 1.489020
58 0.000000 25.00000 0.000000 2.801280 4.602050 1.600430
59 0.000000 27.50000 0.000000 3.176180 5.351750 1.725400
60 0.000000 32.50000 0.000000 4.053110 7.105360 2.017710
61 0.000000 35.00000 0.000000 4.557570 8.114140 2.185870
62 0.000000 37.50000 0.000000 5.107580 9.214000 2.369200
63 0.000000 40.00000 10.00000 5.883350 10.47880 3.511530
64 0.000000 40.00000 0.000000 5.704230 10.40710 2.568090
65 0.000000 45.00000 0.000000 7.041720 13.08170 3.013920
66 0.000000 47.50000 0.000000 7.784590 14.56730 3.261550
67 0.000000 50.00000 10.00000 8.757290 16.22590 4.469520
68 0.000000 50.00000 0.000000 8.578170 16.15420 3.526080
69 0.000000 52.50000 0.000000 9.423420 17.84450 3.807830
70 0.000000 55.00000 0.000000 10.32120 19.63990 4.107110
71 0.000000 57.50000 0.000000 11.27260 21.54220 4.424210
72 0.000000 60.00000 0.000000 12.27820 23.55330 4.759440
73 0.000000 62.50000 0.000000 13.33910 25.67470 5.113060
74 0.000000 70.00000 10.00000 17.04020 32.78940 7.230520
75 10.00000 70.00000 0.000000 17.27040 32.92880 6.306260
76 0.000000 70.00000 0.000000 16.86110 32.71780 6.287090
77 0.000000 72.50000 0.000000 18.15100 35.29710 6.717030
78 0.000000 77.50000 0.000000 20.90900 40.81240 7.636380
79 10.00000 80.00000 0.000000 22.78790 43.96230 8.145450
80 0.000000 80.00000 0.000000 22.37860 43.75130 8.126270
81 0.000000 82.50000 0.000000 23.90970 46.81300 8.636640
82 0.000000 85.00000 0.000000 25.50290 49.99900 9.167710
83 10.00000 90.00000 0.000000 29.28770 56.96020 10.31210
84 0.000000 90.00000 0.000000 28.87850 56.74920 10.29290
85 0.000000 95.00000 0.000000 32.51080 64.01280 11.50370
86 0.000000 97.50000 0.000000 34.42490 67.84050 12.14170
87 10.00000 100.0000 0.000000 36.81440 72.01150 12.82100
88 0.000000 100.0000 0.000000 36.40520 71.80050 12.80180
89 0.000000 10.00000 0.000000 1.354860 1.709620 1.118290
90 0.833333 0.833333 0.833333 1.060700 1.063850 1.069560
91 0.000000 0.000000 5.000000 1.070340 1.028130 1.370490
92 0.000000 0.000000 7.500000 1.117440 1.046970 1.618560
93 0.000000 0.000000 12.50000 1.256450 1.102560 2.350740
94 0.000000 0.000000 15.00000 1.350390 1.140130 2.845550
95 0.000000 0.000000 17.50000 1.461840 1.184710 3.432560
96 0.000000 0.000000 20.00000 1.591620 1.236610 4.116120
97 0.000000 0.000000 22.50000 1.740500 1.296150 4.900290
98 0.000000 0.000000 25.00000 1.909210 1.363630 5.788910
99 0.000000 0.000000 27.50000 2.098450 1.439310 6.785630
100 0.000000 0.000000 30.00000 2.308860 1.523460 7.893910
101 0.000000 0.000000 32.50000 2.541080 1.616340 9.117050
102 0.000000 0.000000 35.00000 2.795720 1.718170 10.45820
103 0.000000 0.000000 37.50000 3.073340 1.829200 11.92050
104 0.000000 0.000000 40.00000 3.374500 1.949650 13.50680
105 0.000000 0.000000 42.50000 3.699760 2.079730 15.21990
106 0.000000 0.000000 45.00000 4.049610 2.219650 17.06260
107 0.000000 0.000000 47.50000 4.424580 2.369620 19.03760
108 0.000000 0.000000 50.00000 4.825150 2.529820 21.14750
109 0.000000 0.000000 52.50000 5.251800 2.700450 23.39470
110 0.000000 0.000000 55.00000 5.704990 2.881700 25.78170
111 0.000000 0.000000 57.50000 6.185170 3.073740 28.31080
112 0.000000 0.000000 60.00000 6.692780 3.276750 30.98450
113 0.000000 0.000000 62.50000 7.228260 3.490910 33.80490
114 0.000000 0.000000 65.00000 7.792030 3.716380 36.77430
115 0.000000 0.000000 67.50000 8.384490 3.953330 39.89490
116 0.000000 0.000000 70.00000 9.006050 4.201910 43.16870
117 0.000000 0.000000 72.50000 9.657100 4.462290 46.59790
118 0.000000 0.000000 75.00000 10.33800 4.734630 50.18440
119 0.000000 0.000000 77.50000 11.04920 5.019060 53.93040
120 0.000000 0.000000 80.00000 11.79110 5.315740 57.83760
121 0.000000 0.000000 82.50000 12.56390 5.624830 61.90820
122 0.000000 0.000000 85.00000 13.36810 5.946450 66.14390
123 0.000000 0.000000 87.50000 14.20400 6.280760 70.54670
124 0.000000 0.000000 90.00000 15.07190 6.627880 75.11830
125 0.000000 0.000000 92.50000 15.97230 6.987970 79.86060
126 0.000000 0.000000 95.00000 16.90540 7.361150 84.77530
127 0.000000 0.000000 97.50000 17.87150 7.747550 89.86420
128 0.000000 0.000000 100.0000 18.87110 8.147310 95.12900
129 0.000000 0.000000 10.00000 1.179120 1.071640 1.943440
130 1.666670 1.666670 1.666670 1.121400 1.127710 1.139120
131 2.500000 2.500000 2.500000 1.182090 1.191560 1.208680
132 3.333330 3.333330 3.333330 1.242790 1.255420 1.278240
133 10.00000 0.000000 0.000000 1.409230 1.211000 1.019180
134 4.166670 4.166670 4.166670 1.303720 1.319520 1.348060
135 5.000000 5.000000 5.000000 1.370400 1.389660 1.424470
136 5.833330 5.833330 5.833330 1.444910 1.468050 1.509860
137 6.666670 6.666670 6.666670 1.527500 1.554930 1.604510
138 7.500000 7.500000 7.500000 1.618410 1.650570 1.708690
139 8.333330 8.333330 8.333330 1.717860 1.755190 1.822650
140 7.500000 0.000000 0.000000 1.268310 1.138340 1.012570
141 5.000000 0.000000 0.000000 1.160710 1.082860 1.007530
142 0.000000 2.500000 0.000000 1.068510 1.137000 1.022840
143 9.166670 9.166670 9.166670 1.826060 1.869010 1.946640
144 12.50000 12.50000 12.50000 2.350420 2.420640 2.547550
145 13.33330 13.33330 13.33330 2.505350 2.583630 2.725100
146 14.16670 14.16670 14.16670 2.670200 2.757050 2.914010
147 15.83330 15.83330 15.83330 3.030270 3.135850 3.326650
148 16.66670 16.66670 16.66670 3.225840 3.341590 3.550770
149 17.50000 17.50000 17.50000 3.431980 3.558450 3.787000
150 18.33330 18.33330 18.33330 3.648850 3.786590 4.035520
151 19.16670 19.16670 19.16670 3.876600 4.026180 4.296520
152 20.00000 20.00000 20.00000 4.115370 4.277370 4.570150
153 20.83330 20.83330 20.83330 4.365330 4.540330 4.856600
154 21.66670 21.66670 21.66670 4.626610 4.815190 5.156020
155 22.50000 22.50000 22.50000 4.899360 5.102120 5.468580
156 23.33330 23.33330 23.33330 5.183710 5.401260 5.794440
157 24.16670 24.16670 24.16670 5.479800 5.712750 6.133760
158 25.00000 25.00000 25.00000 5.787770 6.036730 6.486680
159 25.83330 25.83330 25.83330 6.107750 6.373350 6.853370
160 26.66670 26.66670 26.66670 6.439870 6.722740 7.233970
161 27.50000 27.50000 27.50000 6.784250 7.085030 7.628630
162 28.33330 28.33330 28.33330 7.141030 7.460360 8.037490
163 29.16670 29.16670 29.16670 7.510320 7.848860 8.460690
164 30.00000 30.00000 30.00000 7.892260 8.250660 8.898380
165 30.83330 30.83330 30.83330 8.286960 8.665880 9.350700
166 31.66670 31.66670 31.66670 8.694530 9.094650 9.817770
167 32.50000 32.50000 32.50000 9.115110 9.537090 10.29970
168 33.33330 33.33330 33.33330 9.548790 9.993330 10.79670
169 34.16670 34.16670 34.16670 9.995710 10.46350 11.30890
170 35.00000 35.00000 35.00000 10.45600 10.94770 11.83630
171 11.66670 11.66670 11.66670 2.205200 2.267870 2.381140
172 0.000000 0.000000 0.000000 1.000000 1.000000 1.000000
173 37.50000 37.50000 37.50000 11.91790 12.48560 13.51160
174 38.33330 38.33330 38.33330 12.43260 13.02710 14.10150
175 39.16670 39.16670 39.16670 12.96120 13.58320 14.70730
176 40.00000 40.00000 40.00000 13.50380 14.15400 15.32910
177 40.83330 40.83330 40.83330 14.06050 14.73960 15.96700
178 41.66670 41.66670 41.66670 14.63130 15.34020 16.62120
179 42.50000 42.50000 42.50000 15.21650 15.95580 17.29180
180 43.33330 43.33330 43.33330 15.81610 16.58650 17.97890
181 44.16670 44.16670 44.16670 16.43010 17.23250 18.68260
182 45.00000 45.00000 45.00000 17.05880 17.89380 19.40300
183 45.83330 45.83330 45.83330 17.70210 18.57070 20.14030
184 46.66670 46.66670 46.66670 18.36030 19.26300 20.89450
185 47.50000 47.50000 47.50000 19.03330 19.97110 21.66580
186 48.33330 48.33330 48.33330 19.72130 20.69480 22.45420
187 49.16670 49.16670 49.16670 20.42440 21.43450 23.26000
188 50.00000 50.00000 50.00000 21.14270 22.19010 24.08310
189 50.83330 50.83330 50.83330 21.87620 22.96170 24.92360
190 51.66670 51.66670 51.66670 22.62500 23.74950 25.78180
191 52.50000 52.50000 52.50000 23.38930 24.55360 26.65770
192 53.33330 53.33330 53.33330 24.16910 25.37390 27.55130
193 54.16670 54.16670 54.16670 24.96460 26.21070 28.46290
194 55.00000 55.00000 55.00000 25.77570 27.06410 29.39250
195 55.83330 55.83330 55.83330 26.60270 27.93400 30.34010
196 56.66670 56.66670 56.66670 27.44550 28.82070 31.30600
197 57.50000 57.50000 57.50000 28.30430 29.72410 32.29010
198 58.33330 58.33330 58.33330 29.17910 30.64440 33.29270
199 59.16670 59.16670 59.16670 30.07010 31.58180 34.31370
200 60.00000 60.00000 60.00000 30.97730 32.53610 35.35340
201 60.83330 60.83330 60.83330 31.90080 33.50770 36.41170
202 61.66670 61.66670 61.66670 32.84070 34.49640 37.48880
203 62.50000 62.50000 62.50000 33.79710 35.50250 38.58470
204 63.33330 63.33330 63.33330 34.77000 36.52600 39.69970
205 64.16670 64.16670 64.16670 35.75950 37.56700 40.83370
206 65.00000 65.00000 65.00000 36.76580 38.62560 41.98680
207 65.83330 65.83330 65.83330 37.78880 39.70180 43.15920
208 66.66670 66.66670 66.66670 38.82870 40.79580 44.35090
209 67.50000 67.50000 67.50000 39.88560 41.90760 45.56200
210 68.33330 68.33330 68.33330 40.95950 43.03730 46.79270
211 69.16670 69.16670 69.16670 42.05040 44.18510 48.04290
212 70.00000 70.00000 70.00000 43.15860 45.35090 49.31290
213 70.83330 70.83330 70.83330 44.28400 46.53480 50.60260
214 71.66670 71.66670 71.66670 45.42680 47.73700 51.91220
215 72.50000 72.50000 72.50000 46.58700 48.95750 53.24170
216 73.33330 73.33330 73.33330 47.76460 50.19640 54.59130
217 74.16670 74.16670 74.16670 48.95980 51.45370 55.96090
218 75.00000 75.00000 75.00000 50.17270 52.72960 57.35080
219 75.83330 75.83330 75.83330 51.40320 54.02420 58.76100
220 76.66670 76.66670 76.66670 52.65150 55.33740 60.19160
221 77.50000 77.50000 77.50000 53.91770 56.66940 61.64260
222 78.33330 78.33330 78.33330 55.20180 58.02030 63.11410
223 79.16670 79.16670 79.16670 56.50390 59.39010 64.60630
224 80.00000 80.00000 80.00000 57.82410 60.77890 66.11920
225 80.83330 80.83330 80.83330 59.16240 62.18680 67.65280
226 81.66670 81.66670 81.66670 60.51890 63.61380 69.20740
227 82.50000 82.50000 82.50000 61.89370 65.06010 70.78280
228 83.33330 83.33330 83.33330 63.28680 66.52570 72.37930
229 84.16670 84.16670 84.16670 64.69830 68.01060 73.99690
230 85.00000 85.00000 85.00000 66.12840 69.51500 75.63570
231 85.83330 85.83330 85.83330 67.57700 71.03900 77.29580
232 86.66670 86.66670 86.66670 69.04420 72.58250 78.97720
233 87.50000 87.50000 87.50000 70.53010 74.14560 80.68000
234 88.33330 88.33330 88.33330 72.03470 75.72850 82.40430
235 89.16670 89.16670 89.16670 73.55820 77.33120 84.15020
236 90.00000 90.00000 90.00000 75.10060 78.95380 85.91770
237 90.83330 90.83330 90.83330 76.66190 80.59630 87.70700
238 91.66670 91.66670 91.66670 78.24230 82.25890 89.51800
239 92.50000 92.50000 92.50000 79.84170 83.94150 91.35100
240 93.33330 93.33330 93.33330 81.46030 85.64430 93.20580
241 94.16670 94.16670 94.16670 83.09820 87.36730 95.08280
242 95.00000 95.00000 95.00000 84.75530 89.11050 96.98180
243 95.83330 95.83330 95.83330 86.43170 90.87420 98.90290
244 96.66670 96.66670 96.66670 88.12760 92.65820 100.8460
245 97.50000 97.50000 97.50000 89.84300 94.46280 102.8120
246 15.00000 15.00000 15.00000 2.845110 2.941060 3.114460
247 10.00000 10.00000 10.00000 1.943210 1.992260 2.080900
248 12.50000 0.000000 0.000000 1.585910 1.302100 1.027450
249 37.50000 0.000000 0.000000 5.736960 3.442390 1.221970
250 42.50000 0.000000 0.000000 7.168140 4.180310 1.289030
251 45.00000 0.000000 0.000000 7.967460 4.592450 1.326480
252 67.50000 0.000000 0.000000 17.87140 9.698930 1.790560
253 72.50000 0.000000 0.000000 20.77890 11.19810 1.926810
254 82.50000 0.000000 0.000000 27.42010 14.62230 2.238000
255 85.00000 0.000000 0.000000 29.25740 15.56960 2.324090
256 87.50000 0.000000 0.000000 31.16720 16.55430 2.413580
257 85.00000 5.000000 35.00000 31.19240 16.56640 11.82880
258 10.00000 20.00000 10.00000 2.760430 3.626470 2.353310
259 10.00000 20.00000 0.000000 2.581310 3.554840 1.409870
260 0.000000 20.00000 10.00000 2.351200 3.415470 2.334140
261 50.00000 20.00000 10.00000 11.09050 7.921500 2.743650
262 50.00000 20.00000 0.000000 10.91140 7.849860 1.800210
263 70.00000 20.00000 10.00000 20.64260 12.84660 3.191240
264 70.00000 20.00000 0.000000 20.46350 12.77500 2.247800
265 90.00000 20.00000 10.00000 34.50140 19.99220 3.840640
266 100.0000 20.00000 10.00000 43.18140 24.46760 4.247370
267 100.0000 20.00000 0.000000 43.00230 24.39600 3.303930
268 30.00000 20.00000 10.00000 5.341560 4.957310 2.474260
269 30.00000 20.00000 0.000000 5.162440 4.885670 1.530820
270 30.00000 30.00000 0.000000 6.583400 7.727190 2.004480
271 50.00000 30.00000 10.00000 12.51150 10.76300 3.217300
272 50.00000 30.00000 0.000000 12.33240 10.69140 2.273860
273 70.00000 30.00000 10.00000 22.06360 15.68810 3.664900
274 70.00000 30.00000 0.000000 21.88450 15.61650 2.721460
275 90.00000 30.00000 10.00000 35.92230 22.83370 4.314290
276 90.00000 30.00000 0.000000 35.74320 22.76210 3.370860
277 100.0000 30.00000 0.000000 44.42320 27.23750 3.777580
278 100.0000 30.00000 10.00000 44.60230 27.30920 4.721020
279 30.00000 40.00000 10.00000 8.873710 12.02060 3.651650
280 30.00000 40.00000 0.000000 8.694590 11.94900 2.708210
281 50.00000 40.00000 10.00000 14.62270 14.98480 3.921040
282 50.00000 40.00000 0.000000 14.44360 14.91320 2.977600
283 70.00000 40.00000 10.00000 24.17480 19.90990 4.368630
284 70.00000 40.00000 0.000000 23.99570 19.83830 3.425200
285 90.00000 40.00000 10.00000 38.03350 27.05550 5.018030
286 100.0000 40.00000 10.00000 46.71350 31.53100 5.424760
287 100.0000 40.00000 0.000000 46.53440 31.45930 4.481320
288 75.00000 45.00000 15.00000 28.72680 24.22210 5.859180
289 30.00000 50.00000 10.00000 11.74760 17.76770 4.609640
290 30.00000 50.00000 0.000000 11.56850 17.69610 3.666200
291 50.00000 50.00000 10.00000 17.49660 20.73190 4.879030
292 50.00000 50.00000 0.000000 17.31750 20.66030 3.935590
293 70.00000 50.00000 10.00000 27.04870 25.65700 5.326620
294 70.00000 50.00000 0.000000 26.86960 25.58540 4.383180
295 90.00000 50.00000 10.00000 40.90750 32.80260 5.976020
296 100.0000 50.00000 10.00000 49.58750 37.27800 6.382750
297 100.0000 50.00000 0.000000 49.40830 37.20640 5.439310
298 20.00000 60.00000 10.00000 13.80900 24.32180 5.766210
299 20.00000 60.00000 0.000000 13.62990 24.25020 4.822770
300 40.00000 60.00000 10.00000 17.88240 26.42210 5.957080
301 40.00000 60.00000 0.000000 17.70330 26.35040 5.013640
302 60.00000 60.00000 10.00000 25.46370 30.33100 6.312330
303 60.00000 60.00000 0.000000 25.28450 30.25940 5.368890
304 80.00000 60.00000 10.00000 37.11170 36.33680 6.858140
305 80.00000 60.00000 0.000000 36.93260 36.26520 5.914700
306 90.00000 60.00000 10.00000 44.60750 40.20160 7.209380
307 98.33330 98.33330 98.33330 91.57780 96.28790 104.8000
308 99.16670 99.16670 99.16670 93.33230 98.13360 106.8110
309 0.000000 42.50000 0.000000 6.348600 11.69570 2.782880
310 20.00000 70.00000 0.000000 18.21280 33.41470 6.350420
311 40.00000 70.00000 0.000000 22.28620 35.51500 6.541290
312 50.00000 70.00000 0.000000 25.60050 37.22380 6.696600
313 50.00000 70.00000 30.00000 26.90930 37.74730 13.59050
314 0.000000 0.000000 0.000000 1.000000 1.000000 1.000000
315 60.00000 70.00000 0.000000 29.86740 39.42390 6.896540
316 70.00000 70.00000 0.000000 35.15260 42.14890 7.144190
317 80.00000 70.00000 0.000000 41.51550 45.42970 7.442350
318 90.00000 90.00000 0.000000 61.02870 73.32590 11.79940
319 30.00000 70.00000 0.000000 19.85150 34.25970 6.427210
320 30.00000 80.00000 0.000000 25.36900 45.29310 8.266390
321 40.00000 80.00000 0.000000 27.80370 46.54850 8.380480
322 50.00000 80.00000 0.000000 31.11800 48.25730 8.535780
323 60.00000 80.00000 0.000000 35.38500 50.45740 8.735720
324 70.00000 80.00000 0.000000 40.67010 53.18240 8.983380
325 80.00000 80.00000 0.000000 47.03300 56.46320 9.281530
326 90.00000 80.00000 0.000000 54.52880 60.32800 9.632770
327 100.0000 80.00000 0.000000 63.20880 64.80350 10.03950
328 100.0000 90.00000 0.000000 69.70870 77.80140 12.20610
329 20.00000 80.00000 0.000000 23.73030 44.44820 8.189610
330 30.00000 90.00000 0.000000 31.86890 58.29100 10.43300
331 40.00000 90.00000 0.000000 34.30350 59.54640 10.54710
332 50.00000 90.00000 0.000000 37.61780 61.25520 10.70240
333 60.00000 90.00000 0.000000 41.88480 63.45530 10.90240
334 70.00000 90.00000 0.000000 47.16990 66.18030 11.15000
335 80.00000 90.00000 0.000000 53.53290 69.46110 11.44820
336 0.000000 65.00000 0.000000 14.45600 27.90820 5.485360
337 0.000000 67.50000 0.000000 15.62970 30.25540 5.876620
338 20.00000 90.00000 0.000000 30.23020 57.44610 10.35620
339 20.00000 100.0000 0.000000 37.75690 72.49740 12.86520
340 30.00000 100.0000 0.000000 39.39560 73.34240 12.94200
341 40.00000 100.0000 0.000000 41.83020 74.59770 13.05600
342 50.00000 100.0000 0.000000 45.14450 76.30650 13.21130
343 60.00000 100.0000 0.000000 49.41150 78.50660 13.41130
344 70.00000 100.0000 0.000000 54.69670 81.23160 13.65890
345 80.00000 100.0000 0.000000 61.05960 84.51240 13.95710
346 90.00000 100.0000 0.000000 68.55540 88.37730 14.30830
347 100.0000 100.0000 0.000000 77.23540 92.85270 14.71510
348 27.50000 0.000000 0.000000 3.509620 2.293970 1.117600
349 32.50000 0.000000 0.000000 4.520920 2.815400 1.164980
350 35.00000 0.000000 0.000000 5.102680 3.115350 1.192240
351 55.00000 0.000000 0.000000 11.74950 6.542480 1.503700
352 57.50000 0.000000 0.000000 12.84660 7.108130 1.555110
353 62.50000 0.000000 0.000000 15.22970 8.336900 1.666780
354 65.00000 0.000000 0.000000 16.51780 9.001010 1.727140
355 97.50000 0.000000 0.000000 39.54650 20.87470 2.806220
356 100.0000 10.00000 10.00000 42.36410 22.83340 3.974960
357 100.0000 0.000000 10.00000 42.00930 22.12380 3.856670
358 100.0000 10.00000 0.000000 42.18500 22.76180 3.031520
359 100.0000 0.000000 0.000000 41.83020 22.05220 2.913230
360 30.00000 0.000000 10.00000 4.169480 2.613480 2.083560
361 30.00000 10.00000 0.000000 4.345220 3.251460 1.258410
362 30.00000 0.000000 0.000000 3.990360 2.541840 1.140120
363 30.00000 10.00000 10.00000 4.524340 3.323100 2.201850
364 47.50000 0.000000 0.000000 8.824150 5.034160 1.366630
365 52.50000 0.000000 0.000000 10.71410 6.008620 1.455190
366 75.00000 0.000000 0.000000 22.33460 12.00020 1.999700
367 77.50000 0.000000 0.000000 23.95950 12.83800 2.075840
368 90.00000 70.00000 0.000000 49.01130 49.29450 7.793590
369 100.0000 70.00000 0.000000 57.69130 53.77000 8.200320
370 20.00000 20.00000 10.00000 3.702870 4.112400 2.397470
371 20.00000 20.00000 0.000000 3.523750 4.040760 1.454030
372 40.00000 20.00000 10.00000 7.776240 6.212640 2.588340
373 40.00000 20.00000 0.000000 7.597120 6.141000 1.644900
374 60.00000 20.00000 10.00000 15.35750 10.12160 2.943590
375 60.00000 20.00000 0.000000 15.17840 10.04990 2.000150
376 80.00000 20.00000 10.00000 27.00560 16.12730 3.489400
377 80.00000 20.00000 0.000000 26.82650 16.05570 2.545960
378 90.00000 20.00000 0.000000 34.32230 19.92060 2.897200
379 0.000000 30.00000 0.000000 3.593040 6.185360 1.864350
380 10.00000 30.00000 10.00000 4.181390 6.467990 2.826970
381 20.00000 30.00000 10.00000 5.123830 6.953920 2.871130
382 20.00000 30.00000 0.000000 4.944710 6.882280 1.927690
383 40.00000 30.00000 10.00000 9.197200 9.054160 3.062000
384 40.00000 30.00000 0.000000 9.018080 8.982520 2.118560
385 60.00000 30.00000 10.00000 16.77850 12.96310 3.417250
386 60.00000 30.00000 0.000000 16.59940 12.89150 2.473810
387 80.00000 30.00000 10.00000 28.42650 18.96890 3.963050
388 80.00000 30.00000 0.000000 28.24740 18.89720 3.019610
389 80.00000 80.00000 60.00000 52.72580 58.73990 39.26600
390 10.00000 40.00000 0.000000 6.113460 10.61810 2.587270
391 10.00000 40.00000 10.00000 6.292580 10.68980 3.530700
392 20.00000 40.00000 10.00000 7.235020 11.17570 3.574870
393 20.00000 40.00000 0.000000 7.055900 11.10410 2.631430
394 40.00000 40.00000 10.00000 11.30840 13.27590 3.765740
395 40.00000 40.00000 0.000000 11.12930 13.20430 2.822300
396 60.00000 40.00000 10.00000 18.88970 17.18490 4.120980
