dispcalGUI/ti1/d3-e4-s5-g17-m0-f0-cubic2-crossover.ti1
CTI1   

ORIGINATOR "Argyll targen"
KEYWORD "OFPS_PATCHES"
OFPS_PATCHES "36"
CREATED "Wed Oct 16 18:55:45 2013"
KEYWORD "COMP_GREY_STEPS"
COMP_GREY_STEPS "17"
KEYWORD "APPROX_WHITE_POINT"
APPROX_WHITE_POINT "95.045781 100.000003 108.905751"
DESCRIPTOR "Argyll Calibration Target chart information 1"
KEYWORD "ACCURATE_EXPECTED_VALUES"
ACCURATE_EXPECTED_VALUES "true"
KEYWORD "WHITE_COLOR_PATCHES"
WHITE_COLOR_PATCHES "4"
KEYWORD "SINGLE_DIM_STEPS"
SINGLE_DIM_STEPS "5"
KEYWORD "COLOR_REP"
COLOR_REP "RGB"

NUMBER_OF_FIELDS 7
BEGIN_DATA_FORMAT
SAMPLE_ID RGB_R RGB_G RGB_B XYZ_X XYZ_Y XYZ_Z
END_DATA_FORMAT

NUMBER_OF_SETS 68
BEGIN_DATA
1 100.0000 100.0000 100.0000 95.04600 100.0000 108.9100
2 100.0000 100.0000 100.0000 95.04600 100.0000 108.9100
3 100.0000 100.0000 100.0000 95.04600 100.0000 108.9100
4 100.0000 100.0000 100.0000 95.04600 100.0000 108.9100
5 0.000000 0.000000 0.000000 0.000000 0.000000 0.000000
6 25.00000 0.000000 0.000000 2.098300 1.081700 0.098229
7 75.00000 0.000000 0.000000 21.54800 11.10900 1.008800
8 0.000000 25.00000 0.000000 1.819400 3.639000 0.606530
9 0.000000 75.00000 0.000000 18.68400 37.37100 6.228800
10 0.000000 0.000000 25.00000 0.918410 0.367390 4.836500
11 0.000000 0.000000 75.00000 9.431600 3.772900 49.66900
12 6.250000 6.250000 6.250000 0.489660 0.515180 0.561060
13 12.50000 12.50000 12.50000 1.364000 1.435100 1.562900
14 18.75000 18.75000 18.75000 2.788400 2.933700 3.195000
15 25.00000 25.00000 25.00000 4.836000 5.088100 5.541300
16 31.25000 31.25000 31.25000 7.564300 7.958600 8.667400
17 37.50000 37.50000 37.50000 11.02700 11.60200 12.63500
18 43.75000 43.75000 43.75000 15.27200 16.06800 17.49900
19 50.00000 50.00000 50.00000 20.34400 21.40500 23.31100
20 56.25000 56.25000 56.25000 26.28100 27.65100 30.11400
21 62.50000 62.50000 62.50000 33.12400 34.85100 37.95500
22 68.75000 68.75000 68.75000 40.90700 43.03900 46.87200
23 75.00000 75.00000 75.00000 49.66400 52.25300 56.90600
24 81.25000 81.25000 81.25000 59.42600 62.52400 68.09200
25 87.50000 87.50000 87.50000 70.22400 73.88500 80.46500
26 93.75000 93.75000 93.75000 82.08800 86.36700 94.05800
27 0.000000 0.000000 50.00000 4.825152 2.529819 21.14747
28 0.000000 0.000000 100.0000 18.87111 8.147314 95.12896
29 0.000000 50.00000 0.000000 8.578171 16.15422 3.526078
30 0.000000 50.00000 50.00000 12.40332 17.68404 23.67355
31 0.000000 50.00000 100.0000 26.44928 23.30154 97.65504
32 0.000000 100.0000 0.000000 36.40521 71.80052 12.80184
33 0.000000 100.0000 50.00000 40.23036 73.33034 32.94931
34 0.000000 100.0000 100.0000 54.27632 78.94783 106.9308
35 25.00000 25.00000 75.00000 14.21660 9.407731 50.88218
36 25.00000 75.00000 25.00000 22.48648 39.42948 12.05296
37 25.00000 75.00000 75.00000 30.91530 42.80047 56.44846
38 50.00000 0.000000 0.000000 9.739336 5.506030 1.409510
39 50.00000 0.000000 50.00000 13.56449 7.035849 21.55698
40 50.00000 0.000000 100.0000 27.61044 12.65334 95.53847
41 50.00000 50.00000 0.000000 17.31751 20.66025 3.935588
42 50.00000 50.00000 100.0000 35.18861 27.80757 98.06455
43 50.00000 100.0000 0.000000 45.14454 76.30655 13.21135
44 50.00000 100.0000 50.00000 48.96970 77.83637 33.35882
45 50.00000 100.0000 100.0000 63.01565 83.45386 107.3403
46 75.00000 25.00000 25.00000 25.04513 15.96589 7.389049
47 75.00000 25.00000 75.00000 33.47396 19.33689 51.78455
48 75.00000 75.00000 25.00000 41.74384 49.35864 12.95533
49 100.0000 0.000000 0.000000 41.83017 22.05217 2.913230
50 100.0000 0.000000 50.00000 45.65532 23.58199 23.06070
51 100.0000 0.000000 100.0000 59.70128 29.19948 97.04219
52 100.0000 50.00000 0.000000 49.40834 37.20639 5.439309
53 100.0000 50.00000 50.00000 53.23349 38.73621 25.58678
54 100.0000 50.00000 100.0000 67.27945 44.35371 99.56827
55 100.0000 100.0000 0.000000 77.23538 92.85269 14.71507
56 100.0000 100.0000 50.00000 81.06053 94.38251 34.86254
57 0.000000 12.50000 100.0000 19.37917 9.163293 95.29831
58 12.50000 0.000000 100.0000 19.45702 8.449410 95.15641
59 0.000000 100.0000 12.50000 36.66166 71.90308 14.15257
60 12.50000 100.0000 0.000000 36.99112 72.10261 12.82929
61 100.0000 0.000000 12.50000 42.08662 22.15473 4.263969
62 100.0000 12.50000 0.000000 42.33823 23.06815 3.082585
63 0.000000 25.00000 100.0000 20.67239 11.74937 95.72939
64 25.00000 0.000000 100.0000 20.94839 9.218366 95.22630
65 0.000000 100.0000 25.00000 37.31442 72.16414 17.59075
66 25.00000 100.0000 0.000000 38.48249 72.87157 12.89917
67 100.0000 0.000000 25.00000 42.73938 22.41580 7.702144
68 100.0000 25.00000 0.000000 43.63145 25.65422 3.513662
END_DATA
CTI1   

ORIGINATOR "Argyll targen"
KEYWORD "DENSITY_EXTREME_VALUES"
DENSITY_EXTREME_VALUES "8"
CREATED "October 16, 2013"
DESCRIPTOR "Argyll Calibration Target chart information 1"

KEYWORD "INDEX"
NUMBER_OF_FIELDS 7
BEGIN_DATA_FORMAT
INDEX RGB_R RGB_G RGB_B XYZ_X XYZ_Y XYZ_Z
END_DATA_FORMAT

NUMBER_OF_SETS 8
BEGIN_DATA
0 100.000 100.000 100.000 95.0460 100.000 108.910
1 0.00000 46.3070 100.000 24.5380 20.1970 97.2170
2 100.000 0.00000 76.4350 51.0790 25.1960 53.7500
3 0.00000 0.00000 55.4170 4.83100 1.93250 25.4410
4 100.000 64.4300 0.00000 54.5660 47.9170 6.37360
5 0.00000 34.0820 0.00000 3.40060 6.80170 1.13370
6 78.9890 0.00000 0.00000 24.2000 12.4760 1.13290
7 5.02670 4.49050 3.59250 0.33816 0.35379 0.31287
END_DATA
CTI1   

ORIGINATOR "Argyll targen"
CREATED "October 16, 2013"
DESCRIPTOR "Argyll Calibration Target chart information 1"
KEYWORD "DEVICE_COMBINATION_VALUES"
DEVICE_COMBINATION_VALUES "9"

KEYWORD "INDEX"
NUMBER_OF_FIELDS 7
BEGIN_DATA_FORMAT
INDEX RGB_R RGB_G RGB_B XYZ_X XYZ_Y XYZ_Z
END_DATA_FORMAT

NUMBER_OF_SETS 9
BEGIN_DATA
0 100.00 100.00 100.00 95.046 100.00 108.91
1 0.0000 100.00 100.00 53.807 78.740 106.98
2 100.00 0.0000 100.00 59.288 28.480 96.985
3 0.0000 0.0000 100.00 18.050 7.2205 95.055
4 100.00 100.00 0.0000 76.996 92.780 13.851
5 0.0000 100.00 0.0000 35.757 71.520 11.921
6 100.00 0.0000 0.0000 41.238 21.260 1.9306
7 0.0000 0.0000 0.0000 0.0000 0.0000 0.0000
8 50.000 50.000 50.000 20.344 21.405 23.311
END_DATA