dispcalGUI/ti1/d3-e4-s41-g121-m0-f2527-cRec709_Gamma22.ti1
CTI1   

ORIGINATOR "Argyll targen"
KEYWORD "OFPS_PATCHES"
OFPS_PATCHES "2280"
CREATED "Wed Dec 18 02:44:24 2013"
KEYWORD "COMP_GREY_STEPS"
COMP_GREY_STEPS "121"
KEYWORD "BLACK_COLOR_PATCHES"
BLACK_COLOR_PATCHES "4"
KEYWORD "APPROX_WHITE_POINT"
APPROX_WHITE_POINT "95.045781 100.000003 108.905751"
DESCRIPTOR "Argyll Calibration Target chart information 1"
KEYWORD "DARK_REGION_EMPHASIS"
DARK_REGION_EMPHASIS "1.6"
KEYWORD "ACCURATE_EXPECTED_VALUES"
ACCURATE_EXPECTED_VALUES "true"
KEYWORD "WHITE_COLOR_PATCHES"
WHITE_COLOR_PATCHES "4"
KEYWORD "SINGLE_DIM_STEPS"
SINGLE_DIM_STEPS "41"
KEYWORD "COLOR_REP"
COLOR_REP "RGB"

NUMBER_OF_FIELDS 7
BEGIN_DATA_FORMAT
SAMPLE_ID RGB_R RGB_G RGB_B XYZ_X XYZ_Y XYZ_Z
END_DATA_FORMAT

NUMBER_OF_SETS 2527
BEGIN_DATA
1 100.0000000 100.0000000 100.0000000 95.04580000 100.0000000 108.9060000
2 33.06880000 32.28970000 17.21750000 6.970690000 7.968850000 3.146350000
3 42.70280000 37.42530000 28.71880000 11.62630000 11.97290000 7.784410000
4 54.74630000 51.20380000 38.04350000 21.32140000 22.92360000 14.59640000
5 56.30370000 71.54510000 39.45740000 31.11640000 41.19130000 18.55000000
6 60.02670000 100.0000000 79.20990000 59.99090000 82.76430000 69.48230000
7 62.18470000 97.53630000 97.04050000 65.25110000 81.93930000 100.9410000
8 73.00400000 100.0000000 100.0000000 74.45030000 89.38240000 107.9420000
9 46.90870000 68.17150000 49.56070000 27.05540000 36.36050000 25.79890000
10 73.18710000 79.97340000 61.07890000 48.73450000 56.89310000 40.40790000
11 81.43870000 100.0000000 69.33250000 70.07770000 88.28140000 55.62720000
12 0.000000000 16.30430000 0.000000000 0.662289000 1.324680000 0.220790000
13 0.000000000 11.65800000 0.000000000 0.316716000 0.633478000 0.105585000
14 0.000000000 3.554500000 0.000000000 0.023238600 0.046480700 0.007747160
15 0.000000000 10.20410000 0.000000000 0.236288000 0.472611000 0.078772400
16 3.554500000 0.000000000 0.000000000 0.026800800 0.013816600 0.001254670
17 12.15280000 12.15280000 12.15280000 0.922432000 0.970513000 1.056940000
18 0.000000000 13.77260000 19.05990000 0.928265000 1.102520000 2.634340000
19 33.78370000 16.89420000 17.74780000 4.910650000 3.548230000 2.537910000
20 51.89260000 29.68570000 33.21590000 13.81720000 10.61130000 9.700860000
21 53.62250000 34.85490000 39.81560000 16.37620000 13.39510000 14.20720000
22 19.66290000 0.000000000 0.000000000 1.153130000 0.594475000 0.053983500
23 21.42860000 0.000000000 0.000000000 1.393190000 0.718230000 0.065221500
24 23.25580000 0.000000000 0.000000000 1.667890000 0.859845000 0.078081400
25 25.14790000 0.000000000 0.000000000 1.980960000 1.021240000 0.092737800
26 27.10840000 0.000000000 0.000000000 2.336550000 1.204560000 0.109385000
27 29.14110000 0.000000000 0.000000000 2.739270000 1.412170000 0.128237000
28 31.25000000 0.000000000 0.000000000 3.194240000 1.646720000 0.149537000
29 33.43950000 0.000000000 0.000000000 3.707200000 1.911170000 0.173551000
30 35.71430000 0.000000000 0.000000000 4.284540000 2.208810000 0.200579000
31 38.07950000 0.000000000 0.000000000 4.933440000 2.543340000 0.230957000
32 40.54050000 0.000000000 0.000000000 5.661950000 2.918900000 0.265062000
33 43.10340000 0.000000000 0.000000000 6.479100000 3.340170000 0.303316000
34 45.77460000 0.000000000 0.000000000 7.395080000 3.812380000 0.346197000
35 48.56120000 0.000000000 0.000000000 8.421380000 4.341470000 0.394243000
36 51.47060000 0.000000000 0.000000000 9.571020000 4.934140000 0.448063000
37 54.51130000 0.000000000 0.000000000 10.85870000 5.597990000 0.508346000
38 57.69230000 0.000000000 0.000000000 12.30120000 6.341650000 0.575877000
39 61.02360000 0.000000000 0.000000000 13.91760000 7.174960000 0.651548000
40 64.51610000 0.000000000 0.000000000 15.72970000 8.109140000 0.736381000
41 68.18180000 0.000000000 0.000000000 17.76250000 9.157080000 0.831542000
42 72.03390000 0.000000000 0.000000000 20.04450000 10.33350000 0.938374000
43 76.08700000 0.000000000 0.000000000 22.60880000 11.65550000 1.058420000
44 80.35710000 0.000000000 0.000000000 25.49360000 13.14270000 1.193470000
45 84.86240000 0.000000000 0.000000000 28.74300000 14.81790000 1.345590000
46 100.0000000 65.51850000 61.18160000 61.47440000 51.93130000 38.89740000
47 100.0000000 80.04910000 64.82680000 70.11570000 67.88470000 45.87990000
48 44.58080000 46.98170000 0.000000000 13.76740000 17.17790000 2.590230000
49 64.73620000 50.80420000 0.000000000 23.91240000 24.30020000 3.430390000
50 59.99940000 57.33250000 20.45220000 24.47990000 28.17550000 7.033290000
51 61.36150000 67.92200000 65.45070000 36.46660000 40.65320000 43.17320000
52 8.793970000 8.793970000 8.793970000 0.452861000 0.476466000 0.518899000
53 8.780640000 0.000000000 9.519220000 0.298209000 0.141911000 0.548298000
54 0.000000000 0.000000000 1.152070000 0.000984574 0.000393855 0.005184950
55 7.877280000 7.877280000 7.877280000 0.355486000 0.374016000 0.407325000
56 0.000000000 6.097560000 0.000000000 0.076147800 0.152307000 0.025385700
57 0.000000000 7.425740000 0.000000000 0.117456000 0.234929000 0.039156800
58 8.333330000 8.333330000 8.333330000 0.402325000 0.423296000 0.460994000
59 0.000000000 13.15790000 0.000000000 0.413298000 0.826656000 0.137783000
60 0.000000000 14.70590000 0.000000000 0.527832000 1.055740000 0.175966000
61 0.000000000 17.95580000 0.000000000 0.818838000 1.637800000 0.272980000
62 0.000000000 19.66290000 0.000000000 0.999867000 1.999880000 0.333330000
63 0.000000000 21.42860000 0.000000000 1.208020000 2.416210000 0.402721000
64 0.000000000 23.25580000 0.000000000 1.446200000 2.892620000 0.482127000
65 0.000000000 25.14790000 0.000000000 1.717660000 3.435580000 0.572625000
66 0.000000000 27.10840000 0.000000000 2.025990000 4.052280000 0.675413000
67 0.000000000 29.14110000 0.000000000 2.375180000 4.750710000 0.791824000
68 0.000000000 31.25000000 0.000000000 2.769680000 5.539770000 0.923340000
69 0.000000000 33.43950000 0.000000000 3.214460000 6.429390000 1.071620000
70 0.000000000 35.71430000 0.000000000 3.715070000 7.430680000 1.238510000
71 0.000000000 38.07950000 0.000000000 4.277720000 8.556070000 1.426080000
72 0.000000000 40.54050000 0.000000000 4.909400000 9.819520000 1.636670000
73 0.000000000 43.10340000 0.000000000 5.617940000 11.23670000 1.872880000
74 0.000000000 45.77460000 0.000000000 6.412170000 12.82530000 2.137650000
75 0.000000000 48.56120000 0.000000000 7.302060000 14.60520000 2.434320000
76 0.000000000 51.47060000 0.000000000 8.298890000 16.59900000 2.766640000
77 0.000000000 54.51130000 0.000000000 9.415440000 18.83230000 3.138870000
78 0.000000000 57.69230000 0.000000000 10.66620000 21.33400000 3.555850000
79 0.000000000 61.02360000 0.000000000 12.06780000 24.13740000 4.023090000
80 0.000000000 64.51610000 0.000000000 13.63900000 27.28010000 4.546910000
81 0.000000000 68.18180000 0.000000000 15.40160000 30.80550000 5.134500000
82 0.000000000 72.03390000 0.000000000 17.38030000 34.76320000 5.794150000
83 0.000000000 76.08700000 0.000000000 19.60380000 39.21050000 6.535400000
84 0.000000000 80.35710000 0.000000000 22.10510000 44.21350000 7.369280000
85 0.000000000 84.86240000 0.000000000 24.92260000 49.84900000 8.308570000
86 24.86370000 100.0000000 0.000000000 37.68940000 72.51590000 12.01100000
87 71.41810000 100.0000000 33.34230000 57.03910000 82.30510000 21.33200000
88 100.0000000 100.0000000 62.65780000 83.45200000 95.36220000 47.85100000
89 15.27510000 0.000000000 19.16350000 1.138730000 0.531958000 2.542740000
90 61.75050000 0.000000000 18.39650000 14.72080000 7.538650000 2.964690000
91 86.68820000 0.000000000 21.16200000 30.71380000 15.76540000 4.534190000
92 100.0000000 0.000000000 39.50740000 43.57990000 22.19630000 14.26110000
93 100.0000000 30.53850000 62.14290000 50.21150000 29.06200000 36.19680000
94 100.0000000 100.0000000 74.46730000 86.43420000 96.55520000 63.55580000
95 10.20410000 10.20410000 10.20410000 0.628073000 0.660811000 0.719661000
96 0.000000000 0.000000000 2.336450000 0.004662040 0.001864930 0.024551100
97 0.000000000 0.000000000 6.097560000 0.038438800 0.015376500 0.202426000
98 0.000000000 0.000000000 13.15790000 0.208629000 0.083457100 1.098680000
99 0.000000000 0.000000000 14.70590000 0.266445000 0.106585000 1.403150000
100 0.000000000 0.000000000 16.30430000 0.334318000 0.133736000 1.760580000
101 0.000000000 0.000000000 17.95580000 0.413343000 0.165348000 2.176740000
102 0.000000000 0.000000000 19.66290000 0.504725000 0.201903000 2.657970000
103 0.000000000 0.000000000 21.42860000 0.609797000 0.243934000 3.211300000
104 0.000000000 9.373500000 22.78950000 0.894267000 0.671423000 3.742330000
105 0.000000000 0.000000000 25.14790000 0.867063000 0.346847000 4.566110000
106 0.000000000 0.000000000 27.10840000 1.022700000 0.409108000 5.385750000
107 0.000000000 0.000000000 29.14110000 1.198970000 0.479619000 6.314000000
108 0.000000000 0.000000000 35.71430000 1.875340000 0.750182000 9.875860000
109 27.82960000 45.17830000 55.72240000 13.69350000 15.73220000 28.46140000
110 11.65800000 11.65800000 11.65800000 0.841855000 0.885737000 0.964618000
111 0.000000000 0.000000000 0.000000000 0.000000000 0.000000000 0.000000000
112 29.67640000 31.83240000 0.000000000 5.735600000 7.239200000 1.095080000
113 28.91880000 42.84260000 64.44840000 15.10590000 15.22400000 38.14750000
114 48.89620000 87.53870000 94.03490000 51.00010000 64.08650000 92.32510000
115 94.66020000 94.66020000 94.66020000 84.24030000 88.63130000 96.52450000
116 96.40520000 96.40520000 96.40520000 87.69330000 92.26430000 100.4810000
117 0.000000000 0.000000000 43.10340000 2.835890000 1.134430000 14.93430000
118 0.000000000 0.000000000 57.69230000 5.384230000 2.153830000 28.35430000
119 0.000000000 0.000000000 61.02360000 6.091730000 2.436850000 32.08010000
120 0.000000000 0.000000000 64.51610000 6.884880000 2.754130000 36.25700000
121 0.000000000 0.000000000 68.18180000 7.774600000 3.110040000 40.94250000
122 0.000000000 0.000000000 72.03390000 8.773440000 3.509600000 46.20250000
123 0.000000000 0.000000000 76.08700000 9.895840000 3.958590000 52.11330000
124 0.000000000 0.000000000 80.35710000 11.15850000 4.463680000 58.76260000
125 0.000000000 0.000000000 84.86240000 12.58070000 5.032620000 66.25250000
126 0.000000000 0.000000000 89.62260000 14.18510000 5.674420000 74.70150000
127 0.000000000 0.000000000 94.66020000 15.99790000 6.399590000 84.24810000
128 30.79020000 16.97630000 100.0000000 21.86560000 10.26210000 95.44070000
129 0.000000000 0.000000000 10.20410000 0.119276000 0.047713600 0.628131000
130 11.65800000 0.000000000 0.000000000 0.365264000 0.188305000 0.017099700
131 0.000000000 4.807690000 0.000000000 0.045149700 0.090306100 0.015051800
132 0.000000000 0.000000000 8.793970000 0.086002100 0.034403000 0.452903000
133 8.793970000 0.000000000 0.000000000 0.196487000 0.101295000 0.009198460
134 2.336450000 0.000000000 0.000000000 0.010651300 0.005491040 0.000498634
135 0.000000000 0.000000000 3.554500000 0.011730700 0.004692570 0.061775900
136 0.000000000 2.336450000 0.000000000 0.009235560 0.018472500 0.003078900
137 9.259260000 9.259260000 9.259260000 0.507234000 0.533673000 0.581200000
138 7.425740000 0.000000000 0.000000000 0.135460000 0.069833900 0.006341520
139 0.380518000 0.380518000 0.380518000 0.000453573 0.000477216 0.000519715
140 0.764526000 0.764526000 0.764526000 0.002104020 0.002213690 0.002410830
141 1.152070000 1.152070000 1.152070000 0.005184460 0.005454700 0.005940480
142 1.543210000 1.543210000 1.543210000 0.009860140 0.010374100 0.011298000
143 1.937980000 1.937980000 1.937980000 0.016272000 0.017120200 0.018644900
144 2.336450000 2.336450000 2.336450000 0.024548800 0.025828400 0.028128700
145 2.738650000 2.738650000 2.738650000 0.034812500 0.036627100 0.039889000
146 3.144650000 3.144650000 3.144650000 0.047181000 0.049640300 0.054061100
147 6.097560000 0.000000000 0.000000000 0.087820400 0.045274000 0.004111270
148 3.554500000 3.554500000 3.554500000 0.061770100 0.064989900 0.070777700
149 3.968250000 3.968250000 3.968250000 0.078694900 0.082796800 0.090170500
150 5.663430000 5.663430000 5.663430000 0.172061000 0.181029000 0.197151000
151 13.15790000 0.000000000 0.000000000 0.476651000 0.245728000 0.022314200
152 6.535950000 6.535950000 6.535950000 0.235796000 0.248087000 0.270181000
153 4.385960000 4.385960000 4.385960000 0.098070200 0.103182000 0.112371000
154 4.807690000 4.807690000 4.807690000 0.120012000 0.126267000 0.137512000
155 0.000000000 8.793970000 0.000000000 0.170371000 0.340768000 0.056797400
156 5.233490000 5.233490000 5.233490000 0.144636000 0.152175000 0.165727000
157 6.097560000 6.097560000 6.097560000 0.202407000 0.212957000 0.231923000
158 6.978650000 6.978650000 6.978650000 0.272354000 0.286550000 0.312070000
159 12.65270000 12.65270000 12.65270000 1.007950000 1.060490000 1.154930000
160 13.15790000 13.15790000 13.15790000 1.098580000 1.155840000 1.258780000
161 14.18440000 14.18440000 14.18440000 1.295920000 1.363470000 1.484900000
162 14.70590000 14.70590000 14.70590000 1.403020000 1.476150000 1.607610000
163 15.23300000 15.23300000 15.23300000 1.515990000 1.595020000 1.737060000
164 16.30430000 16.30430000 16.30430000 1.760420000 1.852180000 2.017130000
165 16.84880000 16.84880000 16.84880000 1.892300000 1.990930000 2.168240000
166 17.39930000 17.39930000 17.39930000 2.030930000 2.136790000 2.327090000
167 17.95580000 17.95580000 17.95580000 2.176540000 2.289990000 2.493930000
168 18.51850000 18.51850000 18.51850000 2.329370000 2.450790000 2.669050000
169 19.08750000 19.08750000 19.08750000 2.489680000 2.619460000 2.852740000
170 19.66290000 19.66290000 19.66290000 2.657730000 2.796260000 3.045290000
171 20.24480000 20.24480000 20.24480000 2.833780000 2.981490000 3.247010000
172 20.83330000 20.83330000 20.83330000 3.018100000 3.175420000 3.458220000
173 21.42860000 21.42860000 21.42860000 3.211000000 3.378370000 3.679240000
174 22.03070000 22.03070000 22.03070000 3.412760000 3.590650000 3.910430000
175 22.63970000 22.63970000 22.63970000 3.623700000 3.812580000 4.152120000
176 23.25580000 23.25580000 23.25580000 3.844120000 4.044500000 4.404690000
177 23.87910000 23.87910000 23.87910000 4.074370000 4.286740000 4.668510000
178 24.50980000 24.50980000 24.50980000 4.314770000 4.539670000 4.943970000
179 25.14790000 25.14790000 25.14790000 4.565690000 4.803670000 5.231470000
180 25.79370000 25.79370000 25.79370000 4.827480000 5.079110000 5.531450000
181 26.44710000 26.44710000 26.44710000 5.100540000 5.366400000 5.844320000
182 27.10840000 27.10840000 27.10840000 5.385240000 5.665950000 6.170540000
183 27.77780000 27.77780000 27.77780000 5.682010000 5.978180000 6.510580000
184 28.45530000 28.45530000 28.45530000 5.991250000 6.303550000 6.864920000
185 29.14110000 29.14110000 29.14110000 6.313420000 6.642500000 7.234060000
186 29.83540000 29.83540000 29.83540000 6.648950000 6.995520000 7.618530000
187 30.53830000 30.53830000 30.53830000 6.998320000 7.363110000 8.018850000
188 31.25000000 31.25000000 31.25000000 7.362030000 7.745770000 8.435590000
189 31.97060000 31.97060000 31.97060000 7.740570000 8.144040000 8.869330000
190 32.70040000 32.70040000 32.70040000 8.134470000 8.558480000 9.320680000
191 33.43950000 33.43950000 33.43950000 8.544290000 8.989650000 9.790250000
192 34.18800000 34.18800000 34.18800000 8.970570000 9.438160000 10.27870000
193 34.94620000 34.94620000 34.94620000 9.413920000 9.904620000 10.78670000
194 35.71430000 35.71430000 35.71430000 9.874940000 10.38970000 11.31490000
195 36.49240000 36.49240000 36.49240000 10.35430000 10.89400000 11.86420000
196 37.28070000 37.28070000 37.28070000 10.85260000 11.41830000 12.43510000
197 38.07950000 38.07950000 38.07950000 11.37050000 11.96320000 13.02860000
198 38.88890000 38.88890000 38.88890000 11.90880000 12.52960000 13.64540000
199 39.70920000 39.70920000 39.70920000 12.46830000 13.11820000 14.28640000
200 40.54050000 40.54050000 40.54050000 13.04960000 13.72980000 14.95250000
201 41.38320000 41.38320000 41.38320000 13.65360000 14.36520000 15.64460000
202 42.23740000 42.23740000 42.23740000 14.28100000 15.02540000 16.36360000
203 43.10340000 43.10340000 43.10340000 14.93290000 15.71130000 17.11050000
204 43.98150000 43.98150000 43.98150000 15.61010000 16.42380000 17.88640000
205 44.87180000 44.87180000 44.87180000 16.31350000 17.16380000 18.69240000
206 45.77460000 45.77460000 45.77460000 17.04410000 17.93250000 19.52950000
207 46.69030000 46.69030000 46.69030000 17.80290000 18.73080000 20.39900000
208 47.61900000 47.61900000 47.61900000 18.59100000 19.56000000 21.30200000
209 48.56120000 48.56120000 48.56120000 19.40950000 20.42120000 22.23980000
210 49.51690000 49.51690000 49.51690000 20.25950000 21.31550000 23.21380000
211 50.48660000 50.48660000 50.48660000 21.14230000 22.24440000 24.22540000
212 51.47060000 51.47060000 51.47060000 22.05910000 23.20890000 25.27590000
213 52.46910000 52.46910000 52.46910000 23.01130000 24.21070000 26.36680000
214 53.48260000 53.48260000 53.48260000 24.00010000 25.25110000 27.49990000
215 54.51130000 54.51130000 54.51130000 25.02700000 26.33150000 28.67650000
216 55.55560000 55.55560000 55.55560000 26.09350000 27.45360000 29.89860000
217 56.61580000 56.61580000 56.61580000 27.20120000 28.61910000 31.16780000
218 57.69230000 57.69230000 57.69230000 28.35170000 29.82950000 32.48600000
219 58.78550000 58.78550000 58.78550000 29.54660000 31.08670000 33.85530000
220 59.89580000 59.89580000 59.89580000 30.78780000 32.39260000 35.27750000
221 61.02360000 61.02360000 61.02360000 32.07720000 33.74920000 36.75480000
222 62.16930000 62.16930000 62.16930000 33.41650000 35.15840000 38.28950000
223 63.33330000 63.33330000 63.33330000 34.80800000 36.62230000 39.88380000
224 64.51610000 64.51610000 64.51610000 36.25370000 38.14340000 41.54030000
225 65.71820000 65.71820000 65.71820000 37.75580000 39.72380000 43.26150000
226 66.93990000 66.93990000 66.93990000 39.31660000 41.36600000 45.04990000
227 68.18180000 68.18180000 68.18180000 40.93870000 43.07260000 46.90850000
228 69.44440000 69.44440000 69.44440000 42.62450000 44.84630000 48.84020000
229 70.72830000 70.72830000 70.72830000 44.37670000 46.68990000 50.84790000
230 72.03390000 72.03390000 72.03390000 46.19820000 48.60630000 52.93510000
231 73.36180000 73.36180000 73.36180000 48.09190000 50.59870000 55.10490000
232 74.71260000 74.71260000 74.71260000 50.06090000 52.67030000 57.36100000
233 76.08700000 76.08700000 76.08700000 52.10840000 54.82460000 59.70710000
234 77.48540000 77.48540000 77.48540000 54.23790000 57.06500000 62.14710000
235 78.90860000 78.90860000 78.90860000 56.45290000 59.39550000 64.68510000
236 80.35710000 80.35710000 80.35710000 58.75720000 61.81990000 67.32540000
237 81.83180000 81.83180000 81.83180000 61.15470000 64.34240000 70.07250000
238 83.33330000 83.33330000 83.33330000 63.64960000 66.96740000 72.93130000
239 84.86240000 84.86240000 84.86240000 66.24640000 69.69940000 75.90670000
240 86.41980000 86.41980000 86.41980000 68.94950000 72.54340000 79.00400000
241 88.00620000 88.00620000 88.00620000 71.76380000 75.50450000 82.22870000
242 89.62260000 89.62260000 89.62260000 74.69460000 78.58800000 85.58680000
243 91.26980000 91.26980000 91.26980000 77.74700000 81.79960000 89.08440000
244 92.94870000 92.94870000 92.94870000 80.92690000 85.14520000 92.72800000
245 98.18480000 98.18480000 98.18480000 91.29280000 96.05140000 104.6060000
246 100.0000000 32.76800000 44.55260000 47.36250000 28.62850000 19.01620000
247 100.0000000 32.22440000 53.06120000 48.68090000 28.97820000 26.50680000
248 17.95580000 0.000000000 0.000000000 0.944356000 0.486843000 0.044209600
249 20.03940000 7.564190000 0.000000000 1.324580000 0.864465000 0.097063100
250 33.04970000 15.82580000 0.000000000 4.233120000 3.103190000 0.375921000
251 88.84590000 29.12200000 0.000000000 34.16570000 21.13460000 2.279100000
252 100.0000000 49.09350000 0.000000000 48.71770000 36.21930000 4.423950000
253 100.0000000 65.48690000 74.52730000 64.78810000 53.23300000 56.42210000
254 100.0000000 75.73860000 81.99560000 72.31040000 64.74260000 69.83030000
255 21.05080000 0.000000000 17.42330000 1.726610000 0.845434000 2.100020000
256 29.14190000 0.000000000 27.19500000 3.769330000 1.824240000 5.551880000
257 78.33350000 0.000000000 57.89750000 29.52940000 14.59650000 29.70500000
258 16.30430000 0.000000000 0.000000000 0.763810000 0.393767000 0.035757400
259 14.70590000 0.000000000 0.000000000 0.608742000 0.313824000 0.028498000
260 36.97810000 50.08230000 27.69940000 13.51200000 18.44360000 8.469020000
261 50.16440000 76.14120000 31.29160000 30.08170000 44.49580000 14.35340000
262 53.41530000 100.0000000 100.0000000 64.19170000 84.09380000 107.4610000
263 0.000000000 21.51570000 17.74610000 1.621650000 2.599010000 2.527550000
264 0.000000000 25.82310000 15.33900000 2.113040000 3.758630000 2.146420000
265 0.000000000 32.27930000 34.08130000 4.666190000 6.625810000 9.901490000
266 0.000000000 0.000000000 11.65800000 0.159876000 0.063954300 0.841934000
267 0.000000000 0.000000000 4.807690000 0.022791200 0.009117070 0.120023000
268 4.807690000 0.000000000 0.000000000 0.052070600 0.026844000 0.002437660
269 0.000000000 1.152070000 0.000000000 0.001950450 0.003901200 0.000650231
270 10.20410000 0.000000000 0.000000000 0.272508000 0.140486000 0.012757300
271 11.16840000 11.16840000 11.16840000 0.766047000 0.805977000 0.877755000
272 0.000000000 0.000000000 45.77460000 3.236810000 1.294810000 17.04560000
273 0.000000000 10.78650000 48.43670000 3.932250000 2.000180000 19.39110000
274 0.000000000 0.000000000 48.56120000 3.686020000 1.474500000 19.41130000
275 0.000000000 0.000000000 51.47060000 4.189220000 1.675790000 22.06120000
276 0.000000000 0.000000000 54.51130000 4.752840000 1.901260000 25.02930000
277 49.60540000 35.01180000 63.66790000 19.06840000 14.33760000 36.81570000
278 79.87260000 73.27160000 100.0000000 61.25050000 56.27980000 102.2480000
279 100.0000000 88.22730000 100.0000000 86.43620000 82.77960000 106.0360000
280 0.000000000 89.62260000 0.000000000 28.10090000 56.20600000 9.368130000
281 31.75320000 100.0000000 23.02950000 39.78030000 73.51130000 15.83810000
282 54.83540000 100.0000000 45.60420000 49.96890000 78.47560000 29.34200000
283 91.15500000 100.0000000 77.02910000 79.56430000 92.92930000 67.03840000
284 26.51390000 0.000000000 14.81060000 2.495970000 1.255480000 1.529400000
285 34.19570000 0.000000000 15.97520000 4.213730000 2.135380000 1.865670000
286 48.32870000 0.000000000 16.22650000 8.663780000 4.428230000 2.132260000
287 57.64330000 0.000000000 35.11920000 14.08560000 7.052770000 10.09240000
288 62.40220000 0.000000000 76.08190000 24.51290000 11.49430000 52.79010000
289 0.000000000 0.000000000 40.54050000 2.478220000 0.991353000 13.05080000
290 0.000000000 0.000000000 100.0000000 18.05000000 7.220460000 95.05460000
291 19.07540000 46.39080000 100.0000000 25.73230000 20.98460000 97.30660000
292 24.79480000 59.76290000 100.0000000 31.49660000 31.26470000 98.98710000
293 42.40570000 81.54980000 100.0000000 47.13370000 56.11230000 102.9590000
294 0.000000000 19.04840000 23.86770000 1.705370000 2.174190000 4.381300000
295 0.000000000 25.77260000 63.18500000 8.389220000 6.256760000 35.23650000
296 24.34780000 40.95510000 100.0000000 24.91550000 18.21330000 96.81470000
297 12.15460000 0.000000000 31.37370000 1.810670000 0.770556000 7.445700000
298 0.000000000 0.000000000 31.25000000 1.398110000 0.559281000 7.362710000
299 0.000000000 0.000000000 33.43950000 1.622630000 0.649095000 8.545080000
300 77.88210000 0.000000000 66.52050000 31.16260000 15.21460000 39.89460000
301 100.0000000 0.000000000 78.59470000 51.86580000 25.51090000 57.89600000
302 55.55380000 0.000000000 41.37730000 13.91280000 6.873050000 14.18050000
