dispcalGUI/ti1/d3-e4-s0-g25-m3-b3-f0-crossover.ti1
CTI1   

ORIGINATOR "Argyll targen"
KEYWORD "MULTI_DIM_BCC_STEPS"
MULTI_DIM_BCC_STEPS "3"
CREATED "Fri Oct 18 17:54:11 2013"
KEYWORD "COMP_GREY_STEPS"
COMP_GREY_STEPS "25"
KEYWORD "BLACK_COLOR_PATCHES"
BLACK_COLOR_PATCHES "4"
KEYWORD "APPROX_WHITE_POINT"
APPROX_WHITE_POINT "95.106486 100.000000 108.844025"
DESCRIPTOR "Argyll Calibration Target chart information 1"
KEYWORD "MULTI_DIM_STEPS"
MULTI_DIM_STEPS "3"
KEYWORD "WHITE_COLOR_PATCHES"
WHITE_COLOR_PATCHES "4"
KEYWORD "SINGLE_DIM_STEPS"
SINGLE_DIM_STEPS "3"
KEYWORD "COLOR_REP"
COLOR_REP "RGB"

NUMBER_OF_FIELDS 7
BEGIN_DATA_FORMAT
SAMPLE_ID RGB_R RGB_G RGB_B XYZ_X XYZ_Y XYZ_Z
END_DATA_FORMAT

NUMBER_OF_SETS 73
BEGIN_DATA
1 100.0000 100.0000 100.0000 95.10649 100.0000 108.8440
2 100.0000 100.0000 100.0000 95.10649 100.0000 108.8440
3 100.0000 100.0000 100.0000 95.10649 100.0000 108.8440
4 100.0000 100.0000 100.0000 95.10649 100.0000 108.8440
5 0.000000 0.000000 0.000000 1.000000 1.000000 1.000000
6 0.000000 0.000000 0.000000 1.000000 1.000000 1.000000
7 0.000000 0.000000 0.000000 1.000000 1.000000 1.000000
8 0.000000 0.000000 0.000000 1.000000 1.000000 1.000000
9 4.166700 4.166700 4.166700 1.303726 1.319519 1.348063
10 8.333300 8.333300 8.333300 1.717853 1.755181 1.822644
11 12.50000 12.50000 12.50000 2.350416 2.420638 2.547548
12 16.66700 16.66700 16.66700 3.225924 3.341671 3.550861
13 20.83300 20.83300 20.83300 4.365228 4.540219 4.856479
14 25.00000 25.00000 25.00000 5.787770 6.036733 6.486682
15 29.16700 29.16700 29.16700 7.510475 7.849018 8.460866
16 33.33300 33.33300 33.33300 9.548618 9.993144 10.79653
17 37.50000 37.50000 37.50000 11.91787 12.48560 13.51165
18 41.66700 41.66700 41.66700 14.63156 15.34039 16.62147
19 45.83300 45.83300 45.83300 17.70189 18.57038 20.14001
20 50.00000 50.00000 50.00000 21.14266 22.19007 24.08306
21 54.16700 54.16700 54.16700 24.96491 26.21108 28.46327
22 58.33300 58.33300 58.33300 29.17879 30.64408 33.29229
23 62.50000 62.50000 62.50000 33.79707 35.50251 38.58474
24 66.66700 66.66700 66.66700 38.82914 40.79624 44.35138
25 70.83300 70.83300 70.83300 44.28359 46.53432 50.60207
26 75.00000 75.00000 75.00000 50.17267 52.72963 57.35083
27 79.16700 79.16700 79.16700 56.50443 59.39065 64.60690
28 83.33300 83.33300 83.33300 63.28623 66.52510 72.37869
29 87.50000 87.50000 87.50000 70.53008 74.14563 80.67999
30 91.66700 91.66700 91.66700 78.24293 82.25955 89.51875
31 95.83300 95.83300 95.83300 86.43106 90.87346 98.90218
32 0.000000 0.000000 50.00000 4.825152 2.529819 21.14747
33 0.000000 0.000000 100.0000 18.87111 8.147314 95.12896
34 0.000000 50.00000 0.000000 8.578171 16.15422 3.526078
35 0.000000 50.00000 50.00000 12.40332 17.68404 23.67355
36 0.000000 50.00000 100.0000 26.44928 23.30154 97.65504
37 0.000000 100.0000 0.000000 36.40521 71.80052 12.80184
38 0.000000 100.0000 50.00000 40.23036 73.33034 32.94931
39 0.000000 100.0000 100.0000 54.27632 78.94783 106.9308
40 25.00000 25.00000 75.00000 14.21660 9.407731 50.88218
41 25.00000 75.00000 25.00000 22.48648 39.42948 12.05296
42 25.00000 75.00000 75.00000 30.91530 42.80047 56.44846
43 50.00000 0.000000 0.000000 9.739336 5.506030 1.409510
44 50.00000 0.000000 50.00000 13.56449 7.035849 21.55698
45 50.00000 0.000000 100.0000 27.61044 12.65334 95.53847
46 50.00000 50.00000 0.000000 17.31751 20.66025 3.935588
47 50.00000 50.00000 100.0000 35.18861 27.80757 98.06455
48 50.00000 100.0000 0.000000 45.14454 76.30655 13.21135
49 50.00000 100.0000 50.00000 48.96970 77.83637 33.35882
50 50.00000 100.0000 100.0000 63.01565 83.45386 107.3403
51 75.00000 25.00000 25.00000 25.04513 15.96589 7.389049
52 75.00000 25.00000 75.00000 33.47396 19.33689 51.78455
53 75.00000 75.00000 25.00000 41.74384 49.35864 12.95533
54 100.0000 0.000000 0.000000 41.83017 22.05217 2.913230
55 100.0000 0.000000 50.00000 45.65532 23.58199 23.06070
56 100.0000 0.000000 100.0000 59.70128 29.19948 97.04219
57 100.0000 50.00000 0.000000 49.40834 37.20639 5.439309
58 100.0000 50.00000 50.00000 53.23349 38.73621 25.58678
59 100.0000 50.00000 100.0000 67.27945 44.35371 99.56827
60 100.0000 100.0000 0.000000 77.23538 92.85269 14.71507
61 100.0000 100.0000 50.00000 81.06053 94.38251 34.86254
62 0.000000 12.50000 100.0000 19.37917 9.163293 95.29831
63 12.50000 0.000000 100.0000 19.45702 8.449410 95.15641
64 0.000000 100.0000 12.50000 36.66166 71.90308 14.15257
65 12.50000 100.0000 0.000000 36.99112 72.10261 12.82929
66 100.0000 0.000000 12.50000 42.08662 22.15473 4.263969
67 100.0000 12.50000 0.000000 42.33823 23.06815 3.082585
68 0.000000 25.00000 100.0000 20.67239 11.74937 95.72939
69 25.00000 0.000000 100.0000 20.94839 9.218366 95.22630
70 0.000000 100.0000 25.00000 37.31442 72.16414 17.59075
71 25.00000 100.0000 0.000000 38.48249 72.87157 12.89917
72 100.0000 0.000000 25.00000 42.73938 22.41580 7.702144
73 100.0000 25.00000 0.000000 43.63145 25.65422 3.513662
END_DATA
CTI1   

ORIGINATOR "Argyll targen"
KEYWORD "DENSITY_EXTREME_VALUES"
DENSITY_EXTREME_VALUES "8"
CREATED "October 18, 2013"
DESCRIPTOR "Argyll Calibration Target chart information 1"

KEYWORD "INDEX"
NUMBER_OF_FIELDS 7
BEGIN_DATA_FORMAT
INDEX RGB_R RGB_G RGB_B XYZ_X XYZ_Y XYZ_Z
END_DATA_FORMAT

NUMBER_OF_SETS 8
BEGIN_DATA
0 100.000 100.000 100.000 95.0460 100.000 108.910
1 0.00000 46.3070 100.000 24.5380 20.1970 97.2170
2 100.000 0.00000 76.4350 51.0790 25.1960 53.7500
3 0.00000 0.00000 55.4170 4.83100 1.93250 25.4410
4 100.000 64.4300 0.00000 54.5660 47.9170 6.37360
5 0.00000 34.0820 0.00000 3.40060 6.80170 1.13370
6 78.9890 0.00000 0.00000 24.2000 12.4760 1.13290
7 5.02670 4.49050 3.59250 0.33816 0.35379 0.31287
END_DATA
CTI1   

ORIGINATOR "Argyll targen"
CREATED "October 18, 2013"
DESCRIPTOR "Argyll Calibration Target chart information 1"
KEYWORD "DEVICE_COMBINATION_VALUES"
DEVICE_COMBINATION_VALUES "9"

KEYWORD "INDEX"
NUMBER_OF_FIELDS 7
BEGIN_DATA_FORMAT
INDEX RGB_R RGB_G RGB_B XYZ_X XYZ_Y XYZ_Z
END_DATA_FORMAT

NUMBER_OF_SETS 9
BEGIN_DATA
0 100.00 100.00 100.00 95.046 100.00 108.91
1 0.0000 100.00 100.00 53.807 78.740 106.98
2 100.00 0.0000 100.00 59.288 28.480 96.985
3 0.0000 0.0000 100.00 18.050 7.2205 95.055
4 100.00 100.00 0.0000 76.996 92.780 13.851
5 0.0000 100.00 0.0000 35.757 71.520 11.921
6 100.00 0.0000 0.0000 41.238 21.260 1.9306
7 0.0000 0.0000 0.0000 0.0000 0.0000 0.0000
8 50.000 50.000 50.000 20.344 21.405 23.311
END_DATA