dispcalGUI/ti1/d3-e4-s17-g65-m0-f0-cubic4-crossover.ti1
CTI1   

ORIGINATOR "Argyll targen"
KEYWORD "OFPS_PATCHES"
OFPS_PATCHES "186"
CREATED "Wed Oct 16 18:13:41 2013"
KEYWORD "COMP_GREY_STEPS"
COMP_GREY_STEPS "65"
KEYWORD "APPROX_WHITE_POINT"
APPROX_WHITE_POINT "95.045781 100.000003 108.905751"
DESCRIPTOR "Argyll Calibration Target chart information 1"
KEYWORD "ACCURATE_EXPECTED_VALUES"
ACCURATE_EXPECTED_VALUES "true"
KEYWORD "WHITE_COLOR_PATCHES"
WHITE_COLOR_PATCHES "4"
KEYWORD "SINGLE_DIM_STEPS"
SINGLE_DIM_STEPS "17"
KEYWORD "COLOR_REP"
COLOR_REP "RGB"

NUMBER_OF_FIELDS 7
BEGIN_DATA_FORMAT
SAMPLE_ID RGB_R RGB_G RGB_B XYZ_X XYZ_Y XYZ_Z
END_DATA_FORMAT

NUMBER_OF_SETS 290
BEGIN_DATA
1 100.00000 100.00000 100.00000 95.046000 100.00000 108.91000
2 100.00000 100.00000 100.00000 95.046000 100.00000 108.91000
3 100.00000 100.00000 100.00000 95.046000 100.00000 108.91000
4 100.00000 100.00000 100.00000 95.046000 100.00000 108.91000
5 0.0000000 0.0000000 0.0000000 0.0000000 0.0000000 0.0000000
6 6.2500000 0.0000000 0.0000000 0.2124500 0.1095300 0.0099459
7 12.500000 0.0000000 0.0000000 0.5918200 0.3051000 0.0277060
8 18.750000 0.0000000 0.0000000 1.2098000 0.6237000 0.0566380
9 31.250000 0.0000000 0.0000000 3.2820000 1.6920000 0.1536500
10 37.500000 0.0000000 0.0000000 4.7844000 2.4665000 0.2239800
11 43.750000 0.0000000 0.0000000 6.6262000 3.4160000 0.3102000
12 56.250000 0.0000000 0.0000000 11.403000 5.8785000 0.5338200
13 62.500000 0.0000000 0.0000000 14.372000 7.4092000 0.6728200
14 68.750000 0.0000000 0.0000000 17.749000 9.1500000 0.8309000
15 81.250000 0.0000000 0.0000000 25.784000 13.292000 1.2071000
16 87.500000 0.0000000 0.0000000 30.469000 15.708000 1.4264000
17 93.750000 0.0000000 0.0000000 35.616000 18.361000 1.6674000
18 0.0000000 6.2500000 0.0000000 0.1842200 0.3684600 0.0614130
19 0.0000000 12.500000 0.0000000 0.5131600 1.0264000 0.1710700
20 0.0000000 18.750000 0.0000000 1.0490000 2.0982000 0.3497200
21 0.0000000 31.250000 0.0000000 2.8458000 5.6920000 0.9487100
22 0.0000000 37.500000 0.0000000 4.1485000 8.2976000 1.3830000
23 0.0000000 43.750000 0.0000000 5.7455000 11.492000 1.9154000
24 0.0000000 56.250000 0.0000000 9.8873000 19.776000 3.2962000
25 0.0000000 62.500000 0.0000000 12.462000 24.925000 4.1544000
26 0.0000000 68.750000 0.0000000 15.390000 30.782000 5.1305000
27 0.0000000 81.250000 0.0000000 22.357000 44.717000 7.4532000
28 0.0000000 87.500000 0.0000000 26.419000 52.842000 8.8075000
29 0.0000000 93.750000 0.0000000 30.882000 61.769000 10.295000
30 0.0000000 0.0000000 6.2500000 0.0929900 0.0371990 0.4897100
31 0.0000000 0.0000000 12.500000 0.2590400 0.1036200 1.3641000
32 0.0000000 0.0000000 18.750000 0.5295400 0.2118300 2.7887000
33 0.0000000 0.0000000 31.250000 1.4365000 0.5746500 7.5650000
34 0.0000000 0.0000000 37.500000 2.0941000 0.8377000 11.028000
35 0.0000000 0.0000000 43.750000 2.9003000 1.1602000 15.273000
36 0.0000000 0.0000000 56.250000 4.9910000 1.9965000 26.284000
37 0.0000000 0.0000000 62.500000 6.2906000 2.5164000 33.128000
38 0.0000000 0.0000000 68.750000 7.7686000 3.1076000 40.911000
39 0.0000000 0.0000000 81.250000 11.286000 4.5145000 59.432000
40 0.0000000 0.0000000 87.500000 13.336000 5.3348000 70.231000
41 0.0000000 0.0000000 93.750000 15.589000 6.2361000 82.095000
42 1.5625000 1.5625000 1.5625000 0.1144600 0.1204300 0.1311500
43 3.1250000 3.1250000 3.1250000 0.2303700 0.2423800 0.2639700
44 4.6875000 4.6875000 4.6875000 0.3477300 0.3658600 0.3984400
45 6.2500000 6.2500000 6.2500000 0.4896600 0.5151800 0.5610600
46 7.8125000 7.8125000 7.8125000 0.6618800 0.6963800 0.7584000
47 9.3750000 9.3750000 9.3750000 0.8631600 0.9081500 0.9890300
48 10.938000 10.938000 10.938000 1.0963000 1.1534000 1.2562000
49 12.500000 12.500000 12.500000 1.3640000 1.4351000 1.5629000
50 14.063000 14.063000 14.063000 1.6652000 1.7520000 1.9080000
51 15.625000 15.625000 15.625000 2.0024000 2.1067000 2.2944000
52 17.188000 17.188000 17.188000 2.3772000 2.5011000 2.7238000
53 18.750000 18.750000 18.750000 2.7884000 2.9337000 3.1950000
54 20.313000 20.313000 20.313000 3.2399000 3.4088000 3.7123000
55 21.875000 21.875000 21.875000 3.7305000 3.9249000 4.2744000
56 23.438000 23.438000 23.438000 4.2619000 4.4840000 4.8834000
57 25.000000 25.000000 25.000000 4.8360000 5.0881000 5.5413000
58 26.563000 26.563000 26.563000 5.4514000 5.7356000 6.2464000
59 28.125000 28.125000 28.125000 6.1114000 6.4299000 7.0025000
60 29.688000 29.688000 29.688000 6.8147000 7.1699000 7.8084000
61 31.250000 31.250000 31.250000 7.5643000 7.9586000 8.6674000
62 32.813000 32.813000 32.813000 8.3589000 8.7946000 9.5778000
63 34.375000 34.375000 34.375000 9.2006000 9.6802000 10.542000
64 35.938000 35.938000 35.938000 10.090000 10.616000 11.561000
65 37.500000 37.500000 37.500000 11.027000 11.602000 12.635000
66 39.063000 39.063000 39.063000 12.013000 12.639000 13.765000
67 40.625000 40.625000 40.625000 13.049000 13.729000 14.952000
68 42.188000 42.188000 42.188000 14.136000 14.873000 16.197000
69 43.750000 43.750000 43.750000 15.272000 16.068000 17.499000
70 45.313000 45.313000 45.313000 16.461000 17.319000 18.861000
71 46.875000 46.875000 46.875000 17.702000 18.625000 20.283000
72 48.438000 48.438000 48.438000 18.997000 19.987000 21.767000
73 50.000000 50.000000 50.000000 20.344000 21.405000 23.311000
74 51.563000 51.563000 51.563000 21.746000 22.879000 24.917000
75 53.125000 53.125000 53.125000 23.202000 24.411000 26.585000
76 54.688000 54.688000 54.688000 24.714000 26.002000 28.318000
77 56.250000 56.250000 56.250000 26.281000 27.651000 30.114000
78 57.813000 57.813000 57.813000 27.907000 29.361000 31.976000
79 59.375000 59.375000 59.375000 29.588000 31.130000 33.902000
80 60.938000 60.938000 60.938000 31.327000 32.960000 35.895000
81 62.500000 62.500000 62.500000 33.124000 34.851000 37.955000
82 64.063000 64.063000 64.063000 34.981000 36.804000 40.082000
83 65.625000 65.625000 65.625000 36.896000 38.819000 42.276000
84 67.188000 67.188000 67.188000 38.871000 40.898000 44.540000
85 68.750000 68.750000 68.750000 40.907000 43.039000 46.872000
86 70.313000 70.313000 70.313000 43.003000 45.245000 49.274000
87 71.875000 71.875000 71.875000 45.162000 47.516000 51.747000
88 73.438000 73.438000 73.438000 47.381000 49.851000 54.290000
89 75.000000 75.000000 75.000000 49.664000 52.253000 56.906000
90 76.563000 76.563000 76.563000 52.008000 54.719000 59.592000
91 78.125000 78.125000 78.125000 54.417000 57.253000 62.352000
92 79.688000 79.688000 79.688000 56.890000 59.855000 65.185000
93 81.250000 81.250000 81.250000 59.426000 62.524000 68.092000
94 82.813000 82.813000 82.813000 62.027000 65.260000 71.072000
95 84.375000 84.375000 84.375000 64.694000 68.066000 74.128000
96 85.938000 85.938000 85.938000 67.426000 70.940000 77.258000
97 87.500000 87.500000 87.500000 70.224000 73.885000 80.465000
98 89.063000 89.063000 89.063000 73.089000 76.899000 83.747000
99 90.625000 90.625000 90.625000 76.021000 79.983000 87.106000
100 92.188000 92.188000 92.188000 79.020000 83.139000 90.543000
101 93.750000 93.750000 93.750000 82.088000 86.367000 94.058000
102 95.313000 95.313000 95.313000 85.223000 89.666000 97.651000
103 96.875000 96.875000 96.875000 88.429000 93.038000 101.32000
104 98.438000 98.438000 98.438000 91.702000 96.482000 105.07000
105 0.0000000 0.0000000 25.000000 0.9184100 0.3673900 4.8365000
106 0.0000000 0.0000000 50.000000 3.8635000 1.5455000 20.346000
107 0.0000000 0.0000000 75.000000 9.4316000 3.7729000 49.669000
108 0.0000000 0.0000000 100.00000 18.050000 7.2205000 95.055000
109 0.0000000 25.000000 0.0000000 1.8194000 3.6390000 0.6065300
110 0.0000000 25.000000 25.000000 3.7104906 4.9656807 6.3893445
111 0.0000000 25.000000 50.000000 6.6264307 6.1318727 21.747901
112 0.0000000 25.000000 75.000000 12.139317 8.3366791 50.784842
113 0.0000000 25.000000 100.00000 20.672386 11.749368 95.729391
114 0.0000000 50.000000 0.0000000 7.6537000 15.309000 2.5515000
115 0.0000000 50.000000 25.000000 9.4873833 16.517851 8.3149915
116 0.0000000 50.000000 50.000000 12.403323 17.684043 23.673548
117 0.0000000 50.000000 75.000000 17.916210 19.888849 52.710489
118 0.0000000 50.000000 100.00000 26.449279 23.301538 97.655038
119 0.0000000 75.000000 0.0000000 18.684000 37.371000 6.2288000
120 0.0000000 75.000000 25.000000 20.409197 38.358424 11.955627
121 0.0000000 75.000000 50.000000 23.325137 39.524616 27.314183
122 0.0000000 75.000000 75.000000 28.838023 41.729422 56.351124
123 0.0000000 75.000000 100.00000 37.371092 45.142111 101.29567
124 0.0000000 100.00000 0.0000000 35.757000 71.520000 11.921000
125 0.0000000 100.00000 25.000000 37.314421 72.164145 17.590749
126 0.0000000 100.00000 50.000000 40.230361 73.330337 32.949305
127 0.0000000 100.00000 75.000000 45.743247 75.535143 61.986246
128 0.0000000 100.00000 100.00000 54.276316 78.947831 106.93079
129 12.500000 12.500000 37.500000 4.1673049 3.1472783 12.117288
130 12.500000 12.500000 62.500000 8.3222312 4.8089864 34.001712
131 12.500000 12.500000 87.500000 15.297941 7.5988299 70.743494
132 12.500000 37.500000 12.500000 5.9499314 9.6186614 3.7473967
133 12.500000 37.500000 37.500000 7.7668201 10.345302 13.317136
134 12.500000 37.500000 62.500000 11.921746 12.007010 35.201560
135 12.500000 37.500000 87.500000 18.897456 14.796854 71.943343
136 12.500000 62.500000 12.500000 14.181432 26.079361 6.4912533
137 12.500000 62.500000 37.500000 15.998321 26.806002 16.060993
138 12.500000 62.500000 62.500000 20.153247 28.467710 37.945417
139 12.500000 62.500000 87.500000 27.128957 31.257553 74.687199
140 12.500000 87.500000 12.500000 28.001307 53.715247 11.097917
141 12.500000 87.500000 37.500000 29.818196 54.441888 20.667656
142 12.500000 87.500000 62.500000 33.973122 56.103596 42.552080
143 12.500000 87.500000 87.500000 40.948833 58.893440 79.293863
144 25.000000 0.0000000 0.0000000 2.0983000 1.0817000 0.0982290
145 25.000000 0.0000000 25.000000 3.9864914 2.4346794 5.8862509
146 25.000000 0.0000000 50.000000 6.9024315 3.6008713 21.244808
147 25.000000 0.0000000 75.000000 12.415318 5.8056777 50.281748
148 25.000000 0.0000000 100.00000 20.948387 9.2183663 95.226297
149 25.000000 25.000000 0.0000000 4.8785579 5.6731053 1.6977689
150 25.000000 25.000000 50.000000 8.7037100 7.2029246 21.845239
151 25.000000 25.000000 75.000000 14.216597 9.4077311 50.882179
152 25.000000 25.000000 100.00000 22.749665 12.820420 95.826729
153 25.000000 50.000000 0.0000000 10.655451 17.225275 3.6234160
154 25.000000 50.000000 25.000000 11.564663 17.588903 8.4123292
155 25.000000 50.000000 50.000000 14.480603 18.755095 23.770886
156 25.000000 50.000000 75.000000 19.993489 20.959901 52.807826
157 25.000000 50.000000 100.00000 28.526558 24.372590 97.752376
158 25.000000 75.000000 0.0000000 21.577264 39.065848 7.2640510
159 25.000000 75.000000 25.000000 22.486476 39.429476 12.052964
160 25.000000 75.000000 50.000000 25.402416 40.595668 27.411521
161 25.000000 75.000000 75.000000 30.915303 42.800474 56.448461
162 25.000000 75.000000 100.00000 39.448371 46.213163 101.39301
163 25.000000 100.00000 0.0000000 38.482488 72.871569 12.899173
164 25.000000 100.00000 25.000000 39.391700 73.235197 17.688086
165 25.000000 100.00000 50.000000 42.307640 74.401388 33.046643
166 25.000000 100.00000 75.000000 47.820527 76.606195 62.083583
167 25.000000 100.00000 100.00000 56.353595 80.018883 107.02813
168 37.500000 12.500000 12.500000 6.5014670 4.5609328 2.7420592
169 37.500000 12.500000 37.500000 8.3183556 5.2875735 12.311798
170 37.500000 12.500000 62.500000 12.473282 6.9492817 34.196223
171 37.500000 12.500000 87.500000 19.448992 9.7391252 70.938005
172 37.500000 37.500000 12.500000 10.100982 11.758957 3.9419077
173 37.500000 37.500000 62.500000 16.072797 14.147305 35.396071
174 37.500000 37.500000 87.500000 23.048507 16.937149 72.137854
175 37.500000 62.500000 12.500000 18.332483 28.219656 6.6857643
176 37.500000 62.500000 37.500000 20.149371 28.946297 16.255504
177 37.500000 62.500000 62.500000 24.304298 30.608005 38.139928
178 37.500000 62.500000 87.500000 31.280008 33.397849 74.881710
179 37.500000 87.500000 12.500000 32.152358 55.855543 11.292428
180 37.500000 87.500000 37.500000 33.969247 56.582183 20.862167
181 37.500000 87.500000 62.500000 38.124173 58.243891 42.746591
182 37.500000 87.500000 87.500000 45.099883 61.033735 79.488374
183 50.000000 0.0000000 0.0000000 8.8269000 4.5505000 0.4132300
184 50.000000 0.0000000 25.000000 10.648548 5.8696575 6.1984233
185 50.000000 0.0000000 50.000000 13.564488 7.0358495 21.556980
186 50.000000 0.0000000 75.000000 19.077375 9.2406559 50.593920
187 50.000000 0.0000000 100.00000 27.610443 12.653344 95.538470
188 50.000000 25.000000 0.0000000 11.540615 9.1080835 2.0099412
189 50.000000 25.000000 25.000000 12.449827 9.4717109 6.7988545
190 50.000000 25.000000 50.000000 15.365767 10.637903 22.157411
191 50.000000 25.000000 75.000000 20.878653 12.842709 51.194352
192 50.000000 25.000000 100.00000 29.411722 16.255398 96.138901
193 50.000000 50.000000 0.0000000 17.317507 20.660254 3.9355883
194 50.000000 50.000000 25.000000 18.226719 21.023881 8.7245016
195 50.000000 50.000000 75.000000 26.655546 24.394879 53.119999
196 50.000000 50.000000 100.00000 35.188615 27.807568 98.064548
197 50.000000 75.000000 0.0000000 28.239321 42.500826 7.5762233
198 50.000000 75.000000 25.000000 29.148533 42.864454 12.365137
199 50.000000 75.000000 50.000000 32.064473 44.030646 27.723693
200 50.000000 75.000000 75.000000 37.577360 46.235452 56.760634
201 50.000000 75.000000 100.00000 46.110428 49.648141 101.70518
202 50.000000 100.00000 0.0000000 45.144545 76.306547 13.211345
203 50.000000 100.00000 25.000000 46.053757 76.670175 18.000259
204 50.000000 100.00000 50.000000 48.969697 77.836367 33.358815
205 50.000000 100.00000 75.000000 54.482584 80.041173 62.395756
206 50.000000 100.00000 100.00000 63.015652 83.453862 107.34031
207 62.500000 12.500000 12.500000 15.994239 9.4554370 3.1868740
208 62.500000 12.500000 37.500000 17.811128 10.182078 12.756613
209 62.500000 12.500000 62.500000 21.966054 11.843786 34.641037
210 62.500000 12.500000 87.500000 28.941764 14.633629 71.382820
211 62.500000 37.500000 12.500000 19.593754 16.653461 4.3867224
212 62.500000 37.500000 37.500000 21.410643 17.380101 13.956462
213 62.500000 37.500000 62.500000 25.565569 19.041810 35.840886
214 62.500000 37.500000 87.500000 32.541279 21.831653 72.582668
215 62.500000 62.500000 12.500000 27.825255 33.114161 7.1305790
216 62.500000 62.500000 37.500000 29.642144 33.840801 16.700318
217 62.500000 62.500000 87.500000 40.772780 38.292353 75.326525
218 62.500000 87.500000 12.500000 41.645130 60.750047 11.737243
219 62.500000 87.500000 37.500000 43.462019 61.476687 21.306982
220 62.500000 87.500000 62.500000 47.616945 63.138395 43.191406
221 62.500000 87.500000 87.500000 54.592655 65.928239 79.933189
222 75.000000 0.0000000 0.0000000 21.548000 11.109000 1.0088000
223 75.000000 0.0000000 25.000000 23.243856 12.363839 6.7886174
224 75.000000 0.0000000 50.000000 26.159796 13.530031 22.147174
225 75.000000 0.0000000 75.000000 31.672683 15.734838 51.184114
226 75.000000 0.0000000 100.00000 40.205751 19.147526 96.128664
227 75.000000 25.000000 0.0000000 24.135922 15.602265 2.6001354
228 75.000000 25.000000 25.000000 25.045134 15.965893 7.3890486
229 75.000000 25.000000 50.000000 27.961075 17.132084 22.747605
230 75.000000 25.000000 75.000000 33.473961 19.336891 51.784546
231 75.000000 25.000000 100.00000 42.007030 22.749579 96.729095
232 75.000000 50.000000 0.0000000 29.912815 27.154435 4.5257824
233 75.000000 50.000000 25.000000 30.822027 27.518063 9.3146957
234 75.000000 50.000000 50.000000 33.737967 28.684255 24.673252
235 75.000000 50.000000 75.000000 39.250854 30.889061 53.710193
236 75.000000 50.000000 100.00000 47.783922 34.301750 98.654742
237 75.000000 75.000000 0.0000000 40.834629 48.995008 8.1664175
238 75.000000 75.000000 25.000000 41.743841 49.358635 12.955331
239 75.000000 75.000000 50.000000 44.659781 50.524827 28.313887
240 75.000000 75.000000 100.00000 58.705736 56.142322 102.29538
241 75.000000 100.00000 0.0000000 57.739853 82.800729 13.801539
242 75.000000 100.00000 25.000000 58.649065 83.164356 18.590453
243 75.000000 100.00000 50.000000 61.565005 84.330548 33.949009
244 75.000000 100.00000 75.000000 67.077891 86.535355 62.985950
245 75.000000 100.00000 100.00000 75.610960 89.948043 107.93050
246 87.500000 12.500000 12.500000 31.931664 17.672825 3.9336739
247 87.500000 12.500000 37.500000 33.748553 18.399466 13.503413
248 87.500000 12.500000 62.500000 37.903479 20.061174 35.387837
249 87.500000 12.500000 87.500000 44.879189 22.851017 72.129620
250 87.500000 37.500000 12.500000 35.531179 24.870849 5.1335223
251 87.500000 37.500000 37.500000 37.348068 25.597490 14.703262
252 87.500000 37.500000 62.500000 41.502994 27.259198 36.587686
253 87.500000 37.500000 87.500000 48.478704 30.049041 73.329468
254 87.500000 62.500000 12.500000 43.762680 41.331549 7.8773789
255 87.500000 62.500000 37.500000 45.579569 42.058189 17.447118
256 87.500000 62.500000 62.500000 49.734495 43.719897 39.331542
257 87.500000 62.500000 87.500000 56.710205 46.509741 76.073325
258 87.500000 87.500000 12.500000 57.582555 68.967435 12.484043
259 87.500000 87.500000 37.500000 59.399444 69.694076 22.053782
260 87.500000 87.500000 62.500000 63.554370 71.355784 43.938206
261 100.00000 0.0000000 0.0000000 41.238000 21.260000 1.9306000
262 100.00000 0.0000000 25.000000 42.739382 22.415796 7.7021437
263 100.00000 0.0000000 50.000000 45.655322 23.581988 23.060700
264 100.00000 0.0000000 75.000000 51.168209 25.786794 52.097641
265 100.00000 0.0000000 100.00000 59.701277 29.199483 97.042190
266 100.00000 25.000000 0.0000000 43.631449 25.654222 3.5136617
267 100.00000 25.000000 25.000000 44.540661 26.017849 8.3025749
268 100.00000 25.000000 50.000000 47.456601 27.184041 23.661132
269 100.00000 25.000000 75.000000 52.969487 29.388848 52.698072
270 100.00000 25.000000 100.00000 61.502556 32.801536 97.642621
271 100.00000 50.000000 0.0000000 49.408341 37.206392 5.4393088
272 100.00000 50.000000 25.000000 50.317553 37.570019 10.228222
273 100.00000 50.000000 50.000000 53.233494 38.736211 25.586779
274 100.00000 50.000000 75.000000 58.746380 40.941018 54.623719
275 100.00000 50.000000 100.00000 67.279449 44.353706 99.568269
276 100.00000 75.000000 0.0000000 60.330155 59.046965 9.0799438
277 100.00000 75.000000 25.000000 61.239367 59.410592 13.868857
278 100.00000 75.000000 50.000000 64.155307 60.576784 29.227414
279 100.00000 75.000000 75.000000 69.668194 62.781591 58.264354
280 100.00000 75.000000 100.00000 78.201262 66.194279 103.20890
281 100.00000 100.00000 0.0000000 77.235379 92.852686 14.715066
282 100.00000 100.00000 25.000000 78.144591 93.216313 19.503979
283 100.00000 100.00000 50.000000 81.060531 94.382505 34.862536
284 100.00000 100.00000 75.000000 86.573418 96.587311 63.899476
285 0.0000000 12.500000 100.00000 19.379168 9.1632928 95.298315
286 12.500000 0.0000000 100.00000 19.457015 8.4494103 95.156414
287 0.0000000 100.00000 12.500000 36.661657 71.903080 14.152574
288 12.500000 100.00000 0.0000000 36.991117 72.102613 12.829290
289 100.00000 0.0000000 12.500000 42.086618 22.154732 4.2639693
290 100.00000 12.500000 0.0000000 42.338230 23.068147 3.0825853
END_DATA
CTI1   

ORIGINATOR "Argyll targen"
KEYWORD "DENSITY_EXTREME_VALUES"
DENSITY_EXTREME_VALUES "8"
CREATED "October 16, 2013"
DESCRIPTOR "Argyll Calibration Target chart information 1"

KEYWORD "INDEX"
NUMBER_OF_FIELDS 7
BEGIN_DATA_FORMAT
INDEX RGB_R RGB_G RGB_B XYZ_X XYZ_Y XYZ_Z
END_DATA_FORMAT

NUMBER_OF_SETS 8
BEGIN_DATA
0 100.000 100.000 100.000 95.0460 100.000 108.910
1 0.00000 46.3070 100.000 24.5380 20.1970 97.2170
2 100.000 0.00000 76.4350 51.0790 25.1960 53.7500
3 0.00000 0.00000 55.4170 4.83100 1.93250 25.4410
4 100.000 64.4300 0.00000 54.5660 47.9170 6.37360
5 0.00000 34.0820 0.00000 3.40060 6.80170 1.13370
6 78.9890 0.00000 0.00000 24.2000 12.4760 1.13290
7 5.02670 4.49050 3.59250 0.33816 0.35379 0.31287
END_DATA
CTI1   

ORIGINATOR "Argyll targen"
CREATED "October 16, 2013"
DESCRIPTOR "Argyll Calibration Target chart information 1"
KEYWORD "DEVICE_COMBINATION_VALUES"
DEVICE_COMBINATION_VALUES "9"

KEYWORD "INDEX"
NUMBER_OF_FIELDS 7
BEGIN_DATA_FORMAT
INDEX RGB_R RGB_G RGB_B XYZ_X XYZ_Y XYZ_Z
END_DATA_FORMAT

NUMBER_OF_SETS 9
BEGIN_DATA
0 100.00 100.00 100.00 95.046 100.00 108.91
1 0.0000 100.00 100.00 53.807 78.740 106.98
2 100.00 0.0000 100.00 59.288 28.480 96.985
3 0.0000 0.0000 100.00 18.050 7.2205 95.055
4 100.00 100.00 0.0000 76.996 92.780 13.851
5 0.0000 100.00 0.0000 35.757 71.520 11.921
6 100.00 0.0000 0.0000 41.238 21.260 1.9306
7 0.0000 0.0000 0.0000 0.0000 0.0000 0.0000
8 50.000 50.000 50.000 20.344 21.405 23.311
END_DATA