dispcalGUI/ti1/d3-e4-s29-g85-m0-f994-ceRGBv2.ti1
CTI1   

ORIGINATOR "Argyll targen"
KEYWORD "OFPS_PATCHES"
OFPS_PATCHES "819"
CREATED "Sat Oct 19 13:03:52 2013"
KEYWORD "COMP_GREY_STEPS"
COMP_GREY_STEPS "85"
KEYWORD "BLACK_COLOR_PATCHES"
BLACK_COLOR_PATCHES "4"
KEYWORD "APPROX_WHITE_POINT"
APPROX_WHITE_POINT "96.415999 99.996948 82.488027"
DESCRIPTOR "Argyll Calibration Target chart information 1"
KEYWORD "ACCURATE_EXPECTED_VALUES"
ACCURATE_EXPECTED_VALUES "true"
KEYWORD "WHITE_COLOR_PATCHES"
WHITE_COLOR_PATCHES "4"
KEYWORD "SINGLE_DIM_STEPS"
SINGLE_DIM_STEPS "29"
KEYWORD "COLOR_REP"
COLOR_REP "RGB"

NUMBER_OF_FIELDS 7
BEGIN_DATA_FORMAT
SAMPLE_ID RGB_R RGB_G RGB_B XYZ_X XYZ_Y XYZ_Z
END_DATA_FORMAT

NUMBER_OF_SETS 994
BEGIN_DATA
1 100.00000 100.00000 100.00000 96.416000 99.996900 82.488000
2 39.760700 14.575100 0.0000000 7.5484100 4.6597800 0.1242360
3 100.00000 30.982300 0.0000000 66.204800 36.025500 0.4507780
4 100.00000 64.840600 42.017400 72.748600 53.374900 11.767900
5 100.00000 74.177200 41.037800 75.002400 61.233600 12.186700
6 67.926600 49.991400 87.679600 37.605300 28.757000 55.302900
7 68.394900 49.246500 100.00000 41.796600 30.810700 76.911200
8 72.857200 77.722000 100.00000 52.204500 53.912900 79.282000
9 52.150500 56.718200 72.877000 23.683400 24.818500 35.720600
10 73.450000 64.743400 79.189600 43.328100 39.279500 44.120300
11 83.676200 87.930200 80.697300 61.930500 68.117500 48.730900
12 0.0000000 21.428600 0.0000000 0.5982110 2.0227000 0.2279090
13 17.119500 41.532600 0.0000000 3.6852800 8.0904600 0.8276410
14 72.668000 49.323300 10.945800 32.389100 25.151600 2.1607700
15 83.509300 54.708600 79.877000 52.751600 38.236500 44.281400
16 100.00000 57.935700 100.00000 83.220200 55.378700 77.460600
17 26.616900 7.8262400 32.540900 4.3740300 2.6782000 5.6057700
18 29.214800 23.551000 72.059400 10.500400 7.6792400 33.387500
19 27.276200 90.329700 100.00000 30.678100 55.797400 80.928900
20 0.0000000 36.934300 53.201500 4.5769100 7.3696300 16.717500
21 0.0000000 43.061900 67.643300 7.4445100 10.858000 29.277000
22 22.540500 47.571900 71.146800 11.077200 14.376800 33.216700
23 57.233800 67.063800 76.943900 29.888300 34.158300 41.432100
24 64.389100 78.619300 88.455500 41.226300 49.003100 58.958300
25 66.953700 91.791500 100.00000 51.654300 67.785300 81.147400
26 64.285700 0.0000000 0.0000000 21.557600 10.617700 1.1e-0600
27 67.857100 0.0000000 0.0000000 24.564400 12.098600 1.3e-0600
28 71.428600 0.0000000 0.0000000 27.838400 13.711100 1.4e-0600
29 75.000000 0.0000000 0.0000000 31.391700 15.461200 1.6e-0600
30 78.571400 0.0000000 0.0000000 35.234200 17.353800 1.8e-0600
31 82.142900 0.0000000 0.0000000 39.378400 19.394900 2e-060000
32 85.714300 0.0000000 0.0000000 43.835800 21.590300 2.2e-0600
33 89.285700 0.0000000 0.0000000 48.617600 23.945500 2.5e-0600
34 92.857100 0.0000000 0.0000000 53.734400 26.465600 2.8e-0600
35 100.00000 0.0000000 33.055100 66.049300 32.612100 5.7255500
36 12.933800 0.0000000 8.6294000 1.1392100 0.5713450 0.7245570
37 7.1428600 7.1428600 7.1428600 0.7628240 0.7911560 0.6526290
38 10.714300 10.714300 10.714300 1.1776500 1.2213900 1.0075300
39 14.776900 15.232500 28.147600 2.3109900 2.2011200 4.3057900
40 52.591500 30.381900 28.620200 15.354000 10.911200 4.7422100
41 87.868800 30.838800 32.381100 48.838800 27.518100 5.9388200
42 48.311400 18.150400 35.915600 12.752400 7.6894400 6.9594200
43 100.00000 20.314700 75.177800 72.166500 37.642600 36.971400
44 100.00000 22.792600 88.724200 75.685700 39.989300 55.957700
45 98.809500 98.809500 98.809500 93.478100 96.949900 79.974500
46 0.0000000 35.714300 0.0000000 1.5777700 5.3348200 0.6011060
47 0.0000000 39.285700 0.0000000 1.9277700 6.5182600 0.7344520
48 0.0000000 42.857100 0.0000000 2.3259600 7.8646500 0.8861580
49 0.0000000 46.428600 0.0000000 2.7756100 9.3850000 1.0574700
50 0.0000000 50.000000 0.0000000 3.2796900 11.089400 1.2495100
51 0.0000000 53.571400 0.0000000 3.8414900 12.989000 1.4635500
52 0.0000000 57.142900 0.0000000 4.4639800 15.093800 1.7007100
53 0.0000000 60.714300 0.0000000 5.1502400 17.414200 1.9621600
54 0.0000000 64.285700 0.0000000 5.9036800 19.961800 2.2492200
55 0.0000000 67.857100 0.0000000 6.7271200 22.746000 2.5629300
56 0.0000000 71.428600 0.0000000 7.6237100 25.777600 2.9045200
57 0.0000000 75.000000 0.0000000 8.5968100 29.067900 3.2752600
58 43.085700 100.00000 39.045400 27.851600 65.270300 14.873100
59 89.558000 100.00000 76.985400 73.800900 88.338900 45.777300
60 100.00000 100.00000 100.00000 96.416000 99.996900 82.488000
61 0.0000000 89.285700 0.0000000 13.314200 45.018700 5.0725300
62 0.0000000 92.857100 0.0000000 14.715500 49.756700 5.6063900
63 0.0000000 100.00000 49.866400 20.294000 61.629700 20.642800
64 59.715200 81.058500 67.359100 33.554300 47.055000 32.067700
65 70.702100 80.898300 76.392200 44.394600 52.389000 42.206100
66 24.184900 21.241900 29.712200 4.1236900 3.7986300 4.8577000
67 57.588700 38.534800 41.718200 20.124800 15.389000 10.030500
68 64.593900 47.852400 61.943100 28.898500 23.137600 24.097200
69 65.788400 100.00000 75.895900 47.352600 75.293200 44.423100
70 69.832100 100.00000 89.264400 54.301000 78.983400 63.354700
71 82.365700 100.00000 90.309200 67.912900 85.711700 65.055300
72 0.0000000 0.0000000 32.142900 0.9713320 0.5549900 5.4117600
73 0.0000000 0.0000000 35.714300 1.2039600 0.6879040 6.7078200
74 0.0000000 11.505300 39.502800 1.7256000 1.6526900 8.3825600
75 0.0000000 0.0000000 39.285700 1.4710300 0.8405050 8.1958400
76 0.0000000 0.0000000 42.857100 1.7748800 1.0141200 9.8887400
77 0.0000000 0.0000000 46.428600 2.1180000 1.2101600 11.800400
78 0.0000000 0.0000000 50.000000 2.5026500 1.4299400 13.943500
79 0.0000000 0.0000000 53.571400 2.9313500 1.6748800 16.331900
80 0.0000000 0.0000000 57.142900 3.4063500 1.9462900 18.978400
81 0.0000000 0.0000000 60.714300 3.9300200 2.2454900 21.896000
82 0.0000000 0.0000000 64.285700 4.5049500 2.5739900 25.099300
83 0.0000000 0.0000000 67.857100 5.1333000 2.9330100 28.600100
84 0.0000000 0.0000000 71.428600 5.8174600 3.3239200 32.411900
85 0.0000000 0.0000000 75.000000 6.5600100 3.7481900 36.549000
86 0.0000000 0.0000000 78.571400 7.3630000 4.2070000 41.022800
87 0.0000000 0.0000000 82.142900 8.2290100 4.7018100 45.847800
88 0.0000000 0.0000000 85.714300 9.1604900 5.2340300 51.037500
89 0.0000000 0.0000000 89.285700 10.159800 5.8049800 56.604900
90 0.0000000 0.0000000 92.857100 11.229000 6.4159300 62.562400
91 0.0000000 0.0000000 96.428600 12.371000 7.0684200 68.924800
92 0.0000000 0.0000000 100.00000 13.587800 7.7636400 75.704000
93 52.890900 0.0000000 100.00000 27.207500 14.471700 75.704000
94 9.7907000 5.2743700 11.679100 1.0032000 0.8090350 1.0680600
95 0.0000000 10.714300 0.0000000 0.2174950 0.7354040 0.0828624
96 1.1904800 1.1904800 1.1904800 0.1268920 0.1316050 0.1085620
97 7.2096800 0.0000000 11.587100 0.7019240 0.3601240 1.0181200
98 2.3809500 2.3809500 2.3809500 0.2537840 0.2632100 0.2171230
99 3.5714300 3.5714300 3.5714300 0.3806770 0.3948150 0.3256850
100 5.9523800 5.9523800 5.9523800 0.6359320 0.6595510 0.5440670
101 0.0000000 0.0000000 10.714300 0.1659650 0.0948274 0.9246710
102 0.0000000 0.0000000 14.285700 0.2418720 0.1381990 1.3475900
103 0.0000000 0.0000000 21.428600 0.4564800 0.2608190 2.5432700
104 0.0000000 42.762600 39.932400 3.8380800 8.6972900 9.3687500
105 69.961200 69.271500 38.806300 34.966400 37.767500 10.678800
106 89.466700 71.551200 41.599000 58.187800 50.905500 12.184500
107 19.047600 19.047600 19.047600 2.6597400 2.7585300 2.2755300
108 15.476200 15.476200 15.476200 1.9260800 1.9976200 1.6478500
109 17.857100 17.857100 17.857100 2.3973400 2.4863800 2.0510300
110 20.238100 20.238100 20.238100 2.9389100 3.0480600 2.5143600
111 21.428600 21.428600 21.428600 3.2390900 3.3593900 2.7711800
112 22.619000 22.619000 22.619000 3.5575000 3.6896300 3.0435900
113 23.809500 23.809500 23.809500 3.8970400 4.0417700 3.3340800
114 26.190500 26.190500 26.190500 4.6393700 4.8116800 3.9691800
115 27.381000 27.381000 27.381000 5.0425300 5.2298200 4.3141000
116 28.571400 28.571400 28.571400 5.4697600 5.6729100 4.6796200
117 29.761900 29.761900 29.761900 5.9195900 6.1394400 5.0644600
118 30.952400 30.952400 30.952400 6.3939000 6.6313700 5.4702500
119 32.142900 32.142900 32.142900 6.8923700 7.1483600 5.8967200
120 33.333300 33.333300 33.333300 7.4163900 7.6918400 6.3450400
121 34.523800 34.523800 34.523800 7.9662000 8.2620700 6.8154300
122 35.714300 35.714300 35.714300 8.5430200 8.8603200 7.3089200
123 36.904800 36.904800 36.904800 9.1468500 9.4865700 7.8255200
124 38.095200 38.095200 38.095200 9.7787400 10.141900 8.3661300
125 39.285700 39.285700 39.285700 10.438200 10.825800 8.9302900
126 40.476200 40.476200 40.476200 11.126600 11.539800 9.5192700
127 41.666700 41.666700 41.666700 11.845100 12.285000 10.134000
128 42.857100 42.857100 42.857100 12.594200 13.062000 10.774900
129 44.047600 44.047600 44.047600 13.374400 13.871100 11.442400
130 45.238100 45.238100 45.238100 14.185700 14.712500 12.136400
131 46.428600 46.428600 46.428600 15.028900 15.587100 12.857800
132 47.619000 47.619000 47.619000 15.905500 16.496200 13.607800
133 48.809500 48.809500 48.809500 16.815100 17.439600 14.386000
134 50.000000 50.000000 50.000000 17.758300 18.417800 15.193000
135 51.190500 51.190500 51.190500 18.737400 19.433300 16.030600
136 52.381000 52.381000 52.381000 19.750600 20.484200 16.897500
137 53.571400 53.571400 53.571400 20.800200 21.572800 17.795500
138 54.761900 54.761900 54.761900 21.886200 22.699100 18.724600
139 55.952400 55.952400 55.952400 23.010000 23.864600 19.686000
140 57.142900 57.142900 57.142900 24.170800 25.068500 20.679100
141 58.333300 58.333300 58.333300 25.370000 26.312200 21.705100
142 59.523800 59.523800 59.523800 26.608400 27.596600 22.764600
143 60.714300 60.714300 60.714300 27.886600 28.922300 23.858200
144 61.904800 61.904800 61.904800 29.205700 30.290400 24.986700
145 63.095200 63.095200 63.095200 30.565600 31.700800 26.150200
146 64.285700 64.285700 64.285700 31.966200 33.153500 27.348500
147 65.476200 65.476200 65.476200 33.409100 34.649900 28.582900
148 66.666700 66.666700 66.666700 34.895700 36.191800 29.854800
149 67.857100 67.857100 67.857100 36.424800 37.777700 31.163000
150 69.047600 69.047600 69.047600 37.998200 39.409500 32.509100
151 70.238100 70.238100 70.238100 39.616500 41.087900 33.893600
152 71.428600 71.428600 71.428600 41.279500 42.812700 35.316400
153 72.619000 72.619000 72.619000 42.988400 44.585100 36.778500
154 73.809500 73.809500 73.809500 44.744200 46.406100 38.280600
155 75.000000 75.000000 75.000000 46.548500 48.277300 39.824200
156 76.190500 76.190500 76.190500 48.398500 50.196100 41.407000
157 77.381000 77.381000 77.381000 50.297800 52.165900 43.031900
158 78.571400 78.571400 78.571400 52.246400 54.186800 44.699000
159 79.761900 79.761900 79.761900 54.243700 56.258300 46.407800
160 80.952400 80.952400 80.952400 56.292400 58.383200 48.160600
161 82.142900 82.142900 82.142900 58.391400 60.560100 49.956300
162 83.333300 83.333300 83.333300 60.542700 62.791200 51.796800
163 84.523800 84.523800 84.523800 62.745500 65.075900 53.681500
164 85.714300 85.714300 85.714300 65.001000 67.415100 55.611100
165 86.904800 86.904800 86.904800 67.310400 69.810400 57.587000
166 88.095200 88.095200 88.095200 69.673300 72.261000 59.608500
167 89.285700 89.285700 89.285700 72.091600 74.769100 61.677400
168 90.476200 90.476200 90.476200 74.564700 77.334100 63.793300
169 91.666700 91.666700 91.666700 77.093400 79.956700 65.956800
170 92.857100 92.857100 92.857100 79.678900 82.638300 68.168800
171 94.047600 94.047600 94.047600 82.321900 85.379400 70.429900
172 95.238100 95.238100 95.238100 85.022500 88.180300 72.740400
173 0.0000000 0.0000000 17.857100 0.3378540 0.1930400 1.8823500
174 62.163900 0.0000000 27.720100 20.620700 10.213600 4.0533000
175 66.622500 0.0000000 54.795100 26.584300 13.337000 17.208900
176 79.966200 0.0000000 55.631600 40.016000 19.961200 17.826500
177 100.00000 35.962200 69.666400 72.095000 40.563600 31.101500
178 100.00000 52.372200 72.004600 74.601100 47.743800 34.446300
179 100.00000 66.353100 78.403300 78.717000 57.753300 43.231700
180 100.00000 89.989000 84.589200 87.464400 83.014100 54.537700
181 100.00000 92.029500 93.731000 90.905800 87.227400 69.560800
182 7.2778600 13.816300 19.624400 1.2199300 1.5052700 2.3078500
183 0.0000000 16.299500 21.347500 0.8379390 1.5588400 2.6734200
184 0.0000000 19.652700 81.173100 8.5045100 6.3119200 44.699300
185 48.514100 26.710000 87.119200 21.619500 13.968400 53.520400
186 34.016900 53.576000 45.207700 11.051100 16.699500 12.585600
187 59.186000 76.519400 49.717200 29.210000 40.679500 17.207200
188 77.801300 100.00000 63.448800 56.552700 79.636100 31.106500
189 45.895100 51.454100 31.555500 14.315400 17.238700 6.5503900
190 57.776000 67.005400 50.750900 25.840400 31.777800 16.910200
191 63.528900 71.456400 66.757300 33.518800 38.941600 30.396700
192 96.428600 96.428600 96.428600 87.782100 91.042400 75.101300
193 97.619000 97.619000 97.619000 90.600600 93.965600 77.512700
194 50.149900 58.660900 27.508200 17.522400 22.401900 5.8032200
195 58.915300 75.190100 26.660000 26.840800 38.262500 7.0614500
196 62.143800 100.00000 44.414200 39.604000 71.095600 17.478700
197 65.368700 100.00000 61.130600 44.243100 73.544000 29.039200
198 70.289900 100.00000 100.00000 58.159100 81.154400 82.488000
199 37.513000 48.188500 51.300700 12.053600 14.861000 15.933700
200 37.503900 50.922000 63.985000 14.253500 17.248000 26.121100
201 58.409200 51.040600 64.594100 25.156200 22.679100 26.698900
202 0.0000000 0.0000000 0.0000000 0.0000000 0.0000000 0.0000000
203 0.0000000 0.0000000 7.1428600 0.1075040 0.0614244 0.5989550
204 4.7619000 4.7619000 4.7619000 0.5086200 0.5275100 0.4351460
205 11.684700 8.4932600 0.0000000 1.0515000 1.0022400 0.0638798
206 42.857100 0.0000000 0.0000000 8.4933700 4.1832100 4e-070000
207 46.428600 0.0000000 0.0000000 10.135300 4.9918900 5e-070000
208 50.000000 0.0000000 0.0000000 11.975900 5.8984700 6e-070000
209 63.625400 100.00000 0.0000000 38.836800 70.566400 6.7840500
210 30.649100 87.010000 0.0000000 16.698000 44.244400 4.7506100
211 30.081900 100.00000 100.00000 35.470400 69.979600 82.488000
212 29.162400 68.638500 66.667200 15.671900 28.087800 30.035300
213 30.996000 69.963400 78.010400 18.803800 30.765600 43.057900
214 64.387300 73.874500 91.520600 40.741800 44.842900 63.441500
215 27.443800 17.369200 17.944400 4.1795700 3.3097700 2.0582700
216 64.336500 41.927900 19.922300 24.219600 18.366700 3.0927100
217 100.00000 59.141300 22.834200 70.371400 48.681400 4.6841800
218 100.00000 58.774400 53.841500 72.756700 49.845800 18.340500
219 68.145800 79.448600 42.705100 36.500100 46.772700 13.592100
220 70.783800 85.541000 100.00000 52.758300 61.557700 80.254300
221 0.0000000 39.596300 46.959800 4.1328900 7.8696100 12.851300
222 0.0000000 52.199900 57.375800 7.0577900 14.200800 20.539400
223 0.0000000 73.578700 67.278000 13.227800 30.599300 31.135600
224 0.0000000 86.900500 73.128300 18.593200 45.549400 39.075300
225 51.823400 100.00000 77.555500 37.931000 70.682200 46.499200
226 100.00000 37.695100 27.702000 67.514300 38.411500 4.7210200
227 100.00000 42.968600 43.843700 69.226500 41.000500 11.285400
228 36.419000 43.539200 30.156800 9.2636500 11.585400 5.6865600
229 41.809500 44.971800 50.817400 13.230200 14.190700 15.452900
230 46.883500 59.519300 65.855900 20.046200 24.442800 28.472600
231 47.495100 100.00000 65.494000 33.181500 68.152400 33.033200
232 76.373200 71.806500 0.0000000 40.557000 42.285000 2.9423500
233 90.943500 88.054300 0.0000000 63.802800 68.551600 4.8965800
234 100.00000 87.214200 0.0000000 77.565300 74.438100 4.7789500
235 100.00000 100.00000 0.0000000 82.828200 92.233300 6.7840500
236 10.718600 16.809000 0.0000000 1.1973800 1.7533000 0.1534580
237 0.0000000 14.285700 0.0000000 0.3169710 1.0717500 0.1207610
238 0.0000000 17.857100 0.0000000 0.4427530 1.4970600 0.1686820
239 12.404400 23.708900 70.961100 7.3934100 6.1561800 32.167100
240 59.221000 49.059700 79.015700 28.338100 23.620800 42.800200
241 100.00000 60.529100 88.004800 79.928200 54.909400 56.511800
242 100.00000 73.510700 89.107400 83.311400 65.464400 59.434300
243 30.603900 45.116000 23.244300 7.3472100 11.183200 3.9239900
244 30.668200 88.468200 26.538800 17.910300 46.446300 8.6886000
245 42.578600 72.510600 26.789400 16.965500 31.260500 6.8134000
246 43.032000 83.362800 34.748800 20.898700 42.711200 10.602500
247 53.276000 81.685700 59.298100 28.199900 44.901000 24.757100
248 76.203600 80.453200 60.229600 46.746200 52.898800 25.384500
249 100.00000 91.651600 65.115200 83.899700 82.801400 31.307700
250 100.00000 100.00000 71.415400 88.643100 95.555700 39.181300
251 100.00000 100.00000 92.148400 93.839400 98.524700 68.132400
252 0.0000000 58.491600 51.440700 7.3857100 17.470100 16.673200
253 0.0000000 71.134100 53.599300 10.481900 27.195300 19.227000
254 29.406400 0.0000000 100.00000 17.487700 9.6844500 75.704000
255 43.948000 23.706300 100.00000 23.276500 14.598600 75.976100
256 59.998000 25.946400 100.00000 32.714600 19.616100 76.024700
257 61.975600 68.112800 100.00000 40.126400 40.445300 78.290400
258 0.0000000 32.404000 61.542100 5.3524200 6.6933400 23.106000
259 0.0000000 40.995700 80.597600 9.9585700 11.624800 44.521000
260 53.080100 40.215900 100.00000 29.346600 21.379800 76.476100
261 68.097200 27.016400 63.700400 30.090700 17.790800 24.900300
262 86.514100 31.616000 82.076100 54.321600 30.960300 46.223600
263 88.799000 47.208800 100.00000 64.415100 41.120000 76.801600
264 40.173400 0.0000000 45.589500 9.4174200 4.7986800 11.330900
265 47.252500 12.108800 56.994100 14.181100 7.9836000 18.959600
266 49.718500 0.0000000 80.949900 19.756100 10.355900 44.196300
267 38.528200 0.0000000 61.610100 10.823400 5.6516600 22.672600
268 45.497500 60.258500 75.969400 21.519700 25.747400 39.656900
269 50.596000 79.252700 75.230700 28.772800 43.173000 40.583200
270 61.886400 80.686000 75.967600 36.764300 48.426600 41.655500
271 34.176400 21.787400 0.0000000 5.8782400 4.6730100 0.2344730
272 51.519100 24.316700 0.0000000 13.569600 8.8427800 0.2847980
273 60.403000 40.144900 0.0000000 20.597700 15.977200 0.7692040
274 73.932200 41.585500 0.0000000 32.477400 22.288700 0.8299240
275 100.00000 55.938400 0.0000000 69.268800 46.385400 1.6180900
276 32.877200 0.0000000 82.769600 13.252000 7.1883000 46.732300
277 68.259800 0.0000000 84.742000 33.820400 17.359200 49.587700
278 70.248900 0.0000000 100.00000 40.314600 20.927300 75.704000
279 85.607400 0.0000000 100.00000 57.285800 29.286100 75.704000
280 85.657600 26.196800 100.00000 58.207700 32.216400 76.030600
281 89.434700 68.372100 100.00000 69.263800 54.978600 78.314400
282 36.401200 33.157200 54.291000 10.372000 9.2610600 17.360000
283 35.540200 40.787500 70.127200 13.353700 13.050600 31.782000
284 46.878600 66.034500 100.00000 30.241700 34.159100 78.103400
285 32.230100 52.725600 57.155100 11.784900 16.770100 20.398700
286 53.173000 62.470900 60.204000 23.152200 27.629900 23.562900
287 56.313700 72.420900 64.898100 28.247300 37.056800 28.682300
288 19.923000 35.843500 22.207200 4.0058000 6.6032000 3.3101400
289 19.836800 40.193800 46.061900 6.0219600 8.9776000 12.364700
290 88.937700 40.421700 48.212200 52.490900 31.953800 13.621200
291 93.392900 81.387600 48.116000 67.363600 63.798100 16.798000
292 100.00000 82.802300 59.287500 79.739400 71.351100 24.888900
293 84.928500 0.0000000 19.008900 43.201600 21.307400 2.0815200
294 100.00000 0.0000000 16.759500 65.327600 32.199700 1.7048600
295 100.00000 44.332000 13.247800 67.744600 40.620100 2.1676800
296 100.00000 80.270700 17.514600 75.528000 66.628600 5.7035900
297 100.00000 100.00000 22.787100 83.336200 92.523500 9.6142300
298 100.00000 100.00000 41.296400 84.465700 93.168900 15.907000
299 100.00000 100.00000 57.397900 86.270400 94.200100 25.962100
300 0.0000000 29.667400 13.014800 1.2991600 3.7953700 1.5984900
301 0.0000000 32.188200 24.851300 1.8700800 4.6555100 3.7931000
302 0.0000000 61.060400 37.154300 6.5277300 18.398600 9.2723600
303 0.0000000 75.838100 43.887800 10.706200 30.946700 13.783700
304 0.0000000 84.604100 84.885800 20.554400 44.383500 54.226100
305 0.0000000 89.176100 100.00000 26.860400 52.641500 80.760600
306 0.0000000 100.00000 100.00000 31.394400 67.972000 82.488000
307 9.5238100 9.5238100 9.5238100 1.0275400 1.0657000 0.8791030
308 14.285700 0.0000000 0.0000000 1.1574300 0.5700670 1e-070000
309 60.714300 0.0000000 0.0000000 18.806300 9.2626300 1e-060000
310 60.231900 20.231500 22.085300 19.478000 11.198400 2.8864200
311 72.241300 20.537300 24.424000 29.753100 16.306700 3.4154300
312 72.693200 82.581800 33.442000 41.045200 51.870800 10.025700
313 76.438100 100.00000 47.579900 52.947200 77.692500 19.249600
314 89.362100 100.00000 61.616500 70.600200 86.531600 29.462200
315 23.341500 36.642000 10.849200 4.3695800 6.9727800 1.5730500
316 32.361000 51.362300 0.0000000 8.1983300 14.110800 1.3284900
317 42.927400 44.980600 0.0000000 11.111000 12.945400 0.9855930
318 46.390400 56.850300 0.0000000 14.527200 19.896000 1.6803600
319 100.00000 70.748900 0.0000000 72.468900 57.206000 2.8373100
320 100.00000 70.470800 22.339500 72.888200 57.245100 5.5434100
321 100.00000 90.643300 23.426500 79.391100 79.112300 8.2439900
322 32.584800 30.901000 0.0000000 5.9540800 6.3321500 0.4483650
323 45.105300 33.523600 0.0000000 10.890200 9.3661900 0.5278790
324 44.952200 39.649400 19.863300 11.800500 11.522700 2.9856400
325 24.178500 33.955400 73.073400 10.275900 9.6545600 34.818000
326 23.857000 59.326300 100.00000 21.100800 25.548600 77.561600
327 25.757100 68.216100 100.00000 23.434700 32.297100 78.300000
328 26.992500 0.0000000 38.916000 4.7515600 2.4539300 8.0319900
329 53.742000 0.0000000 55.910300 17.368300 8.8095800 18.035200
330 54.921700 0.0000000 68.357500 20.086000 10.304900 29.115000
331 72.326800 0.0000000 69.862600 34.215400 17.286500 30.701100
332 12.097000 28.610800 0.0000000 1.9370400 3.8797600 0.3858650
333 0.0000000 28.571400 0.0000000 1.0101800 3.4156800 0.3848650
334 58.813100 100.00000 25.359400 35.865200 69.151300 10.215300
335 70.936500 100.00000 27.818200 45.910100 74.107900 10.864500
336 0.0000000 17.509900 11.970700 0.6197000 1.5601900 1.2246800
337 0.0000000 53.341100 68.471200 9.0503800 15.858300 30.682300
338 0.0000000 70.812900 84.370300 16.265900 30.266300 51.884400
339 0.0000000 79.513200 100.00000 23.528000 41.374100 79.491100
340 21.507500 78.503300 100.00000 25.414100 41.401800 79.372200
341 36.094000 0.0000000 29.760000 6.7235900 3.3773200 4.6473700
342 48.033100 0.0000000 28.493000 11.703700 5.8248500 4.2719000
343 52.353900 0.0000000 41.600900 14.967200 7.5029300 9.2686700
344 59.871200 55.371600 44.214800 24.241600 24.070500 12.168800
345 70.701400 61.167000 55.379800 35.557300 32.905500 19.636300
346 17.415100 18.295500 43.060200 3.8074500 3.3458400 10.167200
347 18.731100 29.531300 58.841600 6.4714500 6.5854200 20.741800
348 43.671500 47.495700 100.00000 25.358700 21.997200 76.816600
349 58.177500 57.885900 100.00000 35.191500 31.696100 77.457000
350 75.135400 66.634500 100.00000 51.556800 45.059700 78.156500
351 83.146500 78.886100 100.00000 63.932100 60.711900 79.416900
352 84.362600 87.726000 100.00000 68.430100 71.551800 80.554400
353 100.00000 89.612100 100.00000 92.047700 85.226800 80.823800
354 46.085100 37.112400 36.454000 12.934400 11.406900 7.6508400
355 48.251100 38.526200 44.461900 14.822300 12.794500 11.424600
356 53.248200 55.939800 47.934000 20.355100 22.474200 14.293000
357 0.0000000 20.396800 100.00000 14.137900 9.6236300 75.913600
358 0.0000000 32.691800 100.00000 14.904700 12.216400 76.205700
359 0.0000000 61.844400 100.00000 18.969000 25.959000 77.754200
