dispcalGUI/ti1/d3-e4-s65-g129-m0-f1524-ceRGBv2.ti1
CTI1   

ORIGINATOR "Argyll targen"
KEYWORD "OFPS_PATCHES"
OFPS_PATCHES "1197"
CREATED "Wed Oct 16 19:39:18 2013"
KEYWORD "COMP_GREY_STEPS"
COMP_GREY_STEPS "129"
KEYWORD "BLACK_COLOR_PATCHES"
BLACK_COLOR_PATCHES "4"
KEYWORD "APPROX_WHITE_POINT"
APPROX_WHITE_POINT "96.415999 99.996948 82.488027"
DESCRIPTOR "Argyll Calibration Target chart information 1"
KEYWORD "ACCURATE_EXPECTED_VALUES"
ACCURATE_EXPECTED_VALUES "true"
KEYWORD "WHITE_COLOR_PATCHES"
WHITE_COLOR_PATCHES "4"
KEYWORD "SINGLE_DIM_STEPS"
SINGLE_DIM_STEPS "65"
KEYWORD "COLOR_REP"
COLOR_REP "RGB"

NUMBER_OF_FIELDS 7
BEGIN_DATA_FORMAT
SAMPLE_ID RGB_R RGB_G RGB_B XYZ_X XYZ_Y XYZ_Z
END_DATA_FORMAT

NUMBER_OF_SETS 1524
BEGIN_DATA
1 100.00000 100.00000 100.00000 96.416000 99.996900 82.488000
2 33.366200 0.0000000 21.859000 5.4838500 2.7381800 2.6316200
3 46.957900 0.0000000 30.366700 11.263200 5.6158400 4.8343100
4 71.733700 0.0000000 33.265300 29.172200 14.450100 5.7990700
5 72.368100 0.0000000 100.00000 42.333100 21.921500 75.704000
6 100.00000 0.0000000 100.00000 78.609400 39.788500 75.704000
7 100.00000 64.967200 100.00000 84.664700 60.262900 78.011000
8 98.437500 98.437500 98.437500 92.572500 96.010700 79.199700
9 99.218800 99.218800 99.218800 94.481800 97.990900 80.833200
10 14.062500 0.0000000 0.0000000 1.1315200 0.5573040 1e-070000
11 10.156300 10.156300 10.156300 1.1051600 1.1462000 0.9455100
12 0.0000000 1.5625000 0.0000000 0.0306736 0.1037150 0.0116862
13 6.2500000 0.0000000 0.0000000 0.4500100 0.2216420 0.0000000
14 7.8125000 0.0000000 0.0000000 0.5620160 0.2768080 0.0000000
15 9.3750000 0.0000000 0.0000000 0.6808740 0.3353490 0.0000000
16 10.937500 0.0000000 0.0000000 0.8145840 0.4012050 0.0000000
17 12.500000 0.0000000 0.0000000 0.9641380 0.4748640 0.0000000
18 15.625000 0.0000000 0.0000000 1.3177200 0.6490130 1e-070000
19 17.187500 0.0000000 0.0000000 1.5225700 0.7499080 1e-070000
20 18.750000 0.0000000 0.0000000 1.7483800 0.8611260 1e-070000
21 20.312500 0.0000000 0.0000000 1.9948000 0.9824910 1e-070000
22 21.875000 0.0000000 0.0000000 2.2631900 1.1146800 1e-070000
23 23.437500 0.0000000 0.0000000 2.5553700 1.2585900 1e-070000
24 25.000000 0.0000000 0.0000000 2.8710800 1.4140800 1e-070000
25 26.562500 0.0000000 0.0000000 3.2118000 1.5819000 2e-070000
26 28.125000 0.0000000 0.0000000 3.5789900 1.7627500 2e-070000
27 29.687500 0.0000000 0.0000000 3.9729100 1.9567700 2e-070000
28 31.250000 0.0000000 0.0000000 4.3945500 2.1644400 2e-070000
29 32.812500 0.0000000 0.0000000 4.8449000 2.3862500 2e-070000
30 34.375000 0.0000000 0.0000000 5.3253000 2.6228500 3e-070000
31 35.937500 0.0000000 0.0000000 5.8360600 2.8744200 3e-070000
32 37.500000 0.0000000 0.0000000 6.3785200 3.1415900 3e-070000
33 39.062500 0.0000000 0.0000000 6.9542500 3.4251500 4e-070000
34 40.625000 0.0000000 0.0000000 7.5634400 3.7252000 4e-070000
35 42.187500 0.0000000 0.0000000 8.2069100 4.0421200 4e-070000
36 43.750000 0.0000000 0.0000000 8.8856000 4.3763900 5e-070000
37 45.312500 0.0000000 0.0000000 9.6013500 4.7289200 5e-070000
38 46.875000 0.0000000 0.0000000 10.354300 5.0997600 5e-070000
39 48.437500 0.0000000 0.0000000 11.145300 5.4893600 6e-070000
40 50.000000 0.0000000 0.0000000 11.975900 5.8984700 6e-070000
41 51.562500 0.0000000 0.0000000 12.846700 6.3273400 7e-070000
42 53.125000 0.0000000 0.0000000 13.759000 6.7766900 7e-070000
43 54.687500 0.0000000 0.0000000 14.713500 7.2467800 8e-070000
44 56.250000 0.0000000 0.0000000 15.711000 7.7380700 8e-070000
45 57.812500 0.0000000 0.0000000 16.752000 8.2508100 9e-070000
46 59.375000 0.0000000 0.0000000 17.838600 8.7859900 9e-070000
47 60.937500 0.0000000 0.0000000 18.971700 9.3440800 1e-060000
48 62.500000 0.0000000 0.0000000 20.150400 9.9246200 1e-060000
49 64.062500 0.0000000 0.0000000 21.378600 10.529500 1.1e-0600
50 65.625000 0.0000000 0.0000000 22.654300 11.157900 1.2e-0600
51 67.187500 0.0000000 0.0000000 23.980600 11.811100 1.2e-0600
52 68.750000 0.0000000 0.0000000 25.357300 12.489100 1.3e-0600
53 70.312500 0.0000000 0.0000000 26.785800 13.192700 1.4e-0600
54 71.875000 0.0000000 0.0000000 28.266800 13.922200 1.4e-0600
55 73.437500 0.0000000 0.0000000 29.802000 14.678300 1.5e-0600
56 75.000000 0.0000000 0.0000000 31.391700 15.461200 1.6e-0600
57 76.562500 0.0000000 0.0000000 33.036000 16.271100 1.7e-0600
58 78.125000 0.0000000 0.0000000 34.737600 17.109200 1.8e-0600
59 79.687500 0.0000000 0.0000000 36.496600 17.975600 1.9e-0600
60 81.250000 0.0000000 0.0000000 38.313400 18.870400 2e-060000
61 82.812500 0.0000000 0.0000000 40.190300 19.794800 2.1e-0600
62 84.375000 0.0000000 0.0000000 42.126800 20.748600 2.2e-0600
63 85.937500 0.0000000 0.0000000 44.125600 21.733000 2.3e-0600
64 87.500000 0.0000000 0.0000000 46.185900 22.747800 2.4e-0600
65 89.062500 0.0000000 0.0000000 48.308500 23.793200 2.5e-0600
66 90.625000 0.0000000 0.0000000 50.496400 24.870900 2.6e-0600
67 92.187500 0.0000000 0.0000000 52.748900 25.980200 2.7e-0600
68 93.750000 0.0000000 0.0000000 55.067500 27.122200 2.8e-0600
69 95.312500 0.0000000 0.0000000 57.453600 28.297400 2.9e-0600
70 96.875000 0.0000000 0.0000000 59.906900 29.505800 3.1e-0600
71 98.437500 0.0000000 0.0000000 62.429600 30.748300 3.2e-0600
72 100.00000 25.326300 22.531700 66.324700 35.031600 3.0814300
73 100.00000 43.955800 79.509700 75.064700 44.671900 43.192900
74 100.00000 49.301900 100.00000 81.786200 50.529900 76.914300
75 11.718800 11.718800 11.718800 1.3151800 1.3640300 1.1252000
76 0.0000000 3.1250000 0.0000000 0.0616190 0.2083490 0.0234759
77 0.0000000 4.6875000 0.0000000 0.0922927 0.3120640 0.0351621
78 0.0000000 6.2500000 0.0000000 0.1232380 0.4166980 0.0469518
79 0.0000000 7.8125000 0.0000000 0.1539120 0.5204130 0.0586380
80 0.0000000 9.3750000 0.0000000 0.1864620 0.6304730 0.0710392
81 0.0000000 12.500000 0.0000000 0.2640350 0.8927680 0.1005940
82 0.0000000 14.062500 0.0000000 0.3098740 1.0477600 0.1180570
83 0.0000000 17.187500 0.0000000 0.4169660 1.4098600 0.1588580
84 0.0000000 18.750000 0.0000000 0.4788060 1.6189600 0.1824180
85 0.0000000 20.312500 0.0000000 0.5462880 1.8471300 0.2081280
86 0.0000000 21.875000 0.0000000 0.6197900 2.0956600 0.2361310
87 0.0000000 23.437500 0.0000000 0.6998050 2.3662100 0.2666150
88 0.0000000 25.000000 0.0000000 0.7862640 2.6585500 0.2995550
89 0.0000000 26.562500 0.0000000 0.8795720 2.9740400 0.3351040
90 0.0000000 28.125000 0.0000000 0.9801300 3.3140600 0.3734150
91 0.0000000 29.687500 0.0000000 1.0880100 3.6788200 0.4145150
92 0.0000000 31.250000 0.0000000 1.2034800 4.0692500 0.4585070
93 0.0000000 32.812500 0.0000000 1.3268100 4.4862600 0.5054940
94 0.0000000 34.375000 0.0000000 1.4583700 4.9310900 0.5556160
95 0.0000000 35.937500 0.0000000 1.5982400 5.4040500 0.6089070
96 0.0000000 37.500000 0.0000000 1.7468000 5.9063500 0.6655040
97 0.0000000 39.062500 0.0000000 1.9044700 6.4394600 0.7255730
98 0.0000000 40.625000 0.0000000 2.0713000 7.0035600 0.7891330
99 0.0000000 42.187500 0.0000000 2.2475100 7.5993900 0.8562700
100 0.0000000 43.750000 0.0000000 2.4333800 8.2278400 0.9270810
101 0.0000000 45.312500 0.0000000 2.6293900 8.8906100 1.0017600
102 0.0000000 46.875000 0.0000000 2.8355900 9.5878100 1.0803200
103 0.0000000 48.437500 0.0000000 3.0522100 10.320300 1.1628500
104 0.0000000 50.000000 0.0000000 3.2796900 11.089400 1.2495100
105 0.0000000 51.562500 0.0000000 3.5181500 11.895700 1.3403600
106 0.0000000 53.125000 0.0000000 3.7680000 12.740500 1.4355500
107 0.0000000 54.687500 0.0000000 4.0293800 13.624300 1.5351300
108 0.0000000 56.250000 0.0000000 4.3025500 14.548000 1.6392100
109 0.0000000 57.812500 0.0000000 4.5876400 15.511900 1.7478200
110 0.0000000 59.375000 0.0000000 4.8852100 16.518100 1.8611900
111 0.0000000 60.937500 0.0000000 5.1955300 17.567300 1.9794200
112 0.0000000 62.500000 0.0000000 5.5183200 18.658800 2.1024000
113 0.0000000 64.062500 0.0000000 5.8546700 19.796000 2.2305400
114 0.0000000 65.625000 0.0000000 6.2040300 20.977300 2.3636400
115 0.0000000 67.187500 0.0000000 6.5672300 22.205400 2.5020200
116 0.0000000 68.750000 0.0000000 6.9442600 23.480200 2.6456600
117 0.0000000 70.312500 0.0000000 7.3354700 24.803000 2.7947100
118 0.0000000 71.875000 0.0000000 7.7410500 26.174400 2.9492300
119 0.0000000 73.437500 0.0000000 8.1614700 27.595900 3.1094000
120 0.0000000 75.000000 0.0000000 8.5968100 29.067900 3.2752600
121 0.0000000 76.562500 0.0000000 9.0471300 30.590500 3.4468200
122 0.0000000 78.125000 0.0000000 9.5131100 32.166100 3.6243500
123 0.0000000 79.687500 0.0000000 9.9948300 33.794900 3.8078800
124 0.0000000 81.250000 0.0000000 10.492400 35.477300 3.9974400
125 0.0000000 82.812500 0.0000000 11.006400 37.215200 4.1932700
126 0.0000000 84.375000 0.0000000 11.536700 39.008300 4.3953100
127 0.0000000 85.937500 0.0000000 12.084100 40.859200 4.6038600
128 0.0000000 87.500000 0.0000000 12.648300 42.766900 4.8188100
129 0.0000000 89.062500 0.0000000 13.229600 44.732400 5.0402700
130 0.0000000 90.625000 0.0000000 13.828800 46.758400 5.2685600
131 0.0000000 92.187500 0.0000000 14.445600 48.844100 5.5035600
132 0.0000000 93.750000 0.0000000 15.080600 50.991200 5.7454800
133 0.0000000 95.312500 0.0000000 15.734000 53.200600 5.9944300
134 0.0000000 100.00000 48.828600 20.178400 61.563600 19.998400
135 0.0000000 100.00000 71.716000 23.681700 63.565300 39.517200
136 0.0000000 15.625000 0.0000000 0.3608660 1.2201800 0.1374850
137 0.0000000 10.937500 0.0000000 0.2230790 0.7542850 0.0849898
138 0.0000000 0.0000000 1.5625000 0.0234063 0.0133737 0.1304080
139 0.0000000 0.0000000 3.1250000 0.0470199 0.0268658 0.2619710
140 0.0000000 0.0000000 4.6875000 0.0704262 0.0402394 0.3923780
141 0.0000000 0.0000000 6.2500000 0.0940398 0.0537315 0.5239410
142 0.0000000 0.0000000 7.8125000 0.1174460 0.0671052 0.6543490
143 0.0000000 0.0000000 9.3750000 0.1422840 0.0812970 0.7927340
144 10.937500 10.937500 10.937500 1.2078900 1.2527500 1.0334000
145 0.0000000 0.0000000 12.500000 0.2014790 0.1151190 1.1225400
146 0.0000000 0.0000000 15.625000 0.2753680 0.1573370 1.5342100
147 0.0000000 0.0000000 17.187500 0.3181760 0.1817970 1.7727100
148 0.0000000 0.0000000 18.750000 0.3653650 0.2087590 2.0356200
149 0.0000000 0.0000000 20.312500 0.4168590 0.2381810 2.3225200
150 0.0000000 0.0000000 21.875000 0.4729460 0.2702270 2.6350100
151 0.0000000 0.0000000 23.437500 0.5340040 0.3051140 2.9751900
152 0.0000000 0.0000000 25.000000 0.5999780 0.3428100 3.3427700
153 0.0000000 0.0000000 26.562500 0.6711790 0.3834920 3.7394600
154 0.0000000 0.0000000 28.125000 0.7479130 0.4273350 4.1669800
155 0.0000000 0.0000000 29.687500 0.8302320 0.4743690 4.6256200
156 0.0000000 0.0000000 31.250000 0.9183430 0.5247140 5.1165300
157 0.0000000 0.0000000 32.812500 1.0124500 0.5784860 5.6408700
158 0.0000000 0.0000000 34.375000 1.1128400 0.6358450 6.2001900
159 0.0000000 0.0000000 35.937500 1.2195800 0.6968310 6.7948600
160 0.0000000 0.0000000 37.500000 1.3329400 0.7616000 7.4264300
161 0.0000000 0.0000000 39.062500 1.4532500 0.8303440 8.0967600
162 0.0000000 0.0000000 40.625000 1.5805500 0.9030810 8.8060300
163 0.0000000 0.0000000 42.187500 1.7150200 0.9799120 9.5552100
164 0.0000000 0.0000000 43.750000 1.8568500 1.0609500 10.345400
165 0.0000000 0.0000000 45.312500 2.0064200 1.1464100 11.178700
166 0.0000000 0.0000000 46.875000 2.1637600 1.2363100 12.055400
167 0.0000000 0.0000000 48.437500 2.3290700 1.3307600 12.976400
168 0.0000000 0.0000000 50.000000 2.5026500 1.4299400 13.943500
169 0.0000000 0.0000000 51.562500 2.6846100 1.5339100 14.957300
170 0.0000000 0.0000000 53.125000 2.8752600 1.6428400 16.019500
171 0.0000000 0.0000000 54.687500 3.0747200 1.7568000 17.130700
172 0.0000000 0.0000000 56.250000 3.2831700 1.8759000 18.292100
173 0.0000000 0.0000000 57.812500 3.5007200 2.0002000 19.504200
174 0.0000000 0.0000000 59.375000 3.7277800 2.1299400 20.769300
175 0.0000000 0.0000000 60.937500 3.9645800 2.2652400 22.088600
176 0.0000000 0.0000000 62.500000 4.2108900 2.4059800 23.460900
177 0.0000000 0.0000000 64.062500 4.4675500 2.5526200 24.890900
178 0.0000000 0.0000000 65.625000 4.7341400 2.7049500 26.376200
179 0.0000000 0.0000000 67.187500 5.0112900 2.8633000 27.920300
180 0.0000000 0.0000000 68.750000 5.2989900 3.0276800 29.523200
181 0.0000000 0.0000000 70.312500 5.5975100 3.1982500 31.186400
182 0.0000000 0.0000000 71.875000 5.9070000 3.3750800 32.910800
183 0.0000000 0.0000000 73.437500 6.2278100 3.5583900 34.698100
184 0.0000000 0.0000000 75.000000 6.5600100 3.7481900 36.549000
185 0.0000000 0.0000000 76.562500 6.9036300 3.9445300 38.463500
186 0.0000000 0.0000000 78.125000 7.2592100 4.1477000 40.444600
187 0.0000000 0.0000000 79.687500 7.6268000 4.3577300 42.492600
188 0.0000000 0.0000000 81.250000 8.0064700 4.5746600 44.607900
189 0.0000000 0.0000000 82.812500 8.3986900 4.7987600 46.793100
190 0.0000000 0.0000000 84.375000 8.8033600 5.0299700 49.047700
191 0.0000000 0.0000000 85.937500 9.2210600 5.2686400 51.375000
192 0.0000000 0.0000000 87.500000 9.6515900 5.5146300 53.773700
193 0.0000000 0.0000000 89.062500 10.095200 5.7680700 56.245000
194 0.0000000 0.0000000 90.625000 10.552400 6.0293200 58.792500
195 0.0000000 0.0000000 92.187500 11.023100 6.2982600 61.414900
196 0.0000000 0.0000000 93.750000 11.507600 6.5751100 64.114500
197 0.0000000 0.0000000 95.312500 12.006200 6.8600100 66.892500
198 0.0000000 0.0000000 96.875000 12.518900 7.1529400 69.749000
199 71.084300 51.623200 100.00000 44.626300 33.241300 77.048000
200 0.0000000 0.0000000 14.062500 0.2364570 0.1351040 1.3174200
201 8.5937500 8.5937500 8.5937500 0.9186240 0.9527420 0.7859220
202 3.1250000 0.0000000 0.0000000 0.2250050 0.1108210 0.0000000
203 0.7812500 0.7812500 0.7812500 0.0837787 0.0868903 0.0716763
204 1.5625000 1.5625000 1.5625000 0.1660860 0.1722550 0.1420940
205 2.3437500 2.3437500 2.3437500 0.2498650 0.2591450 0.2137700
206 3.1250000 3.1250000 3.1250000 0.3336440 0.3460350 0.2854470
207 3.9062500 3.9062500 3.9062500 0.4174220 0.4329260 0.3571230
208 4.6875000 4.6875000 4.6875000 0.4997300 0.5182900 0.4275400
209 5.4687500 5.4687500 5.4687500 0.5835090 0.6051810 0.4992170
210 6.2500000 6.2500000 6.2500000 0.6672870 0.6920710 0.5708930
211 7.0312500 7.0312500 7.0312500 0.7510660 0.7789610 0.6425690
212 7.8125000 7.8125000 7.8125000 0.8333740 0.8643260 0.7129870
213 0.0000000 0.0000000 10.937500 0.1702260 0.0972621 0.9484120
214 4.6875000 0.0000000 0.0000000 0.3370110 0.1659870 0.0000000
215 9.3750000 9.3750000 9.3750000 1.0096200 1.0471200 0.8637740
216 12.500000 12.500000 12.500000 1.4296500 1.4827500 1.2231300
217 13.281300 13.281300 13.281300 1.5501800 1.6077500 1.3262400
218 14.062500 14.062500 14.062500 1.6778500 1.7401700 1.4354700
219 14.843800 14.843800 14.843800 1.8128600 1.8801900 1.5509800
220 15.625000 15.625000 15.625000 1.9539600 2.0265300 1.6716900
221 16.406300 16.406300 16.406300 2.1021700 2.1802500 1.7985000
222 17.187500 17.187500 17.187500 2.2577200 2.3415700 1.9315700
223 17.968800 17.968800 17.968800 2.4208600 2.5107700 2.0711500
224 18.750000 18.750000 18.750000 2.5925500 2.6888400 2.2180400
225 19.531300 19.531300 19.531300 2.7704000 2.8732900 2.3702000
226 20.312500 20.312500 20.312500 2.9579400 3.0678000 2.5306500
227 21.093800 21.093800 21.093800 3.1522600 3.2693400 2.6968900
228 21.875000 21.875000 21.875000 3.3559300 3.4805700 2.8711400
229 22.656300 22.656300 22.656300 3.5675800 3.7000800 3.0522200
230 23.437500 23.437500 23.437500 3.7891800 3.9299100 3.2418100
231 24.218800 24.218800 24.218800 4.0181100 4.1673500 3.4376700
232 25.000000 25.000000 25.000000 4.2573300 4.4154400 3.6423200
233 25.781300 25.781300 25.781300 4.5053400 4.6726700 3.8545100
234 26.562500 26.562500 26.562500 4.7625500 4.9394300 4.0745700
235 27.343800 27.343800 27.343800 5.0296500 5.2164600 4.3030900
236 28.125000 28.125000 28.125000 5.3070400 5.5041400 4.5404000
237 28.906300 28.906300 28.906300 5.5932200 5.8009600 4.7852400
238 29.687500 29.687500 29.687500 5.8911500 6.1099600 5.0401400
239 30.468800 30.468800 30.468800 6.1978900 6.4280800 5.3025600
240 31.250000 31.250000 31.250000 6.5163700 6.7584000 5.5750400
241 32.031300 32.031300 32.031300 6.8441300 7.0983300 5.8554500
242 32.812500 32.812500 32.812500 7.1841700 7.4509900 6.1463600
243 33.593800 33.593800 33.593800 7.5339700 7.8137900 6.4456400
244 34.375000 34.375000 34.375000 7.8965100 8.1897900 6.7558000
245 35.156300 35.156300 35.156300 8.2693300 8.5764500 7.0747600
246 35.937500 35.937500 35.937500 8.6538900 8.9753000 7.4037700
247 36.718800 36.718800 36.718800 9.0501900 9.3863200 7.7428300
248 37.500000 37.500000 37.500000 9.4582500 9.8095400 8.0919400
249 38.281300 38.281300 38.281300 9.8795200 10.246500 8.4523600
250 39.062500 39.062500 39.062500 10.312000 10.695000 8.8223300
251 39.843800 39.843800 39.843800 10.757300 11.156800 9.2033400
252 40.625000 40.625000 40.625000 11.215300 11.631800 9.5951600
253 41.406300 41.406300 41.406300 11.685900 12.119900 9.9977800
254 42.187500 42.187500 42.187500 12.169400 12.621400 10.411500
255 42.968800 42.968800 42.968800 12.666400 13.136900 10.836700
256 43.750000 43.750000 43.750000 13.175800 13.665200 11.272500
257 44.531300 44.531300 44.531300 13.699900 14.208700 11.720800
258 45.312500 45.312500 45.312500 14.237200 14.765900 12.180500
259 46.093800 46.093800 46.093800 14.788500 15.337700 12.652200
260 46.875000 46.875000 46.875000 15.353600 15.923900 13.135700
261 47.656300 47.656300 47.656300 15.933500 16.525300 13.631800
262 48.437500 48.437500 48.437500 16.526600 17.140400 14.139200
263 49.218800 49.218800 49.218800 17.135100 17.771500 14.659800
264 50.000000 50.000000 50.000000 17.758300 18.417800 15.193000
265 50.781300 50.781300 50.781300 18.396200 19.079400 15.738700
266 51.562500 51.562500 51.562500 19.049500 19.757000 16.297600
267 52.343800 52.343800 52.343800 19.718200 20.450500 16.869700
268 53.125000 53.125000 53.125000 20.402300 21.160000 17.455000
269 68.380500 64.500400 79.807800 38.633800 36.822800 44.919500
270 69.383800 75.301800 100.00000 48.200400 49.892500 79.011900
271 100.00000 100.00000 100.00000 96.416000 99.996900 82.488000
272 49.123300 0.0000000 54.882500 14.605000 7.4378100 17.273000
273 61.184200 0.0000000 58.559200 22.762600 11.495700 20.102500
274 40.865500 35.463500 0.0000000 9.2145300 9.0298500 0.5923650
275 45.272000 60.472400 0.0000000 14.684200 21.970000 1.9437100
276 59.375000 59.375000 59.375000 26.451600 27.434000 22.630500
277 58.593800 58.593800 58.593800 25.638200 26.590400 21.934600
278 57.812500 57.812500 57.812500 24.840400 25.763000 21.252000
279 57.031300 57.031300 57.031300 24.060800 24.954400 20.585000
280 60.937500 60.937500 60.937500 28.131800 29.176700 24.068000
281 61.718800 61.718800 61.718800 28.996600 30.073600 24.807900
282 62.500000 62.500000 62.500000 29.879600 30.989400 25.563300
283 64.843800 64.843800 64.843800 32.637600 33.849800 27.922900
284 65.625000 65.625000 65.625000 33.592500 34.840100 28.739800
285 66.406300 66.406300 66.406300 34.566500 35.850300 29.573100
286 67.187500 67.187500 67.187500 35.559100 36.879800 30.422300
287 67.968800 67.968800 67.968800 36.569800 37.928000 31.287000
288 68.750000 68.750000 68.750000 37.600500 38.997100 32.168900
289 69.531300 69.531300 69.531300 38.649900 40.085300 33.066600
290 70.312500 70.312500 70.312500 39.718800 41.194000 33.981200
291 71.093800 71.093800 71.093800 40.807300 42.322900 34.912400
292 71.875000 71.875000 71.875000 41.914900 43.471600 35.860000
293 72.656300 72.656300 72.656300 43.042600 44.641200 36.824800
294 73.437500 73.437500 73.437500 44.191300 45.832600 37.807500
295 74.218800 74.218800 74.218800 45.359100 47.043700 38.806600
296 75.000000 75.000000 75.000000 46.548500 48.277300 39.824200
297 75.781300 75.781300 75.781300 47.757300 49.531100 40.858500
298 76.562500 76.562500 76.562500 48.986800 50.806200 41.910300
299 77.343800 77.343800 77.343800 50.237900 52.103800 42.980700
300 78.125000 78.125000 78.125000 51.509900 53.423000 44.068900
301 78.906300 78.906300 78.906300 52.802500 54.763600 45.174800
302 79.687500 79.687500 79.687500 54.118200 56.128200 46.300500
303 80.468800 80.468800 80.468800 55.454900 57.514500 47.444000
304 81.250000 81.250000 81.250000 56.812300 58.922300 48.605400
305 82.031300 82.031300 82.031300 58.192700 60.354000 49.786300
306 82.812500 82.812500 82.812500 59.595400 61.808800 50.986400
307 83.593800 83.593800 83.593800 61.020100 63.286400 52.205300
308 84.375000 84.375000 84.375000 62.466800 64.786900 53.443000
309 85.156300 85.156300 85.156300 63.937000 66.311700 54.700900
310 85.937500 85.937500 85.937500 65.430800 67.860900 55.978800
311 86.718800 86.718800 86.718800 66.946500 69.432900 57.275600
312 87.500000 87.500000 87.500000 68.485700 71.029300 58.592500
313 88.281300 88.281300 88.281300 70.047000 72.648600 59.928200
314 89.062500 89.062500 89.062500 71.633200 74.293700 61.285300
315 89.843800 89.843800 89.843800 73.244400 75.964700 62.663700
316 90.625000 90.625000 90.625000 74.877600 77.658600 64.061000
317 91.406300 91.406300 91.406300 76.535800 79.378400 65.479700
318 92.187500 92.187500 92.187500 78.217600 81.122600 66.918500
319 92.968800 92.968800 92.968800 79.924200 82.892600 68.378600
320 93.750000 93.750000 93.750000 81.655800 84.688500 69.860000
321 94.531300 94.531300 94.531300 83.412300 86.510300 71.362800
322 95.312500 95.312500 95.312500 85.193800 88.358000 72.887000
323 96.093800 96.093800 96.093800 87.000300 90.231600 74.432500
324 96.875000 96.875000 96.875000 88.831800 92.131000 75.999400
325 97.656300 97.656300 97.656300 90.689600 94.057900 77.588900
326 100.00000 0.0000000 0.0000000 65.021600 32.024900 3.3e-0600
327 100.00000 0.0000000 28.686200 65.798400 32.468700 4.3278400
328 100.00000 0.0000000 64.806900 69.614900 34.649400 25.591500
329 71.325600 35.429600 37.149700 30.598900 19.656500 7.8727700
330 56.250000 56.250000 56.250000 23.296700 24.161900 19.931300
331 55.468800 55.468800 55.468800 22.549400 23.386900 19.292000
332 54.687500 54.687500 54.687500 21.817600 22.627900 18.665900
333 53.906300 53.906300 53.906300 21.102600 21.886300 18.054200
334 53.328200 59.831300 53.260700 21.747500 25.309300 18.009400
335 60.156300 60.156300 60.156300 27.283200 28.296500 23.341900
336 74.996100 49.956000 0.0000000 34.660800 26.526800 1.2470500
337 100.00000 63.260000 0.0000000 70.701900 51.231300 2.1641000
338 100.00000 75.278300 0.0000000 73.697400 61.359600 3.3053300
339 100.00000 100.00000 0.0000000 82.828200 92.233300 6.7840500
340 55.092500 60.408700 0.0000000 20.056800 24.579300 1.9388500
341 66.821400 100.00000 0.0000000 41.471700 71.864100 6.7840500
342 75.380700 100.00000 59.343600 53.316600 77.991600 27.527300
343 0.0000000 100.00000 0.0000000 17.806600 60.208400 6.7840500
344 0.0000000 100.00000 20.190100 18.219100 60.444100 9.0825000
345 0.0000000 100.00000 100.00000 31.394400 67.972000 82.488000
346 0.0000000 65.360900 73.884100 12.465700 24.386700 37.561200
347 0.0000000 78.560600 100.00000 23.233600 40.378500 79.378900
348 56.547200 89.811900 100.00000 43.008200 61.294700 80.853000
349 0.0000000 15.899700 19.441000 0.7578310 1.4735000 2.3002000
350 0.0000000 37.499600 28.278600 2.5024900 6.3380100 4.8760300
351 0.0000000 80.939300 41.215900 12.022700 36.070000 13.043700
352 43.116100 100.00000 65.715600 31.162900 67.161200 33.248000
353 42.751700 100.00000 100.00000 39.842400 72.132900 82.488000
354 78.232600 100.00000 100.00000 66.251000 85.139900 82.488000
355 61.978300 93.387100 71.165300 40.448700 63.509700 37.809300
356 100.00000 77.149100 42.973700 76.027400 64.221100 13.460800
357 83.157400 61.245400 54.046800 48.861900 39.490600 18.672200
358 90.550300 59.743800 79.880400 63.020500 45.964500 44.638200
359 100.00000 82.766300 90.110800 86.413000 75.130500 62.133000
