dispcalGUI/ti1/d3-e4-s0-g49-m0-f0-cubic2-crossover.ti1
CTI1   

ORIGINATOR "Argyll targen"
CREATED "Wed Feb 24 17:32:38 2010"
KEYWORD "COMP_GREY_STEPS"
COMP_GREY_STEPS "49"
KEYWORD "ERROR_OPTIMISED_PATCHES"
ERROR_OPTIMISED_PATCHES "0"
KEYWORD "APPROX_WHITE_POINT"
APPROX_WHITE_POINT "95.106486 100.000000 108.844025"
DESCRIPTOR "Argyll Calibration Target chart information 1"
KEYWORD "MULTI_DIM_BCC_STEPS"
MULTI_DIM_BCC_STEPS "3"
KEYWORD "WHITE_COLOR_PATCHES"
WHITE_COLOR_PATCHES "4"
KEYWORD "SINGLE_DIM_STEPS"
SINGLE_DIM_STEPS "0"
KEYWORD "COLOR_REP"
COLOR_REP "RGB"

NUMBER_OF_FIELDS 7
BEGIN_DATA_FORMAT
SAMPLE_ID RGB_R RGB_G RGB_B XYZ_X XYZ_Y XYZ_Z
END_DATA_FORMAT

NUMBER_OF_SETS 94
BEGIN_DATA
1 100.00 100.00 100.00 95.106 100.00 108.84
2 100.00 100.00 100.00 95.106 100.00 108.84
3 100.00 100.00 100.00 95.106 100.00 108.84
4 100.00 100.00 100.00 95.106 100.00 108.84
5 0.0000 0.0000 0.0000 1.0000 1.0000 1.0000
6 2.0833 2.0833 2.0833 1.1517 1.1596 1.1739
7 4.1667 4.1667 4.1667 1.3037 1.3195 1.3481
8 6.2500 6.2500 6.2500 1.4852 1.5104 1.5560
9 8.3333 8.3333 8.3333 1.7179 1.7552 1.8226
10 10.417 10.417 10.417 2.0052 2.0575 2.1520
11 12.500 12.500 12.500 2.3504 2.4206 2.5475
12 14.583 14.583 14.583 2.7564 2.8477 3.0128
13 16.667 16.667 16.667 3.2258 3.3416 3.5508
14 18.750 18.750 18.750 3.7614 3.9049 4.1645
15 20.833 20.833 20.833 4.3653 4.5403 4.8566
16 22.917 22.917 22.917 5.0401 5.2502 5.6298
17 25.000 25.000 25.000 5.7878 6.0367 6.4867
18 27.083 27.083 27.083 6.6105 6.9023 7.4295
19 29.167 29.167 29.167 7.5103 7.8489 8.4607
20 31.250 31.250 31.250 8.4891 8.8786 9.5824
21 33.333 33.333 33.333 9.5488 9.9933 10.797
22 35.417 35.417 35.417 10.691 11.195 12.106
23 37.500 37.500 37.500 11.918 12.486 13.512
24 39.583 39.583 39.583 13.231 13.867 15.016
25 41.667 41.667 41.667 14.631 15.340 16.621
26 43.750 43.750 43.750 16.121 16.908 18.329
27 45.833 45.833 45.833 17.702 18.571 20.140
28 47.917 47.917 47.917 19.375 20.331 22.058
29 50.000 50.000 50.000 21.143 22.190 24.083
30 52.083 52.083 52.083 23.005 24.149 26.218
31 54.167 54.167 54.167 24.965 26.211 28.463
32 56.250 56.250 56.250 27.022 28.375 30.821
33 58.333 58.333 58.333 29.179 30.644 33.293
34 60.417 60.417 60.417 31.437 33.020 35.880
35 62.500 62.500 62.500 33.797 35.503 38.585
36 64.583 64.583 64.583 36.261 38.094 41.408
37 66.667 66.667 66.667 38.829 40.796 44.351
38 68.750 68.750 68.750 41.503 43.609 47.415
39 70.833 70.833 70.833 44.284 46.535 50.603
40 72.917 72.917 72.917 47.174 49.575 53.914
41 75.000 75.000 75.000 50.173 52.730 57.351
42 77.083 77.083 77.083 53.282 56.001 60.915
43 79.167 79.167 79.167 56.504 59.390 64.606
44 81.250 81.250 81.250 59.838 62.898 68.427
45 83.333 83.333 83.333 63.287 66.526 72.379
46 85.417 85.417 85.417 66.850 70.275 76.463
47 87.500 87.500 87.500 70.530 74.146 80.680
48 89.583 89.583 89.583 74.327 78.140 85.031
49 91.667 91.667 91.667 78.242 82.259 89.518
50 93.750 93.750 93.750 82.277 86.503 94.142
51 95.833 95.833 95.833 86.432 90.874 98.903
52 97.917 97.917 97.917 90.708 95.373 103.80
53 0.0000 0.0000 50.000 4.8252 2.5298 21.147
54 0.0000 0.0000 100.00 18.871 8.1473 95.129
55 0.0000 50.000 0.0000 8.5782 16.154 3.5261
56 0.0000 50.000 50.000 12.403 17.684 23.674
57 0.0000 50.000 100.00 26.449 23.302 97.655
58 0.0000 100.00 0.0000 36.405 71.801 12.802
59 0.0000 100.00 50.000 40.230 73.330 32.949
60 0.0000 100.00 100.00 54.276 78.948 106.93
61 25.000 25.000 75.000 14.217 9.4077 50.882
62 25.000 75.000 25.000 22.486 39.429 12.053
63 25.000 75.000 75.000 30.915 42.800 56.448
64 50.000 0.0000 0.0000 9.7393 5.5060 1.4095
65 50.000 0.0000 50.000 13.564 7.0358 21.557
66 50.000 0.0000 100.00 27.610 12.653 95.538
67 50.000 50.000 0.0000 17.318 20.660 3.9356
68 50.000 50.000 100.00 35.189 27.808 98.065
69 50.000 100.00 0.0000 45.145 76.307 13.211
70 50.000 100.00 50.000 48.970 77.836 33.359
71 50.000 100.00 100.00 63.016 83.454 107.34
72 75.000 25.000 25.000 25.045 15.966 7.3890
73 75.000 25.000 75.000 33.474 19.337 51.785
74 75.000 75.000 25.000 41.744 49.359 12.955
75 100.00 0.0000 0.0000 41.830 22.052 2.9132
76 100.00 0.0000 50.000 45.655 23.582 23.061
77 100.00 0.0000 100.00 59.701 29.199 97.042
78 100.00 50.000 0.0000 49.408 37.206 5.4393
79 100.00 50.000 50.000 53.233 38.736 25.587
80 100.00 50.000 100.00 67.279 44.354 99.568
81 100.00 100.00 0.0000 77.235 92.853 14.715
82 100.00 100.00 50.000 81.061 94.383 34.863
83 0.0000 12.549 100.00 19.382 9.1699 95.299
84 12.549 0.0000 100.00 19.461 8.4514 95.157
85 0.0000 100.00 12.549 36.663 71.904 14.161
86 12.549 100.00 0.0000 36.995 72.105 12.829
87 100.00 0.0000 12.549 42.088 22.155 4.2728
88 100.00 12.549 0.0000 42.342 23.075 3.0837
89 0.0000 25.098 100.00 20.686 11.777 95.734
90 25.098 0.0000 100.00 20.964 9.2266 95.227
91 0.0000 100.00 25.098 37.321 72.167 17.628
92 25.098 100.00 0.0000 38.499 72.880 12.900
93 100.00 0.0000 25.098 42.746 22.419 7.7392
94 100.00 25.098 0.0000 43.645 25.682 3.5183
END_DATA
CTI1   

ORIGINATOR "Argyll targen"
KEYWORD "DENSITY_EXTREME_VALUES"
DENSITY_EXTREME_VALUES "8"
CREATED "February 24, 2010"
DESCRIPTOR "Argyll Calibration Target chart information 1"

KEYWORD "INDEX"
NUMBER_OF_FIELDS 7
BEGIN_DATA_FORMAT
INDEX RGB_R RGB_G RGB_B XYZ_X XYZ_Y XYZ_Z
END_DATA_FORMAT

NUMBER_OF_SETS 8
BEGIN_DATA
0 100.00 100.00 100.00 95.106 100.00 108.84
1 0.0000 47.361 100.00 25.613 21.629 97.376
2 100.00 0.0000 79.351 52.426 26.290 58.722
3 0.0000 0.0000 58.997 6.4858 3.1940 29.894
4 100.00 66.659 0.0000 56.059 50.505 7.6561
5 0.0000 35.601 0.0000 4.6856 8.3702 2.2286
6 84.444 0.0000 0.0000 28.843 15.356 2.3047
7 0.0000 0.0000 0.0000 1.0000 1.0000 1.0000
END_DATA
CTI1   

ORIGINATOR "Argyll targen"
CREATED "February 24, 2010"
DESCRIPTOR "Argyll Calibration Target chart information 1"
KEYWORD "DEVICE_COMBINATION_VALUES"
DEVICE_COMBINATION_VALUES "9"

KEYWORD "INDEX"
NUMBER_OF_FIELDS 7
BEGIN_DATA_FORMAT
INDEX RGB_R RGB_G RGB_B XYZ_X XYZ_Y XYZ_Z
END_DATA_FORMAT

NUMBER_OF_SETS 9
BEGIN_DATA
0 100.00 100.00 100.00 95.106 100.00 108.84
1 0.0000 100.00 100.00 54.276 78.948 106.93
2 100.00 0.0000 100.00 59.701 29.199 97.042
3 0.0000 0.0000 100.00 18.871 8.1473 95.129
4 100.00 100.00 0.0000 77.235 92.853 14.715
5 0.0000 100.00 0.0000 36.405 71.801 12.802
6 100.00 0.0000 0.0000 41.830 22.052 2.9132
7 0.0000 0.0000 0.0000 1.0000 1.0000 1.0000
8 60.000 60.000 60.000 30.977 32.536 35.353
END_DATA