dispcalGUI/ti1/d3-e4-s25-g73-m0-f679-ceRGBv2.ti1
CTI1   

DESCRIPTOR "Argyll Calibration Target chart information 1"
ORIGINATOR "Argyll targen"
CREATED "Wed Aug 27 17:31:02 2014"
KEYWORD "APPROX_WHITE_POINT"
APPROX_WHITE_POINT "96.419050 100.000000 82.491079"
KEYWORD "COLOR_REP"
COLOR_REP "RGB"
KEYWORD "ACCURATE_EXPECTED_VALUES"
ACCURATE_EXPECTED_VALUES "true"
KEYWORD "WHITE_COLOR_PATCHES"
WHITE_COLOR_PATCHES "4"
KEYWORD "BLACK_COLOR_PATCHES"
BLACK_COLOR_PATCHES "4"
KEYWORD "SINGLE_DIM_STEPS"
SINGLE_DIM_STEPS "25"
KEYWORD "COMP_GREY_STEPS"
COMP_GREY_STEPS "73"
KEYWORD "OFPS_PATCHES"
OFPS_PATCHES "528"

NUMBER_OF_FIELDS 7
BEGIN_DATA_FORMAT
SAMPLE_ID RGB_R RGB_G RGB_B XYZ_X XYZ_Y XYZ_Z 
END_DATA_FORMAT

NUMBER_OF_SETS 679
BEGIN_DATA
1 100.000 100.000 100.000 96.4191 100.0000 82.4911 
2 9.73748 0.00000 14.6213 0.960170 0.492677 1.39259 
3 21.4884 0.00000 14.0482 2.43115 1.21610 1.31599 
4 48.5214 13.2492 23.9315 12.0297 6.79360 3.19689 
5 66.4651 71.2622 43.9500 32.8180 38.2084 13.3381 
6 78.3138 78.1238 66.9245 49.4256 52.2148 31.2815 
7 100.000 0.00000 18.4210 65.3819 32.2311 1.97778 
8 100.000 0.00000 52.0347 67.7684 33.5952 15.2745 
9 100.000 0.00000 67.5654 70.1069 34.9319 28.3039 
10 100.000 0.00000 83.6600 73.6437 36.9535 48.0098 
11 100.000 60.8918 87.0407 79.7362 55.0067 55.0392 
12 71.0691 34.3567 100.000 42.5436 26.2361 76.2634 
13 85.3910 56.0735 100.000 61.2814 43.5946 77.3353 
14 100.000 55.7889 100.000 82.8351 54.0653 77.3162 
15 0.00000 0.00000 16.6667 0.303442 0.173444 1.69069 
16 37.5984 0.00000 19.7296 6.81139 3.38625 2.21220 
17 43.7608 50.1131 72.1893 18.1584 18.9384 34.5236 
18 47.8618 72.9724 72.3985 24.8972 35.9473 36.5650 
19 57.2573 76.1056 81.2626 33.3007 42.7837 48.0237 
20 76.9182 90.5704 100.000 60.8145 70.9118 80.9678 
21 54.1667 0.00000 0.00000 14.3916 7.08839 1.78305e-007 
22 58.3333 0.00000 0.00000 17.1106 8.42760 2.11993e-007 
23 62.5000 0.00000 0.00000 20.1527 9.92596 2.49683e-007 
24 66.6667 0.00000 0.00000 23.5351 11.5919 2.91590e-007 
25 70.8333 0.00000 0.00000 27.2759 13.4344 3.37937e-007 
26 75.0000 0.00000 0.00000 31.3940 15.4627 3.88958e-007 
27 79.1667 0.00000 0.00000 35.9066 17.6854 4.44867e-007 
28 83.3333 0.00000 0.00000 40.8325 20.1115 5.05897e-007 
29 87.5000 0.00000 0.00000 46.1891 22.7499 5.72264e-007 
30 91.6667 0.00000 0.00000 51.9955 25.6098 6.44202e-007 
31 95.8333 0.00000 0.00000 58.2686 28.6995 7.21924e-007 
32 100.000 0.00000 0.00000 65.0270 32.0282 8.05656e-007 
33 26.0377 87.7653 0.00000 15.8388 44.6182 4.85485 
34 47.5412 87.7914 0.00000 23.4409 48.3904 4.85852 
35 62.6025 100.000 0.00000 38.0356 70.1698 6.78255 
36 76.1898 100.000 23.2823 50.9733 76.5839 9.72240 
37 0.00000 82.7982 31.2251 11.9167 37.7206 9.29871 
38 0.00000 100.000 33.3396 18.8496 60.8027 12.6083 
39 0.00000 100.000 57.7172 21.2914 62.1983 26.2130 
40 0.00000 33.3333 0.00000 1.36950 4.63101 0.521719 
41 0.00000 37.5000 0.00000 1.74668 5.90647 0.665408 
42 0.00000 41.6667 0.00000 2.18723 7.39621 0.833239 
43 0.00000 45.8333 0.00000 2.69658 9.11860 1.02728 
44 0.00000 50.0000 0.00000 3.27922 11.0888 1.24924 
45 0.00000 54.1667 0.00000 3.94033 13.3244 1.50109 
46 0.00000 58.3333 0.00000 4.68478 15.8418 1.78469 
47 0.00000 62.5000 0.00000 5.51770 18.6583 2.10200 
48 0.00000 66.6667 0.00000 6.44379 21.7899 2.45480 
49 0.00000 70.8333 0.00000 7.46800 25.2533 2.84498 
50 0.00000 75.0000 0.00000 8.59550 29.0660 3.27451 
51 0.00000 79.1667 0.00000 9.83104 33.2440 3.74519 
52 0.00000 83.3333 0.00000 11.1797 37.8046 4.25898 
53 0.00000 87.5000 0.00000 12.6463 42.7641 4.81769 
54 0.00000 91.6667 0.00000 14.2361 48.1399 5.42332 
55 0.00000 95.8333 0.00000 15.9536 53.9478 6.07763 
56 79.3982 0.00000 54.0271 39.1588 19.5235 16.6560 
57 100.000 0.00000 100.000 78.6150 39.7950 75.7085 
58 100.000 33.3632 100.000 79.9870 44.4344 76.2312 
59 47.5862 48.1031 85.5402 22.8285 20.6447 51.9234 
60 51.4339 56.8674 100.000 30.7762 28.9821 77.3897 
61 0.00000 0.00000 20.8333 0.435000 0.248640 2.42369 
62 0.00000 0.00000 25.0000 0.599939 0.342917 3.34268 
63 0.00000 0.00000 29.1667 0.802096 0.458467 4.46904 
64 0.00000 0.00000 33.3333 1.04520 0.597424 5.82356 
65 0.00000 0.00000 37.5000 1.33307 0.761964 7.42746 
66 0.00000 0.00000 41.6667 1.66930 0.954148 9.30082 
67 0.00000 0.00000 45.8333 2.05803 1.17634 11.4667 
68 0.00000 0.00000 50.0000 2.50270 1.43051 13.9443 
69 0.00000 0.00000 54.1667 3.00726 1.71891 16.7556 
70 0.00000 0.00000 58.3333 3.57543 2.04367 19.9212 
71 0.00000 0.00000 62.5000 4.21111 2.40701 23.4630 
72 0.00000 0.00000 66.6667 4.91790 2.81101 27.4011 
73 0.00000 0.00000 70.8333 5.69958 3.25780 31.7563 
74 0.00000 0.00000 75.0000 6.56009 3.74966 36.5509 
75 0.00000 0.00000 79.1667 7.50305 4.28864 41.8047 
76 0.00000 0.00000 83.3333 8.53236 4.87699 47.5398 
77 0.00000 0.00000 87.5000 9.65169 5.51678 53.7763 
78 0.00000 0.00000 91.6667 10.8650 6.21029 60.5365 
79 0.00000 0.00000 95.8333 12.1758 6.95954 67.8401 
80 60.7734 0.00000 100.000 32.4402 17.0521 75.7085 
81 79.0218 0.00000 100.000 49.3309 25.3714 75.7085 
82 2.77778 2.77778 2.77778 0.296582 0.307596 0.253740 
83 4.16667 4.16667 4.16667 0.444688 0.461204 0.380452 
84 5.55556 5.55556 5.55556 0.593163 0.615193 0.507479 
85 6.94444 6.94444 6.94444 0.741454 0.768991 0.634349 
86 8.33333 8.33333 8.33333 0.889745 0.922789 0.761219 
87 9.72222 9.72222 9.72222 1.05122 1.09026 0.899365 
88 11.1111 11.1111 11.1111 1.23095 1.27667 1.05314 
89 12.5000 12.5000 12.5000 1.42951 1.48260 1.22302 
90 13.8889 13.8889 13.8889 1.64977 1.71104 1.41146 
91 15.2778 15.2778 15.2778 1.88977 1.95996 1.61679 
92 16.6667 16.6667 16.6667 2.15319 2.23316 1.84216 
93 18.0556 18.0556 18.0556 2.43990 2.53052 2.08745 
94 19.4444 19.4444 19.4444 2.75003 2.85217 2.35278 
95 20.8333 20.8333 20.8333 3.08670 3.20134 2.64082 
96 22.2222 22.2222 22.2222 3.44962 3.57773 2.95131 
97 23.6111 23.6111 23.6111 3.83882 3.98140 3.28430 
98 25.0000 25.0000 25.0000 4.25709 4.41520 3.64214 
99 26.3889 26.3889 26.3889 4.70460 4.87933 4.02501 
100 27.7778 27.7778 27.7778 5.18276 5.37524 4.43410 
101 29.1667 29.1667 29.1667 5.69157 5.90295 4.86941 
102 30.5556 30.5556 30.5556 6.23336 6.46487 5.33294 
103 31.9444 31.9444 31.9444 6.80789 7.06073 5.82447 
104 33.3333 33.3333 33.3333 7.41662 7.69207 6.34527 
105 34.7222 34.7222 34.7222 8.06042 8.35978 6.89607 
106 36.1111 36.1111 36.1111 8.74137 9.06602 7.47866 
107 37.5000 37.5000 37.5000 9.45928 9.81060 8.09287 
108 38.8889 38.8889 38.8889 10.2150 10.5943 8.73938 
109 40.2778 40.2778 40.2778 11.0107 11.4197 9.42020 
110 41.6667 41.6667 41.6667 11.8451 12.2850 10.1341 
111 43.0556 43.0556 43.0556 12.7225 13.1950 10.8847 
112 44.4444 44.4444 44.4444 13.6415 14.1482 11.6710 
113 45.8333 45.8333 45.8333 14.6035 15.1459 12.4940 
114 47.2222 47.2222 47.2222 15.6101 16.1898 13.3552 
115 48.6111 48.6111 48.6111 16.6611 17.2799 14.2544 
116 50.0000 50.0000 50.0000 17.7588 18.4184 15.1935 
117 51.3889 51.3889 51.3889 18.9043 19.6064 16.1736 
118 52.7778 52.7778 52.7778 20.0973 20.8437 17.1942 
119 54.1667 54.1667 54.1667 21.3392 22.1317 18.2567 
120 55.5556 55.5556 55.5556 22.6319 23.4724 19.3627 
121 56.9444 56.9444 56.9444 23.9757 24.8661 20.5123 
122 58.3333 58.3333 58.3333 25.3708 26.3130 21.7059 
123 59.7222 59.7222 59.7222 26.8199 27.8160 22.9457 
124 61.1111 61.1111 61.1111 28.3230 29.3749 24.2317 
125 62.5000 62.5000 62.5000 29.8815 30.9913 25.5650 
126 63.8889 63.8889 63.8889 31.4954 32.6651 26.9458 
127 65.2778 65.2778 65.2778 33.1666 34.3984 28.3756 
128 66.6667 66.6667 66.6667 34.8968 36.1929 29.8559 
129 68.0556 68.0556 68.0556 36.6854 38.0479 31.3861 
130 69.4444 69.4444 69.4444 38.5338 39.9649 32.9675 
131 70.8333 70.8333 70.8333 40.4435 41.9455 34.6013 
132 72.2222 72.2222 72.2222 42.4159 43.9913 36.2889 
133 73.6111 73.6111 73.6111 44.4505 46.1014 38.0295 
134 75.0000 75.0000 75.0000 46.5496 48.2784 39.8254 
135 76.3889 76.3889 76.3889 48.7129 50.5220 41.6762 
136 77.7778 77.7778 77.7778 50.9439 52.8359 43.5849 
137 79.1667 79.1667 79.1667 53.2407 55.2180 45.5499 
138 80.5556 80.5556 80.5556 55.6063 57.6715 47.5738 
139 81.9444 81.9444 81.9444 58.0400 60.1956 49.6560 
140 83.3333 83.3333 83.3333 60.5446 62.7932 51.7988 
141 84.7222 84.7222 84.7222 63.1202 65.4644 54.0023 
142 86.1111 86.1111 86.1111 65.7673 68.2099 56.2671 
143 87.5000 87.5000 87.5000 68.4872 71.0307 58.5940 
144 88.8889 88.8889 88.8889 71.2816 73.9289 60.9848 
145 90.2778 90.2778 90.2778 74.1508 76.9047 63.4395 
146 91.6667 91.6667 91.6667 77.0966 79.9599 65.9598 
147 93.0556 93.0556 93.0556 80.1183 83.0938 68.5450 
148 94.4444 94.4444 94.4444 83.2184 86.3091 71.1973 
149 95.8333 95.8333 95.8333 86.3981 89.6069 73.9177 
150 97.2222 97.2222 97.2222 89.6568 92.9866 76.7056 
151 0.00000 53.5821 100.000 17.4308 20.7612 77.1725 
152 0.00000 64.3869 100.000 19.5131 27.8025 77.9657 
153 0.00000 0.00000 100.000 13.5880 7.76675 75.7085 
154 0.00000 27.5858 100.000 14.5324 10.9601 76.0683 
155 0.00000 42.0193 100.000 15.8157 15.2997 76.5572 
156 0.00000 86.3192 100.000 25.8065 49.0840 80.3632 
157 0.00000 100.000 0.00000 17.8040 60.2050 6.78255 
158 39.7382 100.000 0.00000 25.0178 63.7581 6.78255 
159 48.6263 100.000 26.3629 29.7103 66.1216 10.4699 
160 51.3950 100.000 62.8709 34.8281 68.9276 30.5797 
161 64.0199 100.000 76.6120 46.0646 74.6710 45.3101 
162 82.2033 100.000 79.8372 64.9211 84.0177 49.4770 
163 90.5919 100.000 89.1597 78.3809 90.8417 63.1873 
164 66.6440 0.00000 59.3382 27.2382 13.7101 20.7399 
165 82.6887 0.00000 74.9426 46.5899 23.4649 36.4818 
166 85.9981 74.5335 100.000 66.2596 58.1621 78.9330 
167 34.2354 0.00000 100.000 18.8695 10.3681 75.7085 
168 52.3221 69.8167 100.000 34.0833 38.6873 78.4547 
169 67.7113 69.8443 100.000 45.2421 44.2036 78.4574 
170 72.1495 0.00000 32.7664 29.5452 14.6320 5.62554 
171 100.000 32.2633 34.3066 67.4175 36.9977 6.66338 
172 100.000 64.8934 53.8727 74.0344 54.1428 18.8457 
173 100.000 65.8654 70.2584 76.8721 56.3835 33.5135 
174 100.000 76.0158 85.8441 83.1094 67.3348 54.6219 
175 0.00000 0.00000 0.00000 0.00000 0.00000 0.00000 
176 29.1386 40.7131 0.00000 5.91222 8.92317 0.792659 
177 85.2050 73.3309 0.00000 51.3157 48.7658 3.09761 
178 100.000 100.000 0.00000 82.8310 92.2333 6.78255 
179 100.000 100.000 32.9964 83.8550 92.8186 12.4880 
180 25.0269 34.4784 37.3768 5.66756 7.13452 7.93476 
181 51.7579 36.8614 52.7029 17.4681 13.6946 16.3710 
182 28.9321 14.7424 33.3498 5.15682 3.58004 5.95564 
183 30.2830 33.2293 59.6652 9.26213 8.79142 21.5301 
184 0.00000 66.1662 43.3455 8.14685 22.4364 12.5477 
185 0.00000 70.5288 72.1968 13.3620 28.4020 36.0916 
186 46.4144 88.1860 89.8265 33.3463 54.5066 62.3990 
187 54.9983 87.9782 100.000 41.3200 58.4701 80.5934 
188 0.00000 100.000 79.1079 25.2932 64.4857 48.5099 
189 0.00000 100.000 100.000 31.3921 67.9718 82.4911 
190 26.2558 100.000 100.000 34.5354 69.5200 82.4911 
191 45.8926 100.000 100.000 41.2694 72.8367 82.4911 
192 60.3321 100.000 100.000 49.9211 77.0980 82.4911 
193 0.00000 78.6837 64.1701 14.1676 35.3042 28.6805 
194 69.5091 83.5432 66.4583 42.1787 53.6639 31.4801 
195 89.4016 100.000 71.5611 72.4305 87.5726 39.3444 
196 100.000 100.000 72.3319 88.8308 95.6627 40.2116 
197 65.4448 85.1312 0.00000 34.3046 50.9800 4.49442 
198 81.8804 100.000 0.00000 56.8709 79.4469 6.78255 
199 100.000 100.000 87.6944 92.5372 97.7812 60.8625 
200 0.00000 4.16667 0.00000 0.0821129 0.277668 0.0312814 
201 0.00000 12.5112 13.2594 0.482391 1.01835 1.31591 
202 0.00000 14.0346 38.6877 1.73288 1.85894 8.05081 
203 0.00000 54.8283 75.8707 10.8031 17.5635 39.1540 
204 0.00000 85.5238 83.1545 20.4220 45.2116 51.8303 
205 52.6923 27.2209 0.00000 14.4246 9.76539 0.350854 
206 58.0953 57.1977 0.00000 21.4205 23.4739 1.70415 
207 69.7587 57.2643 0.00000 30.7612 28.1098 1.70880 
208 76.4540 66.8277 15.9253 39.6871 38.2947 4.04724 
209 100.000 67.2046 36.8239 72.8806 54.9798 9.65273 
210 8.33333 0.00000 0.00000 0.600062 0.295553 7.43451e-009 
211 33.3333 0.00000 0.00000 5.00192 2.46364 6.19717e-008 
212 37.5000 0.00000 0.00000 6.37953 3.14216 7.90397e-008 
213 73.9567 37.7807 14.7316 32.3527 21.0805 2.08361 
214 100.000 51.5690 36.7277 69.8219 44.6566 8.45105 
215 0.00000 8.33333 0.00000 0.164294 0.555565 0.0625886 
216 0.00000 12.5000 0.00000 0.263963 0.892602 0.100558 
217 12.2893 16.1470 0.00000 1.32214 1.74578 0.144336 
218 30.9672 74.8846 0.00000 12.8791 31.0815 3.26207 
219 0.00000 64.6179 25.0867 6.58016 20.5545 5.64082 
220 47.3693 80.3557 25.9759 21.4492 40.0953 7.47469 
221 82.4607 83.0209 31.9400 51.7990 57.5828 9.56296 
222 100.000 83.0289 0.00000 76.1041 69.4859 4.21989 
223 100.000 88.7303 25.8328 78.7669 76.6995 8.54239 
224 100.000 100.000 53.1455 85.7089 93.8782 22.8171 
225 61.8249 0.00000 35.0096 20.7922 10.3323 6.43779 
226 61.8987 24.9531 45.3080 22.4825 13.4953 11.4751 
227 20.8333 0.00000 0.00000 2.08174 1.02533 2.57918e-008 
228 25.0000 0.00000 0.00000 2.87107 1.41411 3.55713e-008 
229 29.1667 0.00000 0.00000 3.83851 1.89061 4.75575e-008 
230 41.6667 0.00000 0.00000 7.98859 3.93468 9.89752e-008 
231 45.2327 0.00000 45.5254 11.5917 5.86960 11.2961 
232 51.6469 16.6326 45.5540 15.3228 8.85265 11.4628 
233 52.8112 61.1428 52.8991 21.6573 26.0199 17.8585 
234 0.00000 34.9865 16.9377 1.82301 5.29035 2.30940 
235 0.00000 50.4382 27.0705 4.04050 11.7087 5.14962 
236 26.4374 63.5454 31.0519 9.83134 21.4997 7.23904 
237 56.6418 100.000 47.2961 35.9809 69.3323 19.0826 
238 75.7886 100.000 50.6172 52.5947 77.5442 21.1215 
239 17.1327 0.00000 28.3024 2.27231 1.17904 4.21780 
240 19.8749 0.00000 47.0963 4.11001 2.19719 12.1839 
241 36.0604 0.00000 52.2076 8.64055 4.47416 15.3915 
242 48.7566 0.00000 79.3335 18.8556 9.88335 42.0250 
243 72.6983 0.00000 81.8734 37.2335 18.9841 45.4746 
244 54.1124 0.00000 65.6024 19.0888 9.77586 26.3559 
245 53.4845 33.3168 80.8385 23.2500 16.0289 44.5685 
246 69.0773 41.0741 87.6163 37.4588 25.3415 54.7655 
247 19.7824 28.1072 41.6088 4.55149 5.20075 9.64579 
248 65.8053 37.8465 46.7551 26.7385 18.4845 12.6653 
249 86.4318 43.3776 74.4161 53.5965 33.8054 36.7613 
250 12.5000 0.00000 0.00000 0.964093 0.474852 1.19447e-008 
251 16.6667 0.00000 0.00000 1.45215 0.715241 1.79916e-008 
252 24.4833 13.3269 0.00000 3.05221 2.33475 0.109635 
253 37.8253 23.6229 17.9084 7.54526 5.79290 2.16115 
254 56.4144 48.8593 42.3689 20.6626 19.3049 10.8305 
255 98.6111 98.6111 98.6111 92.9971 96.4509 79.5634 
256 100.000 100.000 100.000 96.4191 100.0000 82.4911 
257 100.000 30.6665 17.2564 66.5064 36.1312 2.22582 
258 100.000 30.2600 64.0353 70.6190 38.3974 25.2964 
259 100.000 34.8341 82.0575 74.7329 41.7862 46.3016 
260 1.38889 1.38889 1.38889 0.148291 0.153798 0.126870 
261 0.00000 24.8418 19.8979 1.17974 2.85785 2.53959 
262 31.5787 28.8827 21.2514 5.96843 5.95462 2.90053 
263 47.7656 59.4872 30.9885 16.6105 22.4273 6.90108 
264 31.8400 54.2096 14.0309 8.74468 15.7301 2.81758 
265 39.7394 56.9074 42.9706 13.4198 19.5215 11.6305 
266 63.2005 76.8849 52.4026 32.6233 42.6959 19.0059 
267 63.9382 80.4910 75.9057 38.2857 48.9957 41.5568 
268 78.0188 82.1558 100.000 58.9975 61.2954 79.8178 
269 0.00000 0.00000 4.16667 0.0626686 0.0358205 0.349171 
270 0.00000 0.00000 8.33333 0.125389 0.0716707 0.698630 
271 0.00000 0.00000 12.5000 0.201457 0.115150 1.12246 
272 0.00000 17.2289 57.3944 3.86020 3.38252 19.3354 
273 19.9935 30.9694 89.2281 13.2681 10.7515 56.9655 
274 30.7274 46.2084 100.000 20.5844 19.1459 76.7546 
275 30.7921 59.6275 100.000 22.7900 26.5529 77.5881 
276 36.6624 72.6157 100.000 27.6097 37.6042 78.7323 
277 73.3648 100.000 100.000 61.1238 82.6158 82.4911 
278 83.9909 100.000 100.000 73.0410 88.4854 82.4911 
279 91.9568 100.000 100.000 83.8090 93.7891 82.4911 
280 45.8333 0.00000 0.00000 9.84893 4.85097 1.22024e-007 
281 50.0000 0.00000 0.00000 11.9769 5.89909 1.48389e-007 
282 83.7689 0.00000 20.3183 41.7889 20.6156 2.32387 
283 100.000 0.00000 34.5927 66.1543 32.6726 6.28097 
284 100.000 27.8031 48.0295 68.2709 36.5762 13.0979 
285 75.2931 22.9366 39.9285 33.8943 18.7596 8.74138 
286 76.2889 25.3799 76.6604 40.4806 22.8203 38.8959 
287 86.2588 30.2412 100.000 59.2632 33.5215 76.1381 
288 40.3248 14.0948 88.7985 17.7749 10.4450 55.9441 
289 53.8612 25.2632 100.000 28.5935 17.4726 76.0138 
290 54.3669 44.1051 100.000 30.5795 23.2908 76.6520 
291 70.4611 57.6178 100.000 45.0657 36.4182 77.4422 
292 37.5348 57.5300 0.00000 10.9264 18.4819 1.72746 
293 55.6683 68.3708 0.00000 22.1859 30.7182 2.60970 
294 46.9089 73.8931 0.00000 18.6570 33.1262 3.15643 
295 70.4417 73.0877 0.00000 34.9736 40.5254 3.07239 
296 73.9170 75.3162 38.0012 40.3422 45.0704 10.9468 
297 100.000 79.1858 72.5022 80.8985 68.7415 37.3701 
298 100.000 89.2884 88.1928 88.1872 82.6761 59.9354 
299 0.00000 20.8333 0.00000 0.569968 1.92737 0.217133 
300 13.7996 27.3716 0.00000 2.03324 3.68969 0.354483 
301 27.3430 34.1565 12.2561 5.02757 6.64994 1.64276 
302 67.1320 52.4513 38.2138 28.9802 24.9527 9.12231 
303 70.2426 64.8710 37.8061 34.1116 34.3374 9.85356 
304 100.000 81.3987 39.7584 77.0750 68.5288 12.4227 
305 100.000 90.3269 54.5706 81.7977 80.1419 22.2704 
306 27.3954 39.8036 33.9337 6.47019 8.99862 6.79448 
307 30.6339 47.6222 47.3493 9.37562 13.2789 13.4500 
308 31.2476 100.000 45.6322 24.2359 63.5340 18.1372 
309 39.2354 100.000 76.7365 31.7671 67.6312 45.4659 
310 0.00000 36.9737 53.6012 4.63081 7.41144 17.0001 
311 26.1828 55.8887 73.3794 13.5807 19.4231 36.2470 
312 78.7547 63.1052 79.5489 48.6823 40.8899 44.4613 
313 84.1607 76.5457 81.5584 58.9852 55.8104 48.4811 
314 27.6414 0.00000 72.8374 9.56588 5.19403 34.0067 
315 34.6977 41.7417 74.7420 14.1284 13.8166 37.0769 
316 100.000 90.1773 75.5227 85.3541 82.0123 42.3855 
317 37.2467 36.6951 0.00000 7.95794 8.74133 0.635816 
318 50.5305 39.3842 0.00000 14.2055 12.5948 0.738182 
319 51.7261 50.8583 32.2551 17.3289 18.4609 6.74843 
320 0.00000 57.4296 51.0729 7.14280 16.7725 16.3561 
321 39.9248 64.9317 53.4954 16.2546 25.7049 18.5832 
322 83.4619 36.9783 0.00000 42.6872 25.9249 0.646111 
323 100.000 38.2554 0.00000 66.8487 38.1884 0.693984 
324 100.000 62.9985 0.00000 70.6504 51.0440 2.14227 
325 100.000 74.4277 100.000 87.0493 68.3160 78.9216 
326 100.000 88.6731 100.000 91.6962 84.0294 80.6919 
327 0.00000 16.6667 0.00000 0.397592 1.34447 0.151465 
328 0.00000 20.6858 33.6767 1.63042 2.51461 6.16057 
329 0.00000 28.5863 56.0366 4.26516 5.27882 18.5163 
330 0.00000 45.9467 77.4737 9.82114 13.2326 40.6461 
331 0.00000 74.2287 100.000 21.9668 36.0998 78.9005 
332 31.0374 80.6794 100.000 28.2306 44.7567 79.6352 
333 62.3874 81.0245 100.000 44.0722 52.8795 79.6774 
334 69.6193 43.4306 0.00000 28.5423 20.9753 0.912115 
335 84.5983 60.0317 0.00000 47.4257 37.8425 1.90986 
336 79.8652 60.0455 34.8017 42.8604 35.6920 8.26980 
337 0.00000 25.0000 0.00000 0.786083 2.65817 0.299463 
338 0.00000 29.1667 0.00000 1.05096 3.55387 0.400371 
339 0.00000 41.3117 37.2745 3.46331 8.01288 8.15139 
340 0.00000 83.4574 51.8511 13.9410 39.5007 19.4264 
341 39.0183 90.6642 83.8580 29.4487 55.1794 53.5704 
342 17.6297 86.0646 89.0651 23.8082 47.5609 60.8730 
343 29.5033 90.4651 100.000 31.2777 56.2458 80.9523 
344 16.8133 7.75363 10.9162 1.79453 1.33853 1.00427 
345 16.3913 27.0186 11.2644 2.50027 3.86873 1.32856 
346 16.6212 27.2891 23.6359 2.91345 4.15090 3.37254 
347 20.0939 33.7268 76.8274 10.3250 9.68794 39.3314 
348 15.7953 18.0079 63.5933 6.17703 4.68551 24.6278 
349 18.5176 39.5588 70.9896 9.39981 10.7340 32.6734 
350 23.5745 84.1551 72.9203 20.1618 43.5207 38.4673 
351 24.4390 100.000 87.3117 30.1585 67.0489 60.2661 
352 53.8671 100.000 86.7266 41.4488 72.5969 59.3627 
353 14.7351 18.6470 9.78013 1.83307 2.28516 1.01175 
354 27.1312 25.5874 9.59850 4.30920 4.50389 1.12593 
355 41.5635 36.9321 86.9853 19.1462 15.0690 53.6227 
356 54.3415 61.3916 88.0745 29.5997 30.6295 56.6916 
357 66.2247 71.7832 89.3842 41.0636 43.3218 59.7067 
358 61.1082 24.0931 34.1512 20.9327 12.5207 6.39847 
359 68.9499 40.0677 38.8920 28.9895 20.2004 8.78805 
360 69.4176 52.8042 59.1731 33.3768 27.4651 22.0197 
361 76.5179 52.7877 68.4687 41.9498 31.8024 30.6464 
362 88.5891 53.7029 86.6230 60.9337 41.9153 53.8928 
363 32.5366 0.00000 30.0647 5.61418 2.83246 4.74084 
364 54.2437 0.00000 40.6202 16.0190 8.01486 8.80434 
365 86.9460 0.00000 39.9897 46.9795 23.2600 8.51306 
366 87.1735 13.6627 49.8940 48.5417 24.9657 13.9904 
367 89.0810 9.07000 69.1394 53.8904 27.4868 30.0021 
368 67.6421 14.6206 53.0233 27.5677 14.7505 16.0744 
369 90.6981 59.6004 76.1257 62.3396 45.4812 39.8019 
370 91.8326 72.4576 88.0601 69.9403 58.0321 57.6623 
371 46.7550 42.2107 52.5003 15.3434 14.2780 16.4471 
372 56.6838 45.8319 52.6774 21.5132 18.6088 16.7388 
373 75.9141 51.3431 53.2960 38.7298 29.3690 17.4668 
374 20.6129 57.4291 15.2611 6.82687 16.4300 3.20193 
375 18.2258 79.2496 16.2166 11.8181 34.3199 5.37661 
376 16.2177 89.4764 27.7596 15.5072 46.3641 9.16353 
377 39.2666 92.9340 37.9409 23.1431 54.1041 13.2298 
378 86.4349 94.3927 36.9071 61.4123 74.6814 13.0290 
379 24.2341 18.0149 9.65963 3.30926 2.93847 0.990369 
380 27.6143 19.4623 27.2198 4.66724 3.82357 4.10975 
381 37.3810 26.5307 27.5632 7.93380 6.49956 4.34373 
382 47.7434 26.5727 30.6300 12.5525 8.79490 5.25318 
383 43.5264 41.0572 33.1869 11.9418 12.0843 6.57866 
384 45.7677 53.0069 37.1181 14.8703 18.2557 8.69691 
385 53.7895 54.3728 45.1641 20.1273 21.5550 12.6123 
386 67.0686 25.4030 0.00000 24.6893 14.4989 0.308372 
387 71.2321 52.8437 13.2259 31.5920 26.3293 2.62868 
388 89.3435 69.9584 10.9741 56.1171 48.5826 3.71199 
389 88.2636 100.000 51.2376 67.6690 84.9746 21.5261 
390 6.27084 12.8025 13.3937 0.945309 1.27056 1.33570 
391 11.1148 18.0531 24.0569 1.84048 2.25204 3.28910 
392 21.8143 24.7110 32.1515 3.99441 4.26765 5.70815 
393 36.8644 32.0111 39.8348 8.93265 8.16655 8.92331 
394 30.7291 7.69970 14.6991 4.65435 2.75047 1.46103 
395 36.9578 16.2204 27.3277 7.27691 4.74224 4.09011 
396 40.8014 18.2546 38.9915 9.54125 6.13839 8.24084 
397 42.5552 29.6205 40.0796 10.9827 8.65980 8.96707 
398 49.2196 38.5896 39.7040 14.9173 12.8269 9.09013 
399 59.4345 42.1802 40.4601 21.6953 17.2990 9.58530 
400 74.7310 56.4155 90.5038 45.9641 35.9840 60.2459 
401 87.3735 65.6347 93.4783 63.6485 50.1795 66.0076 
402 0.00000 0.00000 0.00000 0.00000 0.00000 0.00000 
403 16.7189 9.94040 24.4156 2.23286 1.72035 3.27811 
404 27.1957 22.8811 36.8066 5.31026 4.65337 7.39810 
405 36.8675 28.8219 49.9540 9.68064 7.93286 14.3062 
406 39.8178 39.4064 56.4667 12.4976 12.0223 19.1972 
407 63.4534 42.0533 56.8225 26.4891 19.7596 19.5813 
408 86.9839 53.3204 63.3539 53.6515 37.7461 25.6845 
409 58.2435 81.3954 14.7635 27.8403 44.1765 5.42658 
410 75.6134 90.5843 15.0807 46.1052 62.6290 6.71747 
411 89.2064 100.000 23.2640 66.8424 84.3999 9.71827 
412 29.0910 44.1643 54.5256 9.35745 12.0269 17.9607 
413 42.0621 47.4904 58.5694 14.6829 15.9505 21.2236 
414 53.2668 57.1309 64.3529 22.8224 24.4862 26.8628 
415 78.4140 53.8929 41.4868 40.6096 31.3832 10.6984 
416 87.1902 54.9126 51.5067 52.5211 37.8309 16.4713 
417 40.9130 13.8716 12.6820 8.18949 4.92844 1.26035 
418 56.6653 32.3121 14.6599 17.5217 12.3656 1.88784 
419 66.2822 42.9192 28.4464 26.3051 19.7565 5.14743 
420 68.6238 54.9468 49.0314 31.7140 27.5771 14.8915 
421 11.0290 49.2675 18.3375 4.34651 11.3306 3.17176 
422 10.3828 55.6191 41.0146 6.56842 15.4680 10.5853 
423 30.8436 68.3847 51.4698 13.8100 26.8139 17.5083 
424 41.7356 81.0836 59.3577 22.1798 41.3722 24.7322 
425 16.7453 76.5964 51.7538 13.2260 32.8903 18.5361 
426 30.6665 86.8062 64.2790 21.1315 46.5697 29.8155 
427 46.1004 90.8411 73.0132 30.0276 55.4637 39.5082 
428 40.0733 26.3947 8.99571 8.35004 6.63420 1.08854 
429 49.0160 36.6137 11.5754 13.2932 11.3609 1.65032 
430 65.0857 42.2026 14.5382 24.7071 18.6857 2.23788 
431 90.0923 41.4605 17.6738 52.2441 32.0103 2.67663 
432 95.0141 45.2250 43.3256 61.4329 37.9641 11.1244 
433 90.2614 65.4678 47.4346 58.3752 46.7454 14.7300 
434 90.2342 74.7496 63.3395 62.8196 55.9124 27.4713 
435 93.2851 90.8784 71.7382 74.1809 77.2325 38.0648 
436 97.4889 91.9452 83.8279 83.9024 83.4577 53.7190 
437 100.000 100.000 100.000 96.4191 100.0000 82.4911 
438 39.7932 33.6257 19.4923 9.01818 8.49965 2.69915 
