dispcalGUI/ti1/d3-e4-s0-g49-m0-f0-cubic4-crossover.ti1
CTI1   

ORIGINATOR "Argyll targen"
CREATED "Tue Feb 23 08:40:01 2010"
KEYWORD "COMP_GREY_STEPS"
COMP_GREY_STEPS "49"
KEYWORD "ERROR_OPTIMISED_PATCHES"
ERROR_OPTIMISED_PATCHES "0"
KEYWORD "APPROX_WHITE_POINT"
APPROX_WHITE_POINT "95.106486 100.000000 108.844025"
DESCRIPTOR "Argyll Calibration Target chart information 1"
KEYWORD "MULTI_DIM_STEPS"
MULTI_DIM_STEPS "0"
KEYWORD "WHITE_COLOR_PATCHES"
WHITE_COLOR_PATCHES "4"
KEYWORD "SINGLE_DIM_STEPS"
SINGLE_DIM_STEPS "0"
KEYWORD "COLOR_REP"
COLOR_REP "RGB"

NUMBER_OF_FIELDS 7
BEGIN_DATA_FORMAT
SAMPLE_ID RGB_R RGB_G RGB_B XYZ_X XYZ_Y XYZ_Z
END_DATA_FORMAT

NUMBER_OF_SETS 238
BEGIN_DATA
1 100.000 100.000 100.000 95.1060 100.000 108.840
2 100.000 100.000 100.000 95.1060 100.000 108.840
3 100.000 100.000 100.000 95.1060 100.000 108.840
4 100.000 100.000 100.000 95.1060 100.000 108.840
5 0.00000 0.00000 0.00000 1.00000 1.00000 1.00000
6 2.08330 2.08330 2.08330 1.15170 1.15960 1.17390
7 4.16670 4.16670 4.16670 1.30370 1.31950 1.34810
8 6.25000 6.25000 6.25000 1.48520 1.51040 1.55600
9 8.33330 8.33330 8.33330 1.71790 1.75520 1.82260
10 10.4170 10.4170 10.4170 2.00520 2.05750 2.15200
11 12.5000 12.5000 12.5000 2.35040 2.42060 2.54750
12 14.5830 14.5830 14.5830 2.75640 2.84770 3.01280
13 16.6670 16.6670 16.6670 3.22580 3.34160 3.55080
14 18.7500 18.7500 18.7500 3.76140 3.90490 4.16450
15 20.8330 20.8330 20.8330 4.36530 4.54030 4.85660
16 22.9170 22.9170 22.9170 5.04010 5.25020 5.62980
17 25.0000 25.0000 25.0000 5.78780 6.03670 6.48670
18 27.0830 27.0830 27.0830 6.61050 6.90230 7.42950
19 29.1670 29.1670 29.1670 7.51030 7.84890 8.46070
20 31.2500 31.2500 31.2500 8.48910 8.87860 9.58240
21 33.3330 33.3330 33.3330 9.54880 9.99330 10.7970
22 35.4170 35.4170 35.4170 10.6910 11.1950 12.1060
23 37.5000 37.5000 37.5000 11.9180 12.4860 13.5120
24 39.5830 39.5830 39.5830 13.2310 13.8670 15.0160
25 41.6670 41.6670 41.6670 14.6310 15.3400 16.6210
26 43.7500 43.7500 43.7500 16.1210 16.9080 18.3290
27 45.8330 45.8330 45.8330 17.7020 18.5710 20.1400
28 47.9170 47.9170 47.9170 19.3750 20.3310 22.0580
29 50.0000 50.0000 50.0000 21.1430 22.1900 24.0830
30 52.0830 52.0830 52.0830 23.0050 24.1490 26.2180
31 54.1670 54.1670 54.1670 24.9650 26.2110 28.4630
32 56.2500 56.2500 56.2500 27.0220 28.3750 30.8210
33 58.3330 58.3330 58.3330 29.1790 30.6440 33.2930
34 60.4170 60.4170 60.4170 31.4370 33.0200 35.8800
35 62.5000 62.5000 62.5000 33.7970 35.5030 38.5850
36 64.5830 64.5830 64.5830 36.2610 38.0940 41.4080
37 66.6670 66.6670 66.6670 38.8290 40.7960 44.3510
38 68.7500 68.7500 68.7500 41.5030 43.6090 47.4150
39 70.8330 70.8330 70.8330 44.2840 46.5350 50.6030
40 72.9170 72.9170 72.9170 47.1740 49.5750 53.9140
41 75.0000 75.0000 75.0000 50.1730 52.7300 57.3510
42 77.0830 77.0830 77.0830 53.2820 56.0010 60.9150
43 79.1670 79.1670 79.1670 56.5040 59.3900 64.6060
44 81.2500 81.2500 81.2500 59.8380 62.8980 68.4270
45 83.3330 83.3330 83.3330 63.2870 66.5260 72.3790
46 85.4170 85.4170 85.4170 66.8500 70.2750 76.4630
47 87.5000 87.5000 87.5000 70.5300 74.1460 80.6800
48 89.5830 89.5830 89.5830 74.3270 78.1400 85.0310
49 91.6670 91.6670 91.6670 78.2420 82.2590 89.5180
50 93.7500 93.7500 93.7500 82.2770 86.5030 94.1420
51 95.8330 95.8330 95.8330 86.4320 90.8740 98.9030
52 97.9170 97.9170 97.9170 90.7080 95.3730 103.800
53 0.00000 0.00000 25.0000 1.90921 1.36363 5.78891
54 0.00000 0.00000 50.0000 4.82515 2.52982 21.1475
55 0.00000 0.00000 75.0000 10.3380 4.73463 50.1844
56 0.00000 0.00000 100.000 18.8711 8.14731 95.1290
57 0.00000 25.0000 0.00000 2.80128 4.60205 1.60043
58 0.00000 25.0000 25.0000 3.71049 4.96568 6.38934
59 0.00000 25.0000 50.0000 6.62643 6.13187 21.7479
60 0.00000 25.0000 75.0000 12.1393 8.33668 50.7848
61 0.00000 25.0000 100.000 20.6724 11.7494 95.7294
62 0.00000 50.0000 0.00000 8.57817 16.1542 3.52608
63 0.00000 50.0000 25.0000 9.48738 16.5179 8.31499
64 0.00000 50.0000 50.0000 12.4033 17.6840 23.6735
65 0.00000 50.0000 75.0000 17.9162 19.8888 52.7105
66 0.00000 50.0000 100.000 26.4493 23.3015 97.6550
67 0.00000 75.0000 0.00000 19.5000 37.9948 7.16671
68 0.00000 75.0000 25.0000 20.4092 38.3584 11.9556
69 0.00000 75.0000 50.0000 23.3251 39.5246 27.3142
70 0.00000 75.0000 75.0000 28.8380 41.7294 56.3511
71 0.00000 75.0000 100.000 37.3711 45.1421 101.296
72 0.00000 100.000 0.00000 36.4052 71.8005 12.8018
73 0.00000 100.000 25.0000 37.3144 72.1641 17.5907
74 0.00000 100.000 50.0000 40.2304 73.3303 32.9493
75 0.00000 100.000 75.0000 45.7432 75.5351 61.9862
76 0.00000 100.000 100.000 54.2763 78.9478 106.931
77 12.5000 12.5000 37.5000 4.16730 3.14728 12.1173
78 12.5000 12.5000 62.5000 8.32223 4.80899 34.0017
79 12.5000 12.5000 87.5000 15.2979 7.59883 70.7435
80 12.5000 37.5000 12.5000 5.94993 9.61866 3.74740
81 12.5000 37.5000 37.5000 7.76682 10.3453 13.3171
82 12.5000 37.5000 62.5000 11.9217 12.0070 35.2016
83 12.5000 37.5000 87.5000 18.8975 14.7969 71.9433
84 12.5000 62.5000 12.5000 14.1814 26.0794 6.49125
85 12.5000 62.5000 37.5000 15.9983 26.8060 16.0610
86 12.5000 62.5000 62.5000 20.1532 28.4677 37.9454
87 12.5000 62.5000 87.5000 27.1290 31.2576 74.6872
88 12.5000 87.5000 12.5000 28.0013 53.7152 11.0979
89 12.5000 87.5000 37.5000 29.8182 54.4419 20.6677
90 12.5000 87.5000 62.5000 33.9731 56.1036 42.5521
91 12.5000 87.5000 87.5000 40.9488 58.8934 79.2939
92 25.0000 0.00000 0.00000 3.07728 2.07105 1.09734
93 25.0000 0.00000 25.0000 3.98649 2.43468 5.88625
94 25.0000 0.00000 50.0000 6.90243 3.60087 21.2448
95 25.0000 0.00000 75.0000 12.4153 5.80568 50.2817
96 25.0000 0.00000 100.000 20.9484 9.21837 95.2263
97 25.0000 25.0000 0.00000 4.87856 5.67311 1.69777
98 25.0000 25.0000 50.0000 8.70371 7.20292 21.8452
99 25.0000 25.0000 75.0000 14.2166 9.40773 50.8822
100 25.0000 25.0000 100.000 22.7497 12.8204 95.8267
101 25.0000 50.0000 0.00000 10.6555 17.2253 3.62342
102 25.0000 50.0000 25.0000 11.5647 17.5889 8.41233
103 25.0000 50.0000 50.0000 14.4806 18.7551 23.7709
104 25.0000 50.0000 75.0000 19.9935 20.9599 52.8078
105 25.0000 50.0000 100.000 28.5266 24.3726 97.7524
106 25.0000 75.0000 0.00000 21.5773 39.0658 7.26405
107 25.0000 75.0000 25.0000 22.4865 39.4295 12.0530
108 25.0000 75.0000 50.0000 25.4024 40.5957 27.4115
109 25.0000 75.0000 75.0000 30.9153 42.8005 56.4485
110 25.0000 75.0000 100.000 39.4484 46.2132 101.393
111 25.0000 100.000 0.00000 38.4825 72.8716 12.8992
112 25.0000 100.000 25.0000 39.3917 73.2352 17.6881
113 25.0000 100.000 50.0000 42.3076 74.4014 33.0466
114 25.0000 100.000 75.0000 47.8205 76.6062 62.0836
115 25.0000 100.000 100.000 56.3536 80.0189 107.028
116 37.5000 12.5000 12.5000 6.50147 4.56093 2.74206
117 37.5000 12.5000 37.5000 8.31836 5.28757 12.3118
118 37.5000 12.5000 62.5000 12.4733 6.94928 34.1962
119 37.5000 12.5000 87.5000 19.4490 9.73913 70.9380
120 37.5000 37.5000 12.5000 10.1010 11.7590 3.94191
121 37.5000 37.5000 62.5000 16.0728 14.1473 35.3961
122 37.5000 37.5000 87.5000 23.0485 16.9371 72.1379
123 37.5000 62.5000 12.5000 18.3325 28.2197 6.68576
124 37.5000 62.5000 37.5000 20.1494 28.9463 16.2555
125 37.5000 62.5000 62.5000 24.3043 30.6080 38.1399
126 37.5000 62.5000 87.5000 31.2800 33.3978 74.8817
127 37.5000 87.5000 12.5000 32.1524 55.8555 11.2924
128 37.5000 87.5000 37.5000 33.9692 56.5822 20.8622
129 37.5000 87.5000 62.5000 38.1242 58.2439 42.7466
130 37.5000 87.5000 87.5000 45.0999 61.0337 79.4884
131 50.0000 0.00000 0.00000 9.73934 5.50603 1.40951
132 50.0000 0.00000 25.0000 10.6485 5.86966 6.19842
133 50.0000 0.00000 50.0000 13.5645 7.03585 21.5570
134 50.0000 0.00000 75.0000 19.0774 9.24066 50.5939
135 50.0000 0.00000 100.000 27.6104 12.6533 95.5385
136 50.0000 25.0000 0.00000 11.5406 9.10808 2.00994
137 50.0000 25.0000 25.0000 12.4498 9.47171 6.79885
138 50.0000 25.0000 50.0000 15.3658 10.6379 22.1574
139 50.0000 25.0000 75.0000 20.8787 12.8427 51.1944
140 50.0000 25.0000 100.000 29.4117 16.2554 96.1389
141 50.0000 50.0000 0.00000 17.3175 20.6603 3.93559
142 50.0000 50.0000 25.0000 18.2267 21.0239 8.72450
143 50.0000 50.0000 75.0000 26.6555 24.3949 53.1200
144 50.0000 50.0000 100.000 35.1886 27.8076 98.0645
145 50.0000 75.0000 0.00000 28.2393 42.5008 7.57622
146 50.0000 75.0000 25.0000 29.1485 42.8645 12.3651
147 50.0000 75.0000 50.0000 32.0645 44.0306 27.7237
148 50.0000 75.0000 75.0000 37.5774 46.2355 56.7606
149 50.0000 75.0000 100.000 46.1104 49.6481 101.705
150 50.0000 100.000 0.00000 45.1445 76.3065 13.2113
151 50.0000 100.000 25.0000 46.0538 76.6702 18.0003
152 50.0000 100.000 50.0000 48.9697 77.8364 33.3588
153 50.0000 100.000 75.0000 54.4826 80.0412 62.3958
154 50.0000 100.000 100.000 63.0157 83.4539 107.340
155 62.5000 12.5000 12.5000 15.9942 9.45544 3.18687
156 62.5000 12.5000 37.5000 17.8111 10.1821 12.7566
157 62.5000 12.5000 62.5000 21.9661 11.8438 34.6410
158 62.5000 12.5000 87.5000 28.9418 14.6336 71.3828
159 62.5000 37.5000 12.5000 19.5938 16.6535 4.38672
160 62.5000 37.5000 37.5000 21.4106 17.3801 13.9565
161 62.5000 37.5000 62.5000 25.5656 19.0418 35.8409
162 62.5000 37.5000 87.5000 32.5413 21.8317 72.5827
163 62.5000 62.5000 12.5000 27.8253 33.1142 7.13058
164 62.5000 62.5000 37.5000 29.6421 33.8408 16.7003
165 62.5000 62.5000 87.5000 40.7728 38.2924 75.3265
166 62.5000 87.5000 12.5000 41.6451 60.7500 11.7372
167 62.5000 87.5000 37.5000 43.4620 61.4767 21.3070
168 62.5000 87.5000 62.5000 47.6169 63.1384 43.1914
169 62.5000 87.5000 87.5000 54.5927 65.9282 79.9332
170 75.0000 0.00000 0.00000 22.3346 12.0002 1.99970
171 75.0000 0.00000 25.0000 23.2439 12.3638 6.78862
172 75.0000 0.00000 50.0000 26.1598 13.5300 22.1472
173 75.0000 0.00000 75.0000 31.6727 15.7348 51.1841
174 75.0000 0.00000 100.000 40.2058 19.1475 96.1287
175 75.0000 25.0000 0.00000 24.1359 15.6023 2.60014
176 75.0000 25.0000 25.0000 25.0451 15.9659 7.38905
177 75.0000 25.0000 50.0000 27.9611 17.1321 22.7476
178 75.0000 25.0000 75.0000 33.4740 19.3369 51.7845
179 75.0000 25.0000 100.000 42.0070 22.7496 96.7291
180 75.0000 50.0000 0.00000 29.9128 27.1544 4.52578
181 75.0000 50.0000 25.0000 30.8220 27.5181 9.31470
182 75.0000 50.0000 50.0000 33.7380 28.6843 24.6733
183 75.0000 50.0000 75.0000 39.2509 30.8891 53.7102
184 75.0000 50.0000 100.000 47.7839 34.3017 98.6547
185 75.0000 75.0000 0.00000 40.8346 48.9950 8.16642
186 75.0000 75.0000 25.0000 41.7438 49.3586 12.9553
187 75.0000 75.0000 50.0000 44.6598 50.5248 28.3139
188 75.0000 75.0000 100.000 58.7057 56.1423 102.295
189 75.0000 100.000 0.00000 57.7399 82.8007 13.8015
190 75.0000 100.000 25.0000 58.6491 83.1644 18.5905
191 75.0000 100.000 50.0000 61.5650 84.3305 33.9490
192 75.0000 100.000 75.0000 67.0779 86.5354 62.9859
193 75.0000 100.000 100.000 75.6110 89.9480 107.930
194 87.5000 12.5000 12.5000 31.9317 17.6728 3.93367
195 87.5000 12.5000 37.5000 33.7486 18.3995 13.5034
196 87.5000 12.5000 62.5000 37.9035 20.0612 35.3878
197 87.5000 12.5000 87.5000 44.8792 22.8510 72.1296
198 87.5000 37.5000 12.5000 35.5312 24.8708 5.13352
199 87.5000 37.5000 37.5000 37.3481 25.5975 14.7033
200 87.5000 37.5000 62.5000 41.5030 27.2592 36.5877
201 87.5000 37.5000 87.5000 48.4787 30.0490 73.3295
202 87.5000 62.5000 12.5000 43.7627 41.3315 7.87738
203 87.5000 62.5000 37.5000 45.5796 42.0582 17.4471
204 87.5000 62.5000 62.5000 49.7345 43.7199 39.3315
205 87.5000 62.5000 87.5000 56.7102 46.5097 76.0733
206 87.5000 87.5000 12.5000 57.5826 68.9674 12.4840
207 87.5000 87.5000 37.5000 59.3994 69.6941 22.0538
208 87.5000 87.5000 62.5000 63.5544 71.3558 43.9382
209 100.000 0.00000 0.00000 41.8302 22.0522 2.91323
210 100.000 0.00000 25.0000 42.7394 22.4158 7.70214
211 100.000 0.00000 50.0000 45.6553 23.5820 23.0607
212 100.000 0.00000 75.0000 51.1682 25.7868 52.0976
213 100.000 0.00000 100.000 59.7013 29.1995 97.0422
214 100.000 25.0000 0.00000 43.6314 25.6542 3.51366
215 100.000 25.0000 25.0000 44.5407 26.0178 8.30257
216 100.000 25.0000 50.0000 47.4566 27.1840 23.6611
217 100.000 25.0000 75.0000 52.9695 29.3888 52.6981
218 100.000 25.0000 100.000 61.5026 32.8015 97.6426
219 100.000 50.0000 0.00000 49.4083 37.2064 5.43931
220 100.000 50.0000 25.0000 50.3176 37.5700 10.2282
221 100.000 50.0000 50.0000 53.2335 38.7362 25.5868
222 100.000 50.0000 75.0000 58.7464 40.9410 54.6237
223 100.000 50.0000 100.000 67.2794 44.3537 99.5683
224 100.000 75.0000 0.00000 60.3302 59.0470 9.07994
225 100.000 75.0000 25.0000 61.2394 59.4106 13.8689
226 100.000 75.0000 50.0000 64.1553 60.5768 29.2274
227 100.000 75.0000 75.0000 69.6682 62.7816 58.2644
228 100.000 75.0000 100.000 78.2013 66.1943 103.209
229 100.000 100.000 0.00000 77.2354 92.8527 14.7151
230 100.000 100.000 25.0000 78.1446 93.2163 19.5040
231 100.000 100.000 50.0000 81.0605 94.3825 34.8625
232 100.000 100.000 75.0000 86.5734 96.5873 63.8995
233 0.00000 12.5000 100.000 19.3792 9.16329 95.2983
234 12.5000 0.00000 100.000 19.4570 8.44941 95.1564
235 0.00000 100.000 12.5000 36.6617 71.9031 14.1526
236 12.5000 100.000 0.00000 36.9911 72.1026 12.8293
237 100.000 0.00000 12.5000 42.0866 22.1547 4.26397
238 100.000 12.5000 0.00000 42.3382 23.0681 3.08259
END_DATA
CTI1   

ORIGINATOR "Argyll targen"
KEYWORD "DENSITY_EXTREME_VALUES"
DENSITY_EXTREME_VALUES "8"
CREATED "February 23, 2010"
DESCRIPTOR "Argyll Calibration Target chart information 1"

KEYWORD "INDEX"
NUMBER_OF_FIELDS 7
BEGIN_DATA_FORMAT
INDEX RGB_R RGB_G RGB_B XYZ_X XYZ_Y XYZ_Z
END_DATA_FORMAT

NUMBER_OF_SETS 8
BEGIN_DATA
0 100.00 100.00 100.00 95.106 100.00 108.84
1 0.0000 47.361 100.00 25.613 21.629 97.376
2 100.00 0.0000 79.351 52.426 26.290 58.722
3 0.0000 0.0000 58.997 6.4858 3.1940 29.894
4 100.00 66.659 0.0000 56.059 50.505 7.6561
5 0.0000 35.601 0.0000 4.6856 8.3702 2.2286
6 84.444 0.0000 0.0000 28.843 15.356 2.3047
7 0.0000 0.0000 0.0000 1.0000 1.0000 1.0000
END_DATA
CTI1   

ORIGINATOR "Argyll targen"
CREATED "February 23, 2010"
DESCRIPTOR "Argyll Calibration Target chart information 1"
KEYWORD "DEVICE_COMBINATION_VALUES"
DEVICE_COMBINATION_VALUES "9"

KEYWORD "INDEX"
NUMBER_OF_FIELDS 7
BEGIN_DATA_FORMAT
INDEX RGB_R RGB_G RGB_B XYZ_X XYZ_Y XYZ_Z
END_DATA_FORMAT

NUMBER_OF_SETS 9
BEGIN_DATA
0 100.00 100.00 100.00 95.106 100.00 108.84
1 0.0000 100.00 100.00 54.276 78.948 106.93
2 100.00 0.0000 100.00 59.701 29.199 97.042
3 0.0000 0.0000 100.00 18.871 8.1473 95.129
4 100.00 100.00 0.0000 77.235 92.853 14.715
5 0.0000 100.00 0.0000 36.405 71.801 12.802
6 100.00 0.0000 0.0000 41.830 22.052 2.9132
7 0.0000 0.0000 0.0000 1.0000 1.0000 1.0000
8 60.000 60.000 60.000 30.977 32.536 35.353
END_DATA