dispcalGUI/ti1/d3-e4-s37-g109-m0-f1906-ceRGBv2.ti1
CTI1   

ORIGINATOR "Argyll targen"
KEYWORD "OFPS_PATCHES"
OFPS_PATCHES "1683"
CREATED "Sat Oct 19 13:08:42 2013"
KEYWORD "COMP_GREY_STEPS"
COMP_GREY_STEPS "109"
KEYWORD "BLACK_COLOR_PATCHES"
BLACK_COLOR_PATCHES "4"
KEYWORD "APPROX_WHITE_POINT"
APPROX_WHITE_POINT "96.415999 99.996948 82.488027"
DESCRIPTOR "Argyll Calibration Target chart information 1"
KEYWORD "ACCURATE_EXPECTED_VALUES"
ACCURATE_EXPECTED_VALUES "true"
KEYWORD "WHITE_COLOR_PATCHES"
WHITE_COLOR_PATCHES "4"
KEYWORD "SINGLE_DIM_STEPS"
SINGLE_DIM_STEPS "37"
KEYWORD "COLOR_REP"
COLOR_REP "RGB"

NUMBER_OF_FIELDS 7
BEGIN_DATA_FORMAT
SAMPLE_ID RGB_R RGB_G RGB_B XYZ_X XYZ_Y XYZ_Z
END_DATA_FORMAT

NUMBER_OF_SETS 1906
BEGIN_DATA
1 100.00000 100.00000 100.00000 96.416000 99.996900 82.488000
2 30.555600 30.555600 30.555600 6.2331700 6.4646700 5.3327400
3 56.137000 61.170900 29.205000 21.684500 25.888800 6.4774100
4 56.169500 63.967500 57.330500 24.925100 29.399200 21.347500
5 60.654000 62.865100 100.00000 37.945700 35.925100 77.835900
6 62.116200 70.424100 100.00000 40.808700 42.443200 78.509600
7 44.329700 16.185800 0.0000000 9.5272300 5.7909100 0.1448790
8 67.777700 18.726100 0.0000000 24.972300 13.679800 0.1820400
9 86.869600 21.998600 0.0000000 45.972900 24.451100 0.2384890
10 100.00000 25.149800 11.512300 65.997800 34.816500 1.3124300
11 100.00000 45.124800 44.866900 69.590000 41.955900 11.929100
12 100.00000 50.913100 78.889800 75.876800 47.830400 42.740000
13 0.0000000 27.478000 12.892700 1.1475300 3.2899600 1.5272700
14 0.0000000 86.351600 34.051000 13.323300 41.982300 10.741600
15 64.235200 93.515500 100.00000 50.089100 69.026600 81.412700
16 93.753500 93.287300 100.00000 83.551300 85.237500 81.377100
17 100.00000 93.099400 100.00000 93.423500 89.878500 81.347900
18 30.743000 0.0000000 10.867000 4.4228100 2.1916700 0.9409180
19 30.555600 0.0000000 0.0000000 4.2035600 2.0703700 2e-070000
20 33.333300 0.0000000 0.0000000 5.0015100 2.4633800 3e-070000
21 36.111100 0.0000000 0.0000000 5.8952100 2.9035500 3e-070000
22 41.666700 0.0000000 0.0000000 7.9881800 3.9343900 4e-070000
23 43.137800 0.0000000 0.0000000 8.6158700 4.2435500 4e-070000
24 44.444400 0.0000000 0.0000000 9.1993700 4.5309400 5e-070000
25 50.000000 0.0000000 0.0000000 11.975900 5.8984700 6e-070000
26 52.565900 0.0000000 10.780900 13.594900 6.7090400 0.9317590
27 52.777800 0.0000000 0.0000000 13.553100 6.6752500 7e-070000
28 55.555600 0.0000000 0.0000000 15.262500 7.5171900 8e-070000
29 58.333300 0.0000000 0.0000000 17.109200 8.4267200 9e-070000
30 63.888900 0.0000000 0.0000000 21.239400 10.461000 1.1e-0600
31 66.666700 0.0000000 0.0000000 23.533200 11.590700 1.2e-0600
32 69.444400 0.0000000 0.0000000 25.985300 12.798500 1.3e-0600
33 72.222200 0.0000000 0.0000000 28.603200 14.087800 1.5e-0600
34 75.000000 0.0000000 0.0000000 31.391700 15.461200 1.6e-0600
35 77.777800 0.0000000 0.0000000 34.354800 16.920600 1.8e-0600
36 80.555600 0.0000000 0.0000000 37.498500 18.469000 1.9e-0600
37 83.333300 0.0000000 0.0000000 40.829100 20.109400 2.1e-0600
38 86.111100 0.0000000 0.0000000 44.351200 21.844100 2.3e-0600
39 88.888900 0.0000000 0.0000000 48.069800 23.675700 2.5e-0600
40 91.666700 0.0000000 0.0000000 51.990800 25.606800 2.7e-0600
41 94.444400 0.0000000 0.0000000 56.119900 27.640600 2.9e-0600
42 97.222200 0.0000000 0.0000000 60.461800 29.779100 3.1e-0600
43 100.00000 0.0000000 75.335900 71.654500 35.814700 36.954600
44 100.00000 0.0000000 100.00000 78.609400 39.788500 75.704000
45 97.222200 97.222200 97.222200 89.654500 92.984400 76.703300
46 98.148100 98.148100 98.148100 91.871300 95.283500 78.599900
47 12.963000 12.963000 12.963000 1.5008000 1.5565400 1.2840000
48 5.5555600 5.5555600 5.5555600 0.5926540 0.6146660 0.5070410
49 0.0000000 12.632100 9.0628900 0.4046970 0.9834580 0.8652210
50 0.0000000 16.666700 0.0000000 0.3976490 1.3445500 0.1514980
51 0.0000000 19.444400 0.0000000 0.5080090 1.7177000 0.1935440
52 0.0000000 22.222200 0.0000000 0.6368910 2.1534800 0.2426460
53 11.636500 21.400700 0.0000000 1.4763200 2.4513800 0.2274070
54 0.0000000 25.000000 0.0000000 0.7862640 2.6585500 0.2995550
55 0.0000000 33.333300 0.0000000 1.3697000 4.6312700 0.5218340
56 0.0000000 36.111100 0.0000000 1.6144400 5.4588100 0.6150780
57 11.897500 38.540600 0.0000000 2.7551600 6.7037000 0.7051630
58 0.0000000 38.888900 0.0000000 1.8864500 6.3785300 0.7187080
59 0.0000000 41.666700 0.0000000 2.1876100 7.3968600 0.8334490
60 0.0000000 44.444400 0.0000000 2.5193100 8.5183900 0.9598180
61 0.0000000 47.222200 0.0000000 2.8828800 9.7477100 1.0983300
62 0.0000000 50.000000 0.0000000 3.2796900 11.089400 1.2495100
63 0.0000000 52.777800 0.0000000 3.7116000 12.549800 1.4140600
64 0.0000000 55.555600 0.0000000 4.1797300 14.132700 1.5924200
65 0.0000000 58.333300 0.0000000 4.6854600 15.842700 1.7850900
66 0.0000000 61.111100 0.0000000 5.2307600 17.686500 1.9928400
67 0.0000000 63.888900 0.0000000 5.8165400 19.667100 2.2160200
68 0.0000000 66.666700 0.0000000 6.4447200 21.791200 2.4553400
69 0.0000000 69.444400 0.0000000 7.1162500 24.061800 2.7111900
70 0.0000000 72.222200 0.0000000 7.8331600 26.485800 2.9843200
71 0.0000000 75.000000 0.0000000 8.5968100 29.067900 3.2752600
72 0.0000000 77.777800 0.0000000 9.4082700 31.811600 3.5844100
73 0.0000000 80.555600 0.0000000 10.269200 34.722700 3.9124200
74 0.0000000 83.333300 0.0000000 11.181300 37.806800 4.2599200
75 0.0000000 86.111100 0.0000000 12.145900 41.068100 4.6273900
76 0.0000000 88.888900 0.0000000 13.164200 44.511400 5.0153700
77 0.0000000 91.666700 0.0000000 14.238000 48.142200 5.4244700
78 0.0000000 94.444400 0.0000000 15.368800 51.965600 5.8552800
79 0.0000000 97.222200 0.0000000 16.557900 55.986100 6.3083000
80 49.373800 100.00000 32.455000 30.435000 66.506300 12.301600
81 83.164000 100.00000 56.726500 61.775300 82.128200 25.440400
82 14.575800 15.144200 0.0000000 1.5353700 1.7515400 0.1312710
83 10.185200 10.185200 10.185200 1.1089300 1.1501100 0.9487350
84 7.4074100 7.4074100 7.4074100 0.7906960 0.8200630 0.6764740
85 0.0000000 0.0000000 13.888900 0.2324060 0.1327900 1.2948500
86 0.0000000 0.0000000 16.666700 0.3034360 0.1733740 1.6905900
87 0.0000000 0.0000000 19.444400 0.3876490 0.2214910 2.1597800
88 0.0000000 0.0000000 22.222200 0.4859960 0.2776830 2.7077200
89 0.0000000 11.412000 25.476600 0.8561570 1.1493600 3.5505600
90 0.0000000 0.0000000 25.000000 0.5999780 0.3428100 3.3427700
91 0.0000000 0.0000000 30.555600 0.8784310 0.5019090 4.8941600
92 0.0000000 0.0000000 33.333300 1.0451800 0.5971850 5.8232100
93 0.0000000 0.0000000 36.111100 1.2319400 0.7038930 6.8637200
94 0.0000000 0.0000000 38.888900 1.4395000 0.8224870 8.0201400
95 0.0000000 0.0000000 41.666700 1.6693100 0.9537960 9.3005500
96 0.0000000 0.0000000 44.444400 1.9224200 1.0984100 10.710700
97 0.0000000 0.0000000 47.222200 2.1998500 1.2569300 12.256400
98 0.0000000 0.0000000 50.000000 2.5026500 1.4299400 13.943500
99 0.0000000 0.0000000 52.777800 2.8322300 1.6182500 15.779700
100 0.0000000 0.0000000 55.555600 3.1894500 1.8223600 17.770000
101 0.0000000 0.0000000 58.333300 3.5753500 2.0428500 19.920000
102 0.0000000 0.0000000 61.111100 3.9914600 2.2806000 22.238300
103 0.0000000 0.0000000 63.888900 4.4384600 2.5360000 24.728800
104 0.0000000 0.0000000 66.666700 4.9178000 2.8098800 27.399400
105 0.0000000 0.0000000 69.444400 5.4302300 3.1026700 30.254400
106 0.0000000 0.0000000 72.222200 5.9772900 3.4152400 33.302400
107 0.0000000 0.0000000 75.000000 6.5600100 3.7481900 36.549000
108 0.0000000 0.0000000 77.777800 7.1792200 4.1019900 39.998900
109 0.0000000 0.0000000 80.555600 7.8361800 4.4773600 43.659100
110 0.0000000 0.0000000 83.333300 8.5321900 4.8750400 47.536900
111 0.0000000 0.0000000 86.111100 9.2681900 5.2955700 51.637600
112 0.0000000 0.0000000 88.888900 10.045300 5.7395800 55.967200
113 0.0000000 0.0000000 91.666700 10.864700 6.2077400 60.532300
114 0.0000000 0.0000000 94.444400 11.727500 6.7007700 65.339800
115 0.0000000 0.0000000 97.222200 12.634900 7.2191900 70.395000
116 0.0000000 0.0000000 100.00000 13.587800 7.7636400 75.704000
117 22.726400 17.849400 100.00000 16.449400 10.451200 75.872500
118 36.260100 92.799800 100.00000 34.226200 60.370700 81.301600
119 0.0000000 0.0000000 11.111100 0.1735400 0.0991557 0.9668760
120 0.0000000 8.3333300 0.0000000 0.1643170 0.5555970 0.0626025
121 3.7037000 3.7037000 3.7037000 0.3946120 0.4092680 0.3376080
122 0.0000000 4.5024300 0.0000000 0.0886917 0.2998880 0.0337902
123 5.5555600 0.0000000 0.0000000 0.3996780 0.1968520 0.0000000
124 0.0000000 11.111100 0.0000000 0.2274220 0.7689700 0.0866445
125 0.9259260 0.9259260 0.9259260 0.0990209 0.1026990 0.0847166
126 0.0000000 5.5555600 0.0000000 0.1094540 0.3700920 0.0417005
127 1.8518500 1.8518500 1.8518500 0.1980420 0.2053970 0.1694330
128 0.0000000 0.0000000 8.3333300 0.1253860 0.0716420 0.6985880
129 0.0000000 0.0000000 5.5555600 0.0835218 0.0477219 0.4653400
130 0.0000000 2.7777800 0.0000000 0.0548630 0.1855050 0.0209020
131 2.7777800 2.7777800 2.7777800 0.2970630 0.3080960 0.2541500
132 8.3333300 8.3333300 8.3333300 0.8897170 0.9227610 0.7611910
133 13.888900 13.888900 13.888900 1.6491100 1.7103600 1.4108800
134 14.814800 14.814800 14.814800 1.8076300 1.8747700 1.5465100
135 16.666700 16.666700 16.666700 2.1531200 2.2330900 1.8420900
136 17.592600 17.592600 17.592600 2.3416000 2.4285700 2.0033400
137 18.518500 18.518500 18.518500 2.5403000 2.6346400 2.1733300
138 19.444400 19.444400 19.444400 2.7506800 2.8528400 2.3533200
139 20.370400 20.370400 20.370400 2.9721800 3.0825700 2.5428300
140 21.296300 21.296300 21.296300 3.2050400 3.3240800 2.7420500
141 22.222200 22.222200 22.222200 3.4485300 3.5766100 2.9503600
142 23.148100 23.148100 23.148100 3.7064400 3.8441000 3.1710200
143 24.074100 24.074100 24.074100 3.9756300 4.1232900 3.4013200
144 25.000000 25.000000 25.000000 4.2573300 4.4154400 3.6423200
145 25.925900 25.925900 25.925900 4.5517700 4.7208300 3.8942400
146 26.851900 26.851900 26.851900 4.8608500 5.0413800 4.1586700
147 27.777800 27.777800 27.777800 5.1828400 5.3753400 4.4341400
148 28.703700 28.703700 28.703700 5.5184800 5.7234400 4.7213000
149 29.629600 29.629600 29.629600 5.8685100 6.0864700 5.0207600
150 31.481500 31.481500 31.481500 6.6124500 6.8580400 5.6572400
151 32.407400 32.407400 32.407400 7.0063700 7.2665900 5.9942500
152 33.333300 33.333300 33.333300 7.4163900 7.6918400 6.3450400
153 34.259300 34.259300 34.259300 7.8425100 8.1337900 6.7096000
154 35.185200 35.185200 35.185200 8.2832600 8.5909100 7.0866900
155 36.111100 36.111100 36.111100 8.7415800 9.0662500 7.4788000
156 37.037000 37.037000 37.037000 9.2158500 9.5581300 7.8845500
157 37.963000 37.963000 37.963000 9.7070700 10.067600 8.3048100
158 38.888900 38.888900 38.888900 10.214400 10.593800 8.7388500
159 39.814800 39.814800 39.814800 10.740800 11.139700 9.1891800
160 40.740700 40.740700 40.740700 11.284400 11.703500 9.6542700
161 41.666700 41.666700 41.666700 11.845100 12.285000 10.134000
162 42.592600 42.592600 42.592600 12.424900 12.886400 10.630000
163 43.518500 43.518500 43.518500 13.023700 13.507400 11.142300
164 44.444400 44.444400 44.444400 13.641100 14.147700 11.670500
165 45.370400 45.370400 45.370400 14.277400 14.807700 12.215000
166 46.296300 46.296300 46.296300 14.933300 15.487900 12.776100
167 47.222200 47.222200 47.222200 15.609700 16.189500 13.354800
168 48.148100 48.148100 48.148100 16.305100 16.910700 13.949700
169 49.074100 49.074100 49.074100 17.021100 17.653300 14.562300
170 50.000000 50.000000 50.000000 17.758300 18.417800 15.193000
171 50.925900 50.925900 50.925900 18.515900 19.203600 15.841200
172 51.851900 51.851900 51.851900 19.295500 20.012100 16.508100
173 52.777800 52.777800 52.777800 20.096900 20.843300 17.193800
174 53.703700 53.703700 53.703700 20.919700 21.696600 17.897700
175 54.629600 54.629600 54.629600 21.764200 22.572600 18.620200
176 55.555600 55.555600 55.555600 22.631700 23.472200 19.362400
177 56.481500 56.481500 56.481500 23.520800 24.394400 20.123100
178 57.407400 57.407400 57.407400 24.434400 25.341900 20.904700
179 58.333300 58.333300 58.333300 25.370000 26.312200 21.705100
180 59.259300 59.259300 59.259300 26.329700 27.307600 22.526200
181 60.185200 60.185200 60.185200 27.314600 28.329000 23.368800
182 61.111100 61.111100 61.111100 28.322600 29.374500 24.231200
183 62.037000 62.037000 62.037000 29.355000 30.445300 25.114500
184 62.963000 62.963000 62.963000 30.412300 31.541800 26.019000
185 63.888900 63.888900 63.888900 31.494400 32.664100 26.944800
186 64.814800 64.814800 64.814800 32.602800 33.813600 27.893100
187 65.740700 65.740700 65.740700 33.735300 34.988300 28.862000
188 66.666700 66.666700 66.666700 34.895700 36.191800 29.854800
189 67.592600 67.592600 67.592600 36.080900 37.421000 30.868800
190 68.518500 68.518500 68.518500 37.294000 38.679100 31.906600
191 69.444400 69.444400 69.444400 38.531800 39.962900 32.965600
192 70.370400 70.370400 70.370400 39.798900 41.277100 34.049700
193 71.296300 71.296300 71.296300 41.092400 42.618600 35.156300
194 72.222200 72.222200 72.222200 42.413600 43.988900 36.286700
195 73.148100 73.148100 73.148100 43.764100 45.389500 37.442100
196 74.074100 74.074100 74.074100 45.140900 46.817500 38.620000
197 75.000000 75.000000 75.000000 46.548500 48.277300 39.824200
198 75.925900 75.925900 75.925900 47.983800 49.766000 41.052200
199 76.851900 76.851900 76.851900 49.448400 51.284900 42.305200
200 77.777800 77.777800 77.777800 50.942300 52.834300 43.583300
201 78.703700 78.703700 78.703700 52.465600 54.414200 44.886500
202 79.629600 79.629600 79.629600 54.020100 56.026500 46.216500
203 80.555600 80.555600 80.555600 55.603900 57.669100 47.571500
204 81.481500 81.481500 81.481500 57.219900 59.345100 48.954100
205 82.407400 82.407400 82.407400 58.865200 61.051500 50.361700
206 83.333300 83.333300 83.333300 60.542700 62.791200 51.796800
207 84.259300 84.259300 84.259300 62.250900 64.562900 53.258300
208 85.185200 85.185200 85.185200 63.991900 66.368600 54.747800
209 86.111100 86.111100 86.111100 65.765200 68.207800 56.265000
210 87.037000 87.037000 87.037000 67.569800 70.079400 57.808900
211 87.963000 87.963000 87.963000 69.408200 71.986100 59.381700
212 88.888900 88.888900 88.888900 71.279300 73.926700 60.982500
213 89.814800 89.814800 89.814800 73.184300 75.902400 62.612300
214 90.740700 90.740700 90.740700 75.121500 77.911500 64.269700
215 91.666700 91.666700 91.666700 77.093400 79.956700 65.956800
216 92.592600 92.592600 92.592600 79.100100 82.038000 67.673600
217 93.518500 93.518500 93.518500 81.140500 84.154100 69.419200
218 94.444400 94.444400 94.444400 83.216300 86.307000 71.195100
219 95.370400 95.370400 95.370400 85.327100 88.496200 73.001000
220 96.296300 96.296300 96.296300 87.472800 90.721600 74.836800
221 0.0000000 28.010500 23.633300 1.5143900 3.5978600 3.3896600
222 0.0000000 36.556000 36.157800 2.8912700 6.3053000 7.5128800
223 0.0000000 53.413700 72.614800 9.8728800 16.362000 35.202500
224 0.0000000 67.435000 73.526900 12.872500 25.973100 37.326900
225 0.0000000 85.987100 89.467200 22.314100 46.753900 61.508600
226 0.0000000 89.851500 100.00000 27.117900 53.512300 80.858800
227 0.0000000 100.00000 100.00000 31.394400 67.972000 82.488000
228 67.909200 100.00000 100.00000 56.004200 80.093100 82.488000
229 78.170300 100.00000 100.00000 66.182100 85.105900 82.488000
230 49.141100 64.523300 74.254000 23.870300 29.467000 37.926300
231 83.563700 79.108300 100.00000 64.516100 61.198400 79.443100
232 48.473100 40.598300 51.404600 15.898000 14.015400 15.640800
233 76.511500 59.686500 50.795100 40.521600 34.450400 16.337700
234 81.427100 69.766500 60.584000 49.630900 45.543200 24.527000
235 0.0000000 21.564900 34.297900 1.7124300 2.6774200 6.4023200
236 0.0000000 28.048900 33.592500 2.0367200 3.9035000 6.2865600
237 27.215300 26.444600 39.712700 5.7396000 5.4655900 8.7191100
238 57.483500 27.569300 65.039200 22.105900 13.978800 26.172300
239 76.233300 27.802100 85.961900 42.871300 24.612400 51.777100
240 39.638900 16.153600 60.840100 11.503200 7.0721600 22.149000
241 59.479700 44.453300 69.855900 25.942500 20.492500 31.654100
242 63.885900 60.184500 73.078900 32.434600 31.032100 36.204400
243 69.346600 75.436100 82.938500 43.048300 47.059400 50.294900
244 100.00000 92.909900 92.720800 90.945500 88.245800 67.942700
245 51.778700 41.231500 35.206500 16.277900 14.287200 7.3266800
246 67.442000 100.00000 35.355400 43.186800 72.801800 13.353100
247 76.051500 100.00000 33.734600 51.369700 76.823600 12.750700
248 100.00000 100.00000 74.586900 89.299300 95.930700 42.837400
249 100.00000 100.00000 84.045100 91.545100 97.213800 55.349800
250 15.740700 15.740700 15.740700 1.9749000 2.0482500 1.6896100
251 11.111100 11.111100 11.111100 1.2314100 1.2771400 1.0535200
252 38.888900 0.0000000 0.0000000 6.8884500 3.3927400 4e-070000
253 47.222200 0.0000000 0.0000000 10.527000 5.1848100 5e-070000
254 61.111100 0.0000000 0.0000000 19.100400 9.4074400 1e-060000
255 73.350000 0.0000000 30.438000 30.586400 15.133300 4.8566500
256 85.426400 0.0000000 36.831300 44.748300 22.141000 7.1521700
257 89.185500 0.0000000 49.226400 50.894300 25.257300 13.458900
258 100.00000 0.0000000 50.782900 67.614400 33.506300 14.445400
259 100.00000 0.0000000 62.749200 69.272900 34.453900 23.685800
260 100.00000 24.038800 100.00000 79.341800 42.264800 75.983000
261 39.701800 66.050200 52.913600 16.349400 26.480300 18.273700
262 36.533700 73.084200 58.026100 17.635900 32.262500 22.747100
263 100.00000 87.562500 58.700000 81.321500 76.942700 25.044300
264 77.074100 26.855700 0.0000000 34.484900 19.578700 0.3421150
265 100.00000 41.167900 0.0000000 67.153000 39.231400 0.8120030
266 100.00000 54.597100 0.0000000 69.035600 45.596900 1.5292500
267 66.378900 67.401600 0.0000000 29.906000 33.847300 2.5214000
268 75.799900 78.718100 0.0000000 41.920700 48.650400 3.6932900
269 7.8518500 0.0000000 18.745100 0.9300190 0.4868540 2.0347500
270 0.0000000 0.0000000 27.777800 0.7304100 0.4173340 4.0694700
271 57.438800 12.503800 25.867700 17.402300 9.3844800 3.6598800
272 100.00000 21.707700 32.263500 66.612100 34.652300 5.6860800
273 100.00000 30.396600 41.161200 67.786700 36.805900 9.4919900
274 100.00000 35.036900 66.831400 71.485400 39.979600 28.140800
275 100.00000 34.831900 77.153200 73.556700 41.111800 39.775800
276 100.00000 42.396000 100.00000 80.881100 47.469900 76.569500
277 19.377800 23.748500 42.987200 4.3474200 4.3518200 10.227800
278 26.874500 32.421600 42.219900 6.2963300 6.9777700 10.064300
279 27.812000 41.617200 65.032800 10.317100 11.749700 26.637900
280 25.610800 44.477300 100.00000 19.112500 17.774100 76.665400
281 0.0000000 31.288400 75.696200 7.9180500 7.9140900 37.853200
282 0.0000000 42.003200 86.607600 11.630300 12.900600 53.242500
283 0.0000000 52.179100 100.00000 17.203200 19.988300 77.081400
284 0.0000000 66.733000 100.00000 20.048000 29.607200 78.165200
285 0.0000000 33.819100 56.121500 4.6762000 6.6350800 18.732300
286 0.0000000 37.311100 70.723300 7.4062000 9.0883200 32.292200
287 0.0000000 45.062100 70.753200 8.2810500 12.029800 32.656100
288 46.225000 0.0000000 40.714300 11.624200 5.8504600 8.8477500
289 60.179300 0.0000000 47.450300 20.639900 10.341000 12.389000
290 72.916000 0.0000000 53.094200 32.154500 16.063300 15.998000
291 32.461000 56.523800 0.0000000 9.0923400 17.048700 1.6578900
292 41.109300 56.586300 0.0000000 12.121500 18.573300 1.6621900
293 76.707100 60.156900 0.0000000 38.230600 33.385600 1.9197600
294 87.705400 60.799800 0.0000000 51.628600 40.356200 1.9687800
295 85.098200 67.597500 25.961900 50.352000 44.103100 6.1225000
296 85.203500 100.00000 26.047800 61.632500 81.844900 10.389700
297 33.497900 81.351500 0.0000000 15.577000 38.076900 4.0100100
298 36.579500 100.00000 38.240400 25.251000 63.984500 14.523900
299 0.0000000 27.777800 0.0000000 0.9571930 3.2365000 0.3646760
300 0.0000000 30.555600 0.0000000 1.1511700 3.8923900 0.4385800
301 38.551700 28.997400 26.691200 8.4795000 7.2320800 4.1700500
302 54.339300 31.909300 56.194900 19.027100 13.253600 18.728400
303 72.656300 46.485000 65.165800 36.465300 26.366800 26.994300
304 77.014400 63.982400 72.812200 45.457300 39.731400 36.198900
305 90.831700 66.092800 100.00000 70.689400 54.119000 78.108500
306 100.00000 68.372700 100.00000 85.461400 62.956700 78.314500
307 100.00000 57.910600 46.765900 71.780200 48.828900 13.747700
308 100.00000 73.839200 59.431300 77.029600 62.128700 23.967300
309 24.285900 0.0000000 21.238600 3.1728800 1.5981700 2.5042700
310 55.029100 0.0000000 53.179400 17.810000 8.9991100 16.057400
311 67.643200 0.0000000 61.908300 28.493200 14.358200 22.934900
312 78.426100 0.0000000 65.663000 39.812700 19.982600 26.413000
313 87.911800 0.0000000 77.820500 53.927900 27.127700 40.053400
314 100.00000 0.0000000 87.650600 74.715400 37.563600 54.008500
315 0.0000000 44.159500 25.053700 3.0861100 8.7423000 4.3023700
316 0.0000000 60.489300 29.206600 5.9093500 17.721300 6.4254300
317 0.0000000 73.163700 33.790300 9.1612800 27.957400 9.0673000
318 0.0000000 75.156400 87.425400 18.271900 34.720500 56.949500
319 0.0000000 81.041500 100.00000 24.012900 43.013500 79.675800
320 40.543100 44.479400 100.00000 23.642200 20.005900 76.665500
321 54.298100 45.288800 100.00000 30.685500 23.771600 76.704600
322 70.031300 50.126700 100.00000 43.411100 31.981100 76.960700
323 99.074100 99.074100 99.074100 94.125400 97.621200 80.528300
324 19.444400 0.0000000 0.0000000 1.8550200 0.9136470 1e-070000
325 22.222200 0.0000000 0.0000000 2.3256400 1.1454400 1e-070000
326 22.052500 100.00000 0.0000000 20.102200 61.339100 6.7840500
327 72.354800 100.00000 0.0000000 46.539000 74.359900 6.7840500
328 77.830600 100.00000 18.705900 52.583200 77.365500 8.8118600
329 43.669400 49.410300 0.0000000 12.042100 15.153400 1.2163100
330 56.665100 55.612600 0.0000000 20.173000 22.038700 1.5962200
331 83.246200 77.766800 43.874700 51.995200 52.924600 13.993400
332 85.950400 100.00000 77.645500 69.097800 86.034400 46.614100
333 87.882700 100.00000 87.040700 74.029700 88.650700 59.844300
334 53.925900 40.950900 41.747600 18.026800 15.097800 10.142600
335 64.523500 81.166400 44.565200 34.148600 47.203100 14.762100
336 67.630600 100.00000 54.509600 45.223700 73.952700 23.785400
337 47.675000 72.728500 41.439500 20.373400 33.184100 12.227700
338 50.247800 100.00000 44.846000 31.878800 67.294000 17.709500
339 17.368800 34.043100 0.0000000 2.9774300 5.5966600 0.5447210
340 75.270500 39.914600 0.0000000 33.666000 22.342300 0.7597940
341 100.00000 42.198600 18.958100 67.642400 39.841100 2.9292700
342 100.00000 43.829300 32.825200 68.478000 40.864500 6.5761600
343 100.00000 83.617900 65.285800 80.974700 72.828900 30.345400
344 15.408700 23.893300 93.691400 13.503900 9.6490700 64.287900
345 23.382700 100.00000 100.00000 33.939200 69.225400 82.488000
346 26.506900 100.00000 75.904400 27.763500 65.645200 44.433500
347 39.521200 100.00000 83.930700 33.622800 68.683200 55.183500
348 0.0000000 55.993200 47.263500 6.4610000 15.652900 13.902100
349 0.0000000 66.396600 62.615300 10.611100 23.994500 25.995700
350 65.716800 81.850800 67.298500 38.450300 50.209500 32.104400
351 24.422800 45.418200 17.472500 5.7207000 10.478400 2.8256900
352 26.374000 69.303800 20.771900 10.683900 25.752200 5.1092400
353 35.272100 84.359800 45.794800 19.200000 42.929500 15.838300
354 46.294000 100.00000 54.471100 30.922800 66.908700 23.757600
355 18.330100 0.0000000 38.352600 3.0832000 1.6287600 7.7875400
356 15.691000 0.0000000 48.099700 3.6184800 1.9629600 12.773800
357 50.659100 0.0000000 100.00000 25.926400 13.840800 75.704000
358 67.623800 0.0000000 100.00000 37.947500 19.761500 75.704000
359 81.147300 30.497100 100.00000 52.926900 30.452000 76.140900
