dispcalGUI/ti1/d3-e4-s65-g129-m0-f1524-csRGB.ti1
CTI1   

ORIGINATOR "Argyll targen"
KEYWORD "OFPS_PATCHES"
OFPS_PATCHES "1197"
CREATED "Wed Oct 16 19:34:11 2013"
KEYWORD "COMP_GREY_STEPS"
COMP_GREY_STEPS "129"
KEYWORD "BLACK_COLOR_PATCHES"
BLACK_COLOR_PATCHES "4"
KEYWORD "APPROX_WHITE_POINT"
APPROX_WHITE_POINT "95.045781 100.000003 108.905751"
DESCRIPTOR "Argyll Calibration Target chart information 1"
KEYWORD "ACCURATE_EXPECTED_VALUES"
ACCURATE_EXPECTED_VALUES "true"
KEYWORD "WHITE_COLOR_PATCHES"
WHITE_COLOR_PATCHES "4"
KEYWORD "SINGLE_DIM_STEPS"
SINGLE_DIM_STEPS "65"
KEYWORD "COLOR_REP"
COLOR_REP "RGB"

NUMBER_OF_FIELDS 7
BEGIN_DATA_FORMAT
SAMPLE_ID RGB_R RGB_G RGB_B XYZ_X XYZ_Y XYZ_Z
END_DATA_FORMAT

NUMBER_OF_SETS 1524
BEGIN_DATA
1 100.000000 100.000000 100.000000 95.0458000 100.000000 108.906000
2 50.1096000 23.5273000 46.8781000 13.8461000 9.14776000 18.6598000
3 66.2163000 45.2602000 55.4956000 27.3529000 22.7125000 28.3443000
4 67.6588000 70.7496000 84.6689000 45.9149000 46.5928000 71.4793000
5 22.7966000 72.2734000 61.6211000 25.0508000 37.7474000 37.9257000
6 31.8924000 90.9592000 75.3481000 41.7900000 63.2584000 59.9597000
7 64.3609000 48.0117000 35.9801000 24.2670000 22.6984000 13.1709000
8 87.2978000 49.9569000 43.0243000 40.7484000 32.0255000 18.7049000
9 14.2993000 13.5656000 0.00000000 1.33295000 1.56191000 0.23124200
10 9.35954000 7.77976000 0.00000000 0.62115800 0.68773700 0.10001600
11 0.00000000 0.00000000 1.56250000 0.02173710 0.00869539 0.11447100
12 4.68750000 0.00000000 0.00000000 0.15087500 0.07778030 0.00706313
13 6.25000000 0.00000000 0.00000000 0.21245300 0.10952600 0.00994591
14 7.81250000 0.00000000 0.00000000 0.28717800 0.14804900 0.01344410
15 9.37500000 0.00000000 0.00000000 0.37450700 0.19307000 0.01753240
16 12.5000000 0.00000000 0.00000000 0.59181800 0.30510000 0.02770570
17 14.0625000 0.00000000 0.00000000 0.72249700 0.37246900 0.03382340
18 15.6250000 0.00000000 0.00000000 0.86879000 0.44788700 0.04067200
19 17.1875000 0.00000000 0.00000000 1.03140000 0.53171900 0.04828470
20 18.7500000 0.00000000 0.00000000 1.20983000 0.62370200 0.05663760
21 20.3125000 0.00000000 0.00000000 1.40572000 0.72469300 0.06580840
22 21.8750000 0.00000000 0.00000000 1.61857000 0.83442100 0.07577270
23 23.4375000 0.00000000 0.00000000 1.84915000 0.95328900 0.08656690
24 25.0000000 0.00000000 0.00000000 2.09826000 1.08172000 0.09822920
25 26.5625000 0.00000000 0.00000000 2.36528000 1.21937000 0.11072900
26 28.1250000 0.00000000 0.00000000 2.65160000 1.36698000 0.12413300
27 29.6875000 0.00000000 0.00000000 2.95676000 1.52430000 0.13841900
28 31.2500000 0.00000000 0.00000000 3.28202000 1.69198000 0.15364600
29 32.8125000 0.00000000 0.00000000 3.62674000 1.86969000 0.16978400
30 34.3750000 0.00000000 0.00000000 3.99198000 2.05798000 0.18688300
31 35.9375000 0.00000000 0.00000000 4.37774000 2.25686000 0.20494200
32 37.5000000 0.00000000 0.00000000 4.78441000 2.46651000 0.22398000
33 39.0625000 0.00000000 0.00000000 5.21228000 2.68708000 0.24401000
34 40.6250000 0.00000000 0.00000000 5.66164000 2.91874000 0.26504700
35 42.1875000 0.00000000 0.00000000 6.13323000 3.16186000 0.28712400
36 43.7500000 0.00000000 0.00000000 6.62617000 3.41599000 0.31020100
37 45.3125000 0.00000000 0.00000000 7.14208000 3.68195000 0.33435300
38 46.8750000 0.00000000 0.00000000 7.68054000 3.95954000 0.35956100
39 48.4375000 0.00000000 0.00000000 8.24228000 4.24914000 0.38585800
40 50.0000000 0.00000000 0.00000000 8.82693000 4.55054000 0.41322900
41 51.5625000 0.00000000 0.00000000 9.43513000 4.86409000 0.44170100
42 53.1250000 0.00000000 0.00000000 10.0669000 5.18977000 0.47127600
43 54.6875000 0.00000000 0.00000000 10.7228000 5.52792000 0.50198300
44 56.2500000 0.00000000 0.00000000 11.4029000 5.87854000 0.53382200
45 57.8125000 0.00000000 0.00000000 12.1082000 6.24212000 0.56683800
46 59.3750000 0.00000000 0.00000000 12.8375000 6.61813000 0.60098400
47 60.9375000 0.00000000 0.00000000 13.5920000 7.00710000 0.63630500
48 62.5000000 0.00000000 0.00000000 14.3720000 7.40921000 0.67282000
49 64.0625000 0.00000000 0.00000000 15.1774000 7.82439000 0.71052200
50 65.6250000 0.00000000 0.00000000 16.0083000 8.25273000 0.74942000
51 67.1875000 0.00000000 0.00000000 16.8655000 8.69468000 0.78955200
52 68.7500000 0.00000000 0.00000000 17.7488000 9.15001000 0.83090000
53 70.3125000 0.00000000 0.00000000 18.6583000 9.61893000 0.87348200
54 71.8750000 0.00000000 0.00000000 19.5948000 10.1017000 0.91732000
55 73.4375000 0.00000000 0.00000000 20.5577000 10.5981000 0.96240100
56 75.0000000 0.00000000 0.00000000 21.5482000 11.1087000 1.00877000
57 76.5625000 0.00000000 0.00000000 22.5653000 11.6331000 1.05638000
58 78.1250000 0.00000000 0.00000000 23.6104000 12.1719000 1.10531000
59 79.6875000 0.00000000 0.00000000 24.6833000 12.7249000 1.15554000
60 81.2500000 0.00000000 0.00000000 25.7838000 13.2923000 1.20705000
61 82.8125000 0.00000000 0.00000000 26.9124000 13.8741000 1.25989000
62 84.3750000 0.00000000 0.00000000 28.0694000 14.4706000 1.31406000
63 85.9375000 0.00000000 0.00000000 29.2547000 15.0817000 1.36955000
64 87.5000000 0.00000000 0.00000000 30.4689000 15.7076000 1.42639000
65 89.0625000 0.00000000 0.00000000 31.7119000 16.3484000 1.48458000
66 90.6250000 0.00000000 0.00000000 32.9839000 17.0041000 1.54412000
67 92.1875000 0.00000000 0.00000000 34.2853000 17.6751000 1.60505000
68 93.7500000 0.00000000 0.00000000 35.6163000 18.3612000 1.66736000
69 95.3125000 0.00000000 0.00000000 36.9768000 19.0626000 1.73105000
70 96.8750000 0.00000000 0.00000000 38.3674000 19.7795000 1.79615000
71 98.4375000 0.00000000 0.00000000 39.7876000 20.5117000 1.86264000
72 100.000000 0.00000000 0.00000000 41.2385000 21.2596000 1.93056000
73 100.000000 69.1963000 0.00000000 56.8509000 52.4869000 7.13536000
74 100.000000 100.000000 23.9041000 77.8369000 93.1160000 18.2807000
75 54.8854000 83.9345000 33.9646000 36.5649000 54.3630000 17.4998000
76 65.3872000 91.4247000 40.9410000 47.5736000 67.5472000 23.7351000
77 0.00000000 12.5000000 0.00000000 0.51315700 1.02639000 0.17107300
78 0.00000000 3.12500000 0.00000000 0.08666860 0.17335000 0.02889310
79 0.00000000 1.56250000 0.00000000 0.04306150 0.08612930 0.01435560
80 0.00000000 4.68750000 0.00000000 0.13082100 0.26166200 0.04361250
81 7.81250000 7.81250000 7.81250000 0.66188300 0.69638400 0.75840200
82 0.00000000 14.0625000 0.00000000 0.62646700 1.25303000 0.20884800
83 10.4070000 17.0074000 0.00000000 1.31714000 1.98138000 0.31304000
84 0.00000000 17.1875000 0.00000000 0.89431600 1.78876000 0.29814200
85 0.00000000 20.3125000 0.00000000 1.21888000 2.43795000 0.40634500
86 0.00000000 21.8750000 0.00000000 1.40344000 2.80709000 0.46787100
87 0.00000000 23.4375000 0.00000000 1.60337000 3.20697000 0.53452200
88 0.00000000 25.0000000 0.00000000 1.81937000 3.63902000 0.60653300
89 0.00000000 26.5625000 0.00000000 2.05090000 4.10210000 0.68371700
90 0.00000000 28.1250000 0.00000000 2.29916000 4.59867000 0.76648200
91 0.00000000 29.6875000 0.00000000 2.56376000 5.12791000 0.85469300
92 0.00000000 31.2500000 0.00000000 2.84579000 5.69200000 0.94871400
93 0.00000000 32.8125000 0.00000000 3.14470000 6.28986000 1.04836000
94 0.00000000 34.3750000 0.00000000 3.46139000 6.92329000 1.15394000
95 0.00000000 35.9375000 0.00000000 3.79588000 7.59232000 1.26545000
96 0.00000000 37.5000000 0.00000000 4.14850000 8.29761000 1.38300000
97 0.00000000 39.0625000 0.00000000 4.51949000 9.03965000 1.50668000
98 0.00000000 40.6250000 0.00000000 4.90913000 9.81898000 1.63658000
99 0.00000000 42.1875000 0.00000000 5.31804000 10.6369000 1.77290000
100 0.00000000 43.7500000 0.00000000 5.74546000 11.4918000 1.91539000
101 0.00000000 45.3125000 0.00000000 6.19280000 12.3865000 2.06452000
102 0.00000000 76.0045000 88.7799000 33.0295000 44.0126000 78.9900000
103 100.000000 100.000000 100.000000 95.0458000 100.000000 108.906000
104 0.00000000 18.7500000 0.00000000 1.04903000 2.09821000 0.34971800
105 0.00000000 51.5625000 0.00000000 8.18107000 16.3633000 2.72736000
106 0.00000000 53.1250000 0.00000000 8.72885000 17.4590000 2.90998000
107 0.00000000 54.6875000 0.00000000 9.29759000 18.5965000 3.09958000
108 0.00000000 56.2500000 0.00000000 9.88731000 19.7761000 3.29618000
109 0.00000000 57.8125000 0.00000000 10.4988000 20.9992000 3.50004000
110 0.00000000 59.3750000 0.00000000 11.1313000 22.2642000 3.71088000
111 0.00000000 60.9375000 0.00000000 11.7855000 23.5727000 3.92897000
112 0.00000000 62.5000000 0.00000000 12.4618000 24.9254000 4.15444000
113 0.00000000 64.0625000 0.00000000 13.1601000 26.3221000 4.38724000
114 0.00000000 65.6250000 0.00000000 13.8805000 27.7631000 4.62742000
115 0.00000000 67.1875000 0.00000000 14.6239000 29.2499000 4.87522000
116 0.00000000 68.7500000 0.00000000 15.3897000 30.7817000 5.13053000
117 0.00000000 70.3125000 0.00000000 16.1784000 32.3592000 5.39346000
118 0.00000000 71.8750000 0.00000000 16.9903000 33.9832000 5.66415000
119 0.00000000 73.4375000 0.00000000 17.8253000 35.6533000 5.94251000
120 0.00000000 75.0000000 0.00000000 18.6841000 37.3710000 6.22881000
121 0.00000000 76.5625000 0.00000000 19.5661000 39.1350000 6.52282000
122 0.00000000 78.1250000 0.00000000 20.4722000 40.9475000 6.82492000
123 0.00000000 79.6875000 0.00000000 21.4025000 42.8082000 7.13505000
124 0.00000000 81.2500000 0.00000000 22.3567000 44.7168000 7.45316000
125 0.00000000 82.8125000 0.00000000 23.3354000 46.6742000 7.77941000
126 0.00000000 84.3750000 0.00000000 24.3386000 48.6808000 8.11387000
127 0.00000000 85.9375000 0.00000000 25.3663000 50.7364000 8.45649000
128 0.00000000 87.5000000 0.00000000 26.4191000 52.8422000 8.80746000
129 0.00000000 89.0625000 0.00000000 27.4970000 54.9980000 9.16678000
130 0.00000000 90.6250000 0.00000000 28.5998000 57.2039000 9.53445000
131 0.00000000 92.1875000 0.00000000 29.7283000 59.4610000 9.91066000
132 0.00000000 93.7500000 0.00000000 30.8824000 61.7693000 10.2954000
133 0.00000000 95.3125000 0.00000000 32.0620000 64.1288000 10.6887000
134 0.00000000 96.8750000 0.00000000 33.2678000 66.5406000 11.0906000
135 0.00000000 98.4375000 0.00000000 34.4992000 69.0036000 11.5012000
136 0.00000000 100.000000 0.00000000 35.7573000 71.5199000 11.9206000
137 49.0592000 100.000000 22.9272000 45.0046000 76.1975000 16.4017000
138 62.7282000 91.0226000 27.7123000 44.4992000 65.6931000 16.2405000
139 79.4949000 90.1445000 63.8968000 59.4126000 71.8185000 45.3540000
140 9.37500000 9.37500000 9.37500000 0.86315800 0.90815000 0.98902800
141 10.9375000 0.00000000 0.00000000 0.47566100 0.24521700 0.02226780
142 0.00000000 0.00000000 4.68750000 0.06603750 0.02641670 0.34776600
143 0.00000000 0.00000000 6.25000000 0.09299050 0.03719860 0.48970500
144 0.00000000 0.00000000 7.81250000 0.12569700 0.05028210 0.66194500
145 0.00000000 0.00000000 9.37500000 0.16392100 0.06557270 0.86323900
146 0.00000000 0.00000000 14.0625000 0.31623600 0.12650200 1.66536000
147 0.00000000 0.00000000 17.1875000 0.45144400 0.18058900 2.37739000
148 0.00000000 0.00000000 18.7500000 0.52954000 0.21182900 2.78865000
149 0.00000000 0.00000000 20.3125000 0.61528300 0.24612900 3.24019000
150 0.00000000 0.00000000 21.8750000 0.70844600 0.28339600 3.73081000
151 0.00000000 0.00000000 23.4375000 0.80936800 0.32376800 4.26228000
152 0.00000000 0.00000000 25.0000000 0.91840600 0.36738600 4.83649000
153 0.00000000 0.00000000 26.5625000 1.03528000 0.41413700 5.45196000
154 0.00000000 0.00000000 28.1250000 1.16060000 0.46427000 6.11193000
155 0.00000000 0.00000000 29.6875000 1.29417000 0.51770000 6.81533000
156 0.00000000 0.00000000 31.2500000 1.43653000 0.57465000 7.56504000
157 0.00000000 0.00000000 32.8125000 1.58742000 0.63500800 8.35964000
158 0.00000000 0.00000000 34.3750000 1.74728000 0.69895700 9.20150000
159 0.00000000 0.00000000 35.9375000 1.91613000 0.76650100 10.0907000
160 0.00000000 0.00000000 37.5000000 2.09413000 0.83770500 11.0281000
161 0.00000000 45.9555000 63.7255000 12.9486000 15.3926000 36.7061000
162 71.4084000 54.2365000 76.1681000 38.2071000 32.1256000 55.3640000
163 0.00000000 0.00000000 0.00000000 0.00000000 0.00000000 0.00000000
164 0.00000000 0.00000000 43.7500000 2.90026000 1.16018000 15.2733000
165 0.00000000 0.00000000 45.3125000 3.12607000 1.25051000 16.4625000
166 0.00000000 0.00000000 46.8750000 3.36176000 1.34479000 17.7036000
167 0.00000000 0.00000000 48.4375000 3.60763000 1.44314000 18.9984000
168 0.00000000 0.00000000 50.0000000 3.86353000 1.54551000 20.3461000
169 0.00000000 0.00000000 51.5625000 4.12974000 1.65200000 21.7480000
170 0.00000000 0.00000000 53.1250000 4.40626000 1.76262000 23.2041000
171 0.00000000 0.00000000 54.6875000 4.69335000 1.87746000 24.7160000
172 0.00000000 0.00000000 56.2500000 4.99104000 1.99654000 26.2837000
173 0.00000000 0.00000000 57.8125000 5.29972000 2.12002000 27.9093000
174 0.00000000 0.00000000 59.3750000 5.61897000 2.24773000 29.5905000
175 0.00000000 0.00000000 60.9375000 5.94921000 2.37984000 31.3296000
176 0.00000000 0.00000000 62.5000000 6.29061000 2.51641000 33.1275000
177 0.00000000 0.00000000 64.0625000 6.64311000 2.65742000 34.9839000
178 0.00000000 0.00000000 65.6250000 7.00679000 2.80289000 36.8990000
179 0.00000000 0.00000000 67.1875000 7.38201000 2.95299000 38.8750000
180 0.00000000 0.00000000 68.7500000 7.76860000 3.10764000 40.9109000
181 0.00000000 0.00000000 70.3125000 8.16672000 3.26690000 43.0075000
182 0.00000000 0.00000000 71.8750000 8.57659000 3.43086000 45.1659000
183 0.00000000 0.00000000 73.4375000 8.99808000 3.59946000 47.3856000
184 0.00000000 0.00000000 75.0000000 9.43160000 3.77288000 49.6685000
185 0.00000000 0.00000000 76.5625000 9.87679000 3.95097000 52.0130000
186 0.00000000 0.00000000 78.1250000 10.3342000 4.13396000 54.4219000
187 0.00000000 0.00000000 79.6875000 10.8038000 4.32180000 56.8949000
188 0.00000000 0.00000000 81.2500000 11.2855000 4.51449000 59.4315000
189 0.00000000 0.00000000 82.8125000 11.7795000 4.71211000 62.0331000
190 0.00000000 0.00000000 84.3750000 12.2859000 4.91469000 64.7000000
191 0.00000000 0.00000000 85.9375000 12.8047000 5.12222000 67.4320000
192 0.00000000 0.00000000 87.5000000 13.3362000 5.33481000 70.2307000
193 0.00000000 0.00000000 89.0625000 13.8802000 5.55246000 73.0959000
194 0.00000000 0.00000000 90.6250000 14.4370000 5.77516000 76.0277000
195 0.00000000 0.00000000 92.1875000 15.0066000 6.00303000 79.0276000
196 0.00000000 0.00000000 93.7500000 15.5892000 6.23607000 82.0955000
197 0.00000000 0.00000000 95.3125000 16.1847000 6.47428000 85.2314000
198 0.00000000 0.00000000 96.8750000 16.7933000 6.71777000 88.4368000
199 21.1048000 37.2267000 83.9752000 17.7521000 13.8133000 65.4433000
200 69.6346000 53.0116000 83.3030000 38.8859000 31.5669000 66.6143000
201 10.1563000 10.1563000 10.1563000 0.97603300 1.02691000 1.11836000
202 0.00000000 6.25000000 0.00000000 0.18421500 0.36845800 0.06141270
203 0.00000000 9.37500000 0.00000000 0.32473000 0.64950800 0.10825700
204 0.78125000 0.78125000 0.78125000 0.05795560 0.06097650 0.06640690
205 0.00000000 0.00000000 3.12500000 0.04374960 0.01750100 0.23039300
206 1.56250000 1.56250000 1.56250000 0.11446100 0.12042700 0.13115200
207 3.12500000 3.12500000 3.12500000 0.23037200 0.24238000 0.26396600
208 3.90625000 3.90625000 3.90625000 0.28687700 0.30183100 0.32871100
209 4.68750000 4.68750000 4.68750000 0.34773300 0.36585900 0.39844100
210 5.46875000 5.46875000 5.46875000 0.41576200 0.43743300 0.47639000
211 6.25000000 6.25000000 6.25000000 0.48965900 0.51518300 0.56106400
212 7.03125000 7.03125000 7.03125000 0.57205500 0.60187300 0.65547400
213 0.00000000 7.81250000 0.00000000 0.24900800 0.49805300 0.08301290
214 3.12500000 0.00000000 0.00000000 0.09995380 0.05152910 0.00467929
215 2.34375000 2.34375000 2.34375000 0.17241600 0.18140400 0.19755900
216 8.59375000 8.59375000 8.59375000 0.75883800 0.79839300 0.86949500
217 14.0625000 14.0625000 14.0625000 1.66520000 1.75200000 1.90803000
218 18.6233000 13.5297000 9.49527000 1.94825000 1.85566000 1.13092000
219 14.8438000 14.8438000 14.8438000 1.82996000 1.92534000 2.09681000
220 13.2813000 13.2813000 13.2813000 1.51016000 1.58888000 1.73038000
221 12.5000000 12.5000000 12.5000000 1.36401000 1.43511000 1.56292000
222 16.4063000 16.4063000 16.4063000 2.18470000 2.29858000 2.50329000
223 17.1875000 17.1875000 17.1875000 2.37716000 2.50107000 2.72381000
224 17.9688000 17.9688000 17.9688000 2.57830000 2.71270000 2.95428000
225 18.7500000 18.7500000 18.7500000 2.78839000 2.93374000 3.19501000
226 19.5313000 19.5313000 19.5313000 3.00952000 3.16639000 3.44838000
227 20.3125000 20.3125000 20.3125000 3.23989000 3.40877000 3.71235000
228 21.0938000 21.0938000 21.0938000 3.48011000 3.66151000 3.98759000
229 21.8750000 21.8750000 21.8750000 3.73046000 3.92491000 4.27445000
230 23.4375000 23.4375000 23.4375000 4.26188000 4.48403000 4.88337000
231 24.2188000 24.2188000 24.2188000 4.54373000 4.78057000 5.20631000
232 25.0000000 25.0000000 25.0000000 4.83604000 5.08812000 5.54126000
233 25.7813000 25.7813000 25.7813000 5.13849000 5.40633000 5.88781000
234 26.5625000 26.5625000 26.5625000 5.45145000 5.73560000 6.24640000
235 27.3438000 27.3438000 27.3438000 5.77562000 6.07667000 6.61784000
236 28.1250000 28.1250000 28.1250000 6.11136000 6.42991000 7.00255000
237 28.9063000 28.9063000 28.9063000 6.45724000 6.79382000 7.39886000
238 29.6875000 29.6875000 29.6875000 6.81469000 7.16990000 7.80844000
239 30.4688000 30.4688000 30.4688000 7.18373000 7.55818000 8.23129000
240 31.2500000 31.2500000 31.2500000 7.56434000 7.95863000 8.66740000
241 32.0313000 32.0313000 32.0313000 7.95509000 8.36974000 9.11513000
242 32.8125000 32.8125000 32.8125000 8.35886000 8.79456000 9.57778000
243 33.5938000 33.5938000 33.5938000 8.77373000 9.23105000 10.0531000
244 34.3750000 34.3750000 34.3750000 9.20065000 9.68023000 10.5423000
245 35.1563000 35.1563000 35.1563000 9.63915000 10.1416000 11.0448000
246 35.9375000 35.9375000 35.9375000 10.0898000 10.6157000 11.5611000
247 36.7188000 36.7188000 36.7188000 10.5523000 11.1024000 12.0911000
248 37.5000000 37.5000000 37.5000000 11.0270000 11.6018000 12.6350000
249 38.2813000 38.2813000 38.2813000 11.5139000 12.1140000 13.1929000
250 39.0625000 39.0625000 39.0625000 12.0132000 12.6394000 13.7650000
251 39.8438000 39.8438000 39.8438000 12.5249000 13.1778000 14.3514000
252 40.6250000 40.6250000 40.6250000 13.0489000 13.7290000 14.9517000
253 41.4063000 41.4063000 41.4063000 13.5858000 14.2939000 15.5669000
254 42.1875000 42.1875000 42.1875000 14.1358000 14.8726000 16.1971000
255 42.9688000 42.9688000 42.9688000 14.6973000 15.4634000 16.8405000
256 43.7500000 43.7500000 43.7500000 15.2719000 16.0679000 17.4989000
257 44.5313000 44.5313000 44.5313000 15.8603000 16.6870000 18.1731000
258 45.3125000 45.3125000 45.3125000 16.4609000 17.3190000 18.8613000
259 46.0938000 46.0938000 46.0938000 17.0753000 17.9653000 19.5653000
260 46.8750000 46.8750000 46.8750000 17.7020000 18.6247000 20.2834000
261 47.6563000 47.6563000 47.6563000 18.3425000 19.2986000 21.0172000
262 48.4375000 48.4375000 48.4375000 18.9967000 19.9869000 21.7668000
263 49.2188000 49.2188000 49.2188000 19.6632000 20.6881000 22.5306000
264 50.0000000 50.0000000 50.0000000 20.3442000 21.4046000 23.3108000
265 50.7813000 50.7813000 50.7813000 21.0375000 22.1340000 24.1052000
266 51.5625000 51.5625000 51.5625000 21.7459000 22.8794000 24.9170000
267 52.3438000 52.3438000 52.3438000 22.4667000 23.6378000 25.7429000
268 53.1250000 53.1250000 53.1250000 23.2020000 24.4114000 26.5854000
269 53.9063000 53.9063000 53.9063000 23.9510000 25.1994000 27.4436000
270 54.6875000 54.6875000 54.6875000 24.7137000 26.0019000 28.3176000
271 55.4688000 55.4688000 55.4688000 25.4910000 26.8197000 29.2082000
272 56.2500000 56.2500000 56.2500000 26.2813000 27.6512000 30.1137000
273 57.0313000 57.0313000 57.0313000 27.0875000 28.4994000 31.0375000
274 57.8125000 57.8125000 57.8125000 27.9067000 29.3613000 31.9762000
275 58.5938000 58.5938000 58.5938000 28.7396000 30.2376000 32.9305000
276 59.3750000 59.3750000 59.3750000 29.5878000 31.1300000 33.9024000
277 60.1563000 60.1563000 60.1563000 30.4504000 32.0377000 34.8909000
278 60.9375000 60.9375000 60.9375000 31.3267000 32.9596000 35.8949000
279 61.7188000 61.7188000 61.7188000 32.2183000 33.8977000 36.9165000
280 62.5000000 62.5000000 62.5000000 33.1244000 34.8510000 37.9548000
281 63.2813000 63.2813000 63.2813000 34.0450000 35.8196000 39.0096000
282 64.0625000 64.0625000 64.0625000 34.9806000 36.8040000 40.0816000
283 64.8438000 64.8438000 64.8438000 35.9311000 37.8040000 41.1707000
284 65.6250000 65.6250000 65.6250000 36.8956000 38.8188000 42.2759000
285 66.4063000 66.4063000 66.4063000 37.8760000 39.8503000 43.3993000
286 67.1875000 67.1875000 67.1875000 38.8714000 40.8976000 44.5398000
287 67.9688000 67.9688000 67.9688000 39.8822000 41.9611000 45.6980000
288 68.7500000 68.7500000 68.7500000 40.9070000 43.0393000 46.8723000
289 69.5313000 69.5313000 69.5313000 41.9478000 44.1343000 48.0648000
290 70.3125000 70.3125000 70.3125000 43.0035000 45.2450000 49.2744000
291 71.0938000 71.0938000 71.0938000 44.0746000 46.3720000 50.5018000
292 71.8750000 71.8750000 71.8750000 45.1617000 47.5157000 51.7474000
293 72.6563000 72.6563000 72.6563000 46.2637000 48.6751000 53.0100000
294 73.4375000 73.4375000 73.4375000 47.3811000 49.8509000 54.2905000
295 74.2188000 74.2188000 74.2188000 48.5146000 51.0434000 55.5892000
296 75.0000000 75.0000000 75.0000000 49.6639000 52.2526000 56.9061000
297 75.7813000 75.7813000 75.7813000 50.8281000 53.4775000 58.2400000
298 76.5625000 76.5625000 76.5625000 52.0082000 54.7191000 59.5922000
299 77.3438000 77.3438000 77.3438000 53.2053000 55.9786000 60.9639000
300 78.1250000 78.1250000 78.1250000 54.4169000 57.2533000 62.3522000
301 78.9063000 78.9063000 78.9063000 55.6447000 58.5452000 63.7590000
302 79.6875000 79.6875000 79.6875000 56.8896000 59.8549000 65.1855000
303 80.4688000 80.4688000 80.4688000 58.1493000 61.1803000 66.6288000
304 81.2500000 81.2500000 81.2500000 59.4260000 62.5236000 68.0917000
305 82.0313000 82.0313000 82.0313000 60.7187000 63.8836000 69.5729000
306 82.8125000 82.8125000 82.8125000 62.0273000 65.2604000 71.0724000
307 83.5938000 83.5938000 83.5938000 63.3521000 66.6543000 72.5903000
308 84.3750000 84.3750000 84.3750000 64.6940000 68.0661000 74.1279000
309 85.1563000 85.1563000 85.1563000 66.0518000 69.4947000 75.6838000
310 85.9375000 85.9375000 85.9375000 67.4258000 70.9403000 77.2581000
311 86.7188000 86.7188000 86.7188000 68.8169000 72.4040000 78.8521000
312 87.5000000 87.5000000 87.5000000 70.2242000 73.8846000 80.4645000
313 88.2813000 88.2813000 88.2813000 71.6486000 75.3833000 82.0967000
314 89.0625000 89.0625000 89.0625000 73.0891000 76.8989000 83.7473000
315 89.8438000 89.8438000 89.8438000 74.5469000 78.4326000 85.4176000
316 90.6250000 90.6250000 90.6250000 76.0207000 79.9832000 87.1063000
317 91.4063000 91.4063000 91.4063000 77.5118000 81.5521000 88.8149000
318 92.1875000 92.1875000 92.1875000 79.0202000 83.1391000 90.5433000
319 92.9688000 92.9688000 92.9688000 80.5460000 84.7445000 92.2916000
320 93.7500000 93.7500000 93.7500000 82.0878000 86.3666000 94.0582000
321 94.5313000 94.5313000 94.5313000 83.6470000 88.0071000 95.8448000
322 95.3125000 95.3125000 95.3125000 85.2235000 89.6657000 97.6511000
323 96.0938000 96.0938000 96.0938000 86.8174000 91.3427000 99.4774000
324 96.8750000 96.8750000 96.8750000 88.4286000 93.0379000 101.324000
325 97.6563000 97.6563000 97.6563000 90.0572000 94.7514000 103.190000
326 98.4375000 98.4375000 98.4375000 91.7017000 96.4816000 105.074000
327 99.2188000 99.2188000 99.2188000 93.3651000 98.2317000 106.980000
328 22.6563000 22.6563000 22.6563000 3.99094000 4.19896000 4.57291000
329 65.3725000 52.1032000 20.0417000 24.8407000 25.1604000 6.69265000
