dispcalGUI/ti1/d3-e4-s41-g121-m0-f2527-caRGB.ti1
CTI1   

ORIGINATOR "Argyll targen"
KEYWORD "OFPS_PATCHES"
OFPS_PATCHES "2280"
CREATED "Wed Dec 18 02:33:28 2013"
KEYWORD "COMP_GREY_STEPS"
COMP_GREY_STEPS "121"
KEYWORD "BLACK_COLOR_PATCHES"
BLACK_COLOR_PATCHES "4"
KEYWORD "APPROX_WHITE_POINT"
APPROX_WHITE_POINT "95.045794 99.996943 108.895612"
DESCRIPTOR "Argyll Calibration Target chart information 1"
KEYWORD "DARK_REGION_EMPHASIS"
DARK_REGION_EMPHASIS "1.6"
KEYWORD "ACCURATE_EXPECTED_VALUES"
ACCURATE_EXPECTED_VALUES "true"
KEYWORD "WHITE_COLOR_PATCHES"
WHITE_COLOR_PATCHES "4"
KEYWORD "SINGLE_DIM_STEPS"
SINGLE_DIM_STEPS "41"
KEYWORD "COLOR_REP"
COLOR_REP "RGB"

NUMBER_OF_FIELDS 7
BEGIN_DATA_FORMAT
SAMPLE_ID RGB_R RGB_G RGB_B XYZ_X XYZ_Y XYZ_Z
END_DATA_FORMAT

NUMBER_OF_SETS 2527
BEGIN_DATA
1 100.0000000 100.0000000 100.0000000 95.04580000 99.99690000 108.8960000
2 34.85590000 25.39880000 49.83750000 10.65970000 7.636090000 22.04440000
3 52.86060000 26.41390000 58.56920000 20.98920000 12.99660000 31.60940000
4 48.56120000 48.56120000 48.56120000 19.40950000 20.42060000 22.23780000
5 47.61900000 47.61900000 47.61900000 18.59100000 19.55940000 21.30000000
6 50.51020000 100.0000000 78.91960000 42.57720000 73.82650000 66.56390000
7 60.72510000 100.0000000 79.39950000 49.14040000 77.19320000 67.65480000
8 100.0000000 23.86720000 0.000000000 58.46650000 32.42290000 3.004180000
9 100.0000000 81.86290000 0.000000000 69.61970000 70.13390000 7.252820000
10 100.0000000 100.0000000 0.000000000 76.22550000 92.46910000 9.769170000
11 100.0000000 100.0000000 19.92540000 76.76730000 92.68580000 12.62300000
12 10.20410000 10.20410000 10.20410000 0.628073000 0.660790000 0.719594000
13 10.20410000 0.000000000 0.000000000 0.381103000 0.196503000 0.017852100
14 3.554500000 0.000000000 0.000000000 0.037481000 0.019325900 0.001755730
15 4.807690000 0.000000000 0.000000000 0.072820900 0.037547700 0.003411170
16 6.097560000 0.000000000 0.000000000 0.122817000 0.063326500 0.005753140
17 7.425740000 0.000000000 0.000000000 0.189442000 0.097679400 0.008874060
18 8.793970000 0.000000000 0.000000000 0.274788000 0.141685000 0.012872000
19 9.259260000 9.259260000 9.259260000 0.507234000 0.533657000 0.581146000
20 14.26230000 7.157360000 0.000000000 0.852080000 0.600406000 0.058691800
21 17.95580000 0.000000000 0.000000000 1.320680000 0.680967000 0.061865100
22 19.66290000 0.000000000 0.000000000 1.612660000 0.831516000 0.075542300
23 21.42860000 0.000000000 0.000000000 1.948380000 1.004620000 0.091268400
24 23.25580000 0.000000000 0.000000000 2.332540000 1.202700000 0.109264000
25 25.14790000 0.000000000 0.000000000 2.770380000 1.428450000 0.129773000
26 27.10840000 0.000000000 0.000000000 3.267670000 1.684870000 0.153068000
27 29.14110000 0.000000000 0.000000000 3.830870000 1.975260000 0.179450000
28 31.25000000 0.000000000 0.000000000 4.467150000 2.303340000 0.209256000
29 33.43950000 0.000000000 0.000000000 5.184520000 2.673230000 0.242860000
30 35.71430000 0.000000000 0.000000000 5.991940000 3.089550000 0.280682000
31 38.07950000 0.000000000 0.000000000 6.899430000 3.557470000 0.323192000
32 40.54050000 0.000000000 0.000000000 7.918240000 4.082780000 0.370916000
33 43.10340000 0.000000000 0.000000000 9.061030000 4.672020000 0.424448000
34 45.77460000 0.000000000 0.000000000 10.34200000 5.332530000 0.484454000
35 48.56120000 0.000000000 0.000000000 11.77730000 6.072590000 0.551688000
36 51.47060000 0.000000000 0.000000000 13.38510000 6.901580000 0.627001000
37 54.51130000 0.000000000 0.000000000 15.18590000 7.830130000 0.711358000
38 57.69230000 0.000000000 0.000000000 17.20330000 8.870320000 0.805858000
39 61.02360000 0.000000000 0.000000000 19.46380000 10.03590000 0.911750000
40 64.51610000 0.000000000 0.000000000 21.99810000 11.34260000 1.030460000
41 68.18180000 0.000000000 0.000000000 24.84080000 12.80840000 1.163630000
42 72.03390000 0.000000000 0.000000000 28.03230000 14.45390000 1.313120000
43 76.08700000 0.000000000 0.000000000 31.61850000 16.30300000 1.481110000
44 80.35710000 0.000000000 0.000000000 35.65280000 18.38320000 1.670090000
45 84.86240000 0.000000000 0.000000000 40.19710000 20.72630000 1.882960000
46 89.62260000 0.000000000 0.000000000 45.32330000 23.36950000 2.123090000
47 87.81160000 0.000000000 24.81720000 44.21160000 22.69470000 6.654960000
48 67.84020000 0.000000000 25.31380000 25.48520000 13.03450000 5.981880000
49 100.0000000 0.000000000 27.25710000 58.75130000 30.16840000 8.385960000
50 100.0000000 0.000000000 45.78680000 61.04900000 31.08740000 20.48770000
51 100.0000000 67.08540000 77.34540000 76.08080000 60.08950000 61.98120000
52 14.70590000 0.000000000 0.000000000 0.851327000 0.438959000 0.039878900
53 8.793970000 8.793970000 8.793970000 0.452861000 0.476451000 0.518850000
54 0.000000000 2.336450000 0.000000000 0.004792060 0.016202800 0.001825460
55 0.000000000 0.000000000 8.793970000 0.089672400 0.035867500 0.472304000
56 0.000000000 4.807690000 0.000000000 0.023426900 0.079210400 0.008924080
57 0.000000000 6.097560000 0.000000000 0.039510800 0.133593000 0.015051000
58 0.000000000 7.425740000 0.000000000 0.060944400 0.206064000 0.023215800
59 0.000000000 8.793970000 0.000000000 0.088400600 0.298898000 0.033674800
60 0.000000000 14.70590000 0.000000000 0.273876000 0.926025000 0.104329000
61 0.000000000 17.95580000 0.000000000 0.424871000 1.436560000 0.161848000
62 0.000000000 19.66290000 0.000000000 0.518801000 1.754160000 0.197629000
63 0.000000000 21.42860000 0.000000000 0.626803000 2.119330000 0.238771000
64 0.000000000 23.25580000 0.000000000 0.750391000 2.537210000 0.285849000
65 0.000000000 25.14790000 0.000000000 0.891244000 3.013460000 0.339505000
66 0.000000000 27.10840000 0.000000000 1.051230000 3.554390000 0.400448000
67 0.000000000 29.14110000 0.000000000 1.232410000 4.167000000 0.469467000
68 11.38760000 27.16980000 0.000000000 1.541590000 3.822230000 0.425167000
69 0.000000000 33.43950000 0.000000000 1.667890000 5.639420000 0.635354000
70 0.000000000 35.71430000 0.000000000 1.927640000 6.517690000 0.734302000
71 0.000000000 38.07950000 0.000000000 2.219580000 7.504810000 0.845514000
72 0.000000000 40.54050000 0.000000000 2.547340000 8.613010000 0.970368000
73 0.000000000 43.10340000 0.000000000 2.914980000 9.856070000 1.110410000
74 0.000000000 45.77460000 0.000000000 3.327080000 11.24950000 1.267400000
75 0.000000000 48.56120000 0.000000000 3.788820000 12.81070000 1.443290000
76 0.000000000 51.47060000 0.000000000 4.306050000 14.55950000 1.640320000
77 0.000000000 54.51130000 0.000000000 4.885390000 16.51840000 1.861010000
78 0.000000000 57.69230000 0.000000000 5.534390000 18.71280000 2.108240000
79 0.000000000 61.02360000 0.000000000 6.261620000 21.17170000 2.385260000
80 0.000000000 64.51610000 0.000000000 7.076890000 23.92820000 2.695830000
81 0.000000000 68.18180000 0.000000000 7.991430000 27.02050000 3.044210000
82 0.000000000 72.03390000 0.000000000 9.018120000 30.49190000 3.435310000
83 0.000000000 76.08700000 0.000000000 10.17180000 34.39280000 3.874790000
84 0.000000000 80.35710000 0.000000000 11.46970000 38.78110000 4.369190000
85 0.000000000 89.62260000 0.000000000 14.58070000 49.30010000 5.554300000
86 0.000000000 94.66020000 0.000000000 16.44410000 55.60050000 6.264120000
87 0.000000000 100.0000000 0.000000000 18.55340000 62.73240000 7.067620000
88 42.19890000 100.0000000 70.68200000 35.97600000 70.70120000 53.68810000
89 43.42190000 100.0000000 100.0000000 46.58260000 75.00850000 106.6250000
90 0.000000000 13.15790000 0.000000000 0.214448000 0.725087000 0.081690500
91 7.877280000 7.877280000 7.877280000 0.355486000 0.374004000 0.407287000
92 0.000000000 0.000000000 2.336450000 0.004861000 0.001944320 0.025602800
93 0.000000000 0.000000000 3.554500000 0.012231300 0.004892320 0.064422100
94 0.000000000 0.000000000 4.807690000 0.023763900 0.009505170 0.125164000
95 0.000000000 0.000000000 6.097560000 0.040079300 0.016031100 0.211097000
96 0.000000000 0.000000000 7.425740000 0.061821100 0.024727500 0.325611000
97 8.333330000 8.333330000 8.333330000 0.402325000 0.423283000 0.460951000
98 0.000000000 0.000000000 13.15790000 0.217533000 0.087009700 1.145740000
99 8.634310000 0.000000000 14.64960000 0.539420000 0.246279000 1.463340000
100 0.000000000 0.000000000 14.70590000 0.277816000 0.111122000 1.463260000
101 0.000000000 12.93730000 20.39370000 0.776863000 0.926708000 3.082170000
102 0.000000000 7.581490000 17.94020000 0.493952000 0.387746000 2.289950000
103 0.000000000 0.000000000 23.25580000 0.761187000 0.304462000 4.009160000
104 10.19960000 0.000000000 22.03090000 1.056530000 0.466619000 3.577210000
105 0.000000000 0.000000000 25.14790000 0.904066000 0.361612000 4.761710000
106 0.000000000 0.000000000 27.10840000 1.066350000 0.426523000 5.616450000
107 0.000000000 0.000000000 29.14110000 1.250140000 0.500036000 6.584470000
108 0.000000000 8.549250000 35.05150000 1.959530000 1.031460000 9.914910000
109 0.000000000 0.000000000 33.43950000 1.691880000 0.676725000 8.911120000
110 0.000000000 0.000000000 35.71430000 1.955370000 0.782116000 10.29890000
111 0.000000000 0.000000000 38.07950000 2.251510000 0.900569000 11.85870000
112 0.000000000 0.000000000 40.54050000 2.583990000 1.033550000 13.60980000
113 0.000000000 0.000000000 43.10340000 2.956920000 1.182720000 15.57400000
114 0.000000000 0.000000000 45.77460000 3.374950000 1.349920000 17.77580000
115 0.000000000 0.000000000 48.56120000 3.843330000 1.537270000 20.24280000
116 0.000000000 0.000000000 51.47060000 4.368000000 1.747130000 23.00620000
117 0.000000000 0.000000000 54.51130000 4.955680000 1.982190000 26.10150000
118 0.000000000 0.000000000 57.69230000 5.614010000 2.245510000 29.56890000
119 0.000000000 0.000000000 61.02360000 6.351700000 2.540580000 33.45440000
120 0.000000000 0.000000000 64.51610000 7.178700000 2.871360000 37.81020000
121 0.000000000 0.000000000 68.18180000 8.106400000 3.242430000 42.69630000
122 0.000000000 0.000000000 72.03390000 9.147860000 3.659000000 48.18170000
123 0.000000000 0.000000000 76.08700000 10.31820000 4.127100000 54.34560000
124 0.000000000 0.000000000 80.35710000 11.63470000 4.653690000 61.27980000
125 0.000000000 0.000000000 84.86240000 13.11770000 5.246850000 69.09060000
126 0.000000000 0.000000000 89.62260000 14.79050000 5.915970000 77.90150000
127 0.000000000 67.50750000 100.0000000 26.63900000 33.96410000 102.1050000
128 0.000000000 73.52590000 100.0000000 28.25430000 39.42590000 102.7200000
129 0.000000000 82.29630000 100.0000000 30.90750000 48.39680000 103.7310000
130 73.66590000 92.55310000 100.0000000 63.91810000 75.62670000 106.4670000
131 83.40530000 100.0000000 100.0000000 76.06860000 90.21190000 108.0070000
132 10.68380000 10.68380000 10.68380000 0.694840000 0.731036000 0.796090000
133 0.000000000 10.20410000 0.000000000 0.122603000 0.414542000 0.046703600
134 11.65800000 0.000000000 0.000000000 0.510823000 0.263389000 0.023928600
135 0.000000000 0.000000000 10.20410000 0.124367000 0.049744700 0.655038000
136 0.380518000 0.380518000 0.380518000 0.000453573 0.000477201 0.000519667
137 0.764526000 0.764526000 0.764526000 0.002104020 0.002213620 0.002410610
138 1.152070000 1.152070000 1.152070000 0.005184470 0.005454540 0.005939930
139 1.543210000 1.543210000 1.543210000 0.009860140 0.010373800 0.011296900
140 1.937980000 1.937980000 1.937980000 0.016272000 0.017119700 0.018643100
141 2.336450000 2.336450000 2.336450000 0.024548900 0.025827700 0.028126000
142 2.738650000 2.738650000 2.738650000 0.034812500 0.036626000 0.039885300
143 3.144650000 3.144650000 3.144650000 0.047181000 0.049638700 0.054056100
144 3.554500000 3.554500000 3.554500000 0.061770100 0.064987900 0.070771100
145 3.968250000 3.968250000 3.968250000 0.078694900 0.082794300 0.090162100
146 4.385960000 4.385960000 4.385960000 0.098070200 0.103179000 0.112361000
147 4.807690000 4.807690000 4.807690000 0.120012000 0.126263000 0.137499000
148 5.233490000 5.233490000 5.233490000 0.144636000 0.152170000 0.165712000
149 5.663430000 5.663430000 5.663430000 0.172061000 0.181024000 0.197133000
150 2.336450000 0.000000000 0.000000000 0.014895800 0.007680530 0.000697768
151 0.000000000 1.152070000 0.000000000 0.001012030 0.003421870 0.000385518
152 6.097560000 6.097560000 6.097560000 0.202407000 0.212951000 0.231901000
153 13.15790000 0.000000000 0.000000000 0.666598000 0.343709000 0.031225600
154 6.535950000 6.535950000 6.535950000 0.235796000 0.248080000 0.270156000
155 0.000000000 0.000000000 1.152070000 0.001026590 0.000410620 0.005407050
156 6.978650000 6.978650000 6.978650000 0.272354000 0.286542000 0.312041000
157 7.425740000 7.425740000 7.425740000 0.312207000 0.328471000 0.357701000
158 12.65270000 12.65270000 12.65270000 1.007950000 1.060450000 1.154820000
159 13.15790000 13.15790000 13.15790000 1.098580000 1.155810000 1.258660000
160 13.66840000 13.66840000 13.66840000 1.194510000 1.256730000 1.368570000
161 14.18440000 14.18440000 14.18440000 1.295920000 1.363430000 1.484760000
162 14.70590000 14.70590000 14.70590000 1.403020000 1.476110000 1.607460000
163 15.23300000 15.23300000 15.23300000 1.515990000 1.594970000 1.736900000
164 16.30430000 16.30430000 16.30430000 1.760420000 1.852120000 2.016940000
165 16.84880000 16.84880000 16.84880000 1.892300000 1.990870000 2.168040000
166 17.39930000 17.39930000 17.39930000 2.030930000 2.136720000 2.326870000
167 17.95580000 17.95580000 17.95580000 2.176540000 2.289920000 2.493700000
168 18.51850000 18.51850000 18.51850000 2.329370000 2.450710000 2.668800000
169 19.08750000 19.08750000 19.08750000 2.489680000 2.619380000 2.852470000
170 19.66290000 19.66290000 19.66290000 2.657730000 2.796170000 3.045000000
171 20.24480000 20.24480000 20.24480000 2.833780000 2.981390000 3.246710000
172 20.83330000 20.83330000 20.83330000 3.018110000 3.175330000 3.457900000
173 21.42860000 21.42860000 21.42860000 3.211000000 3.378270000 3.678900000
174 22.03070000 22.03070000 22.03070000 3.412760000 3.590540000 3.910060000
175 22.63970000 22.63970000 22.63970000 3.623700000 3.812460000 4.151730000
176 23.25580000 23.25580000 23.25580000 3.844120000 4.044370000 4.404280000
177 23.87910000 23.87910000 23.87910000 4.074370000 4.286610000 4.668070000
178 24.50980000 24.50980000 24.50980000 4.314770000 4.539540000 4.943510000
179 25.14790000 25.14790000 25.14790000 4.565690000 4.803520000 5.230990000
180 25.79370000 25.79370000 25.79370000 4.827480000 5.078960000 5.530930000
181 26.44710000 26.44710000 26.44710000 5.100540000 5.366240000 5.843780000
182 27.10840000 27.10840000 27.10840000 5.385250000 5.665780000 6.169970000
183 27.77780000 27.77780000 27.77780000 5.682010000 5.978000000 6.509980000
184 28.45530000 28.45530000 28.45530000 5.991250000 6.303350000 6.864280000
185 29.14110000 29.14110000 29.14110000 6.313420000 6.642300000 7.233390000
186 29.83540000 29.83540000 29.83540000 6.648950000 6.995310000 7.617820000
187 30.53830000 30.53830000 30.53830000 6.998330000 7.362880000 8.018100000
188 31.25000000 31.25000000 31.25000000 7.362030000 7.745540000 8.434810000
189 31.97060000 31.97060000 31.97060000 7.740570000 8.143800000 8.868510000
190 32.70040000 32.70040000 32.70040000 8.134480000 8.558220000 9.319810000
191 33.43950000 33.43950000 33.43950000 8.544290000 8.989380000 9.789340000
192 34.18800000 34.18800000 34.18800000 8.970570000 9.437870000 10.27770000
193 34.94620000 34.94620000 34.94620000 9.413920000 9.904310000 10.78570000
194 35.71430000 35.71430000 35.71430000 9.874940000 10.38940000 11.31390000
195 36.49240000 36.49240000 36.49240000 10.35430000 10.89370000 11.86310000
196 37.28070000 37.28070000 37.28070000 10.85260000 11.41790000 12.43400000
197 38.07950000 38.07950000 38.07950000 11.37050000 11.96280000 13.02740000
198 38.88890000 38.88890000 38.88890000 11.90880000 12.52920000 13.64420000
199 39.70920000 39.70920000 39.70920000 12.46830000 13.11780000 14.28510000
200 40.54050000 40.54050000 40.54050000 13.04960000 13.72940000 14.95110000
201 41.38320000 41.38320000 41.38320000 13.65360000 14.36480000 15.64310000
202 42.23740000 42.23740000 42.23740000 14.28100000 15.02500000 16.36200000
203 43.10340000 43.10340000 43.10340000 14.93290000 15.71080000 17.10890000
204 49.46050000 67.26490000 48.48920000 23.85020000 34.08270000 23.70620000
205 52.85610000 100.0000000 53.95470000 37.58880000 71.98710000 33.25130000
206 100.0000000 100.0000000 100.0000000 95.04580000 99.99690000 108.8960000
207 21.93140000 16.97860000 67.77670000 10.42690000 5.527620000 42.37950000
208 31.70320000 36.72790000 72.97360000 16.07330000 13.07370000 50.57180000
209 45.52700000 57.91290000 100.0000000 34.62070000 31.66760000 101.7310000
210 54.57500000 77.65050000 100.0000000 44.68250000 51.34430000 103.8920000
211 28.45310000 0.000000000 16.36850000 3.986390000 2.014790000 2.022200000
212 37.93420000 0.000000000 12.76760000 7.045270000 3.609120000 1.392820000
213 39.21870000 22.40750000 18.68820000 8.523620000 6.322060000 3.086850000
214 46.88340000 35.51580000 31.62840000 14.30200000 12.65780000 9.120060000
215 54.51130000 54.51130000 54.51130000 25.02700000 26.33070000 28.67390000
216 55.55560000 55.55560000 55.55560000 26.09350000 27.45280000 29.89580000
217 56.61580000 56.61580000 56.61580000 27.20120000 28.61820000 31.16490000
218 57.69230000 57.69230000 57.69230000 28.35170000 29.82860000 32.48300000
219 58.78550000 58.78550000 58.78550000 29.54660000 31.08580000 33.85210000
220 59.89580000 59.89580000 59.89580000 30.78780000 32.39170000 35.27420000
221 61.02360000 61.02360000 61.02360000 32.07720000 33.74810000 36.75140000
222 62.16930000 62.16930000 62.16930000 33.41650000 35.15730000 38.28590000
223 63.33330000 63.33330000 63.33330000 34.80800000 36.62120000 39.88010000
224 64.51610000 64.51610000 64.51610000 36.25370000 38.14220000 41.53640000
225 65.71820000 65.71820000 65.71820000 37.75580000 39.72250000 43.25740000
226 66.93990000 66.93990000 66.93990000 39.31660000 41.36470000 45.04570000
227 68.18180000 68.18180000 68.18180000 40.93870000 43.07130000 46.90410000
228 69.44440000 69.44440000 69.44440000 42.62450000 44.84490000 48.83560000
229 70.72830000 70.72830000 70.72830000 44.37670000 46.68840000 50.84320000
230 72.03390000 72.03390000 72.03390000 46.19820000 48.60480000 52.93010000
231 73.36180000 73.36180000 73.36180000 48.09190000 50.59720000 55.09980000
232 74.71260000 74.71260000 74.71260000 50.06090000 52.66870000 57.35570000
233 76.08700000 76.08700000 76.08700000 52.10840000 54.82290000 59.70150000
234 77.48540000 77.48540000 77.48540000 54.23790000 57.06330000 62.14130000
235 78.90860000 78.90860000 78.90860000 56.45290000 59.39370000 64.67910000
236 80.35710000 80.35710000 80.35710000 58.75720000 61.81800000 67.31910000
237 81.83180000 81.83180000 81.83180000 61.15470000 64.34040000 70.06600000
238 83.33330000 83.33330000 83.33330000 63.64970000 66.96530000 72.92450000
239 84.86240000 84.86240000 84.86240000 66.24640000 69.69730000 75.89960000
240 86.41980000 86.41980000 86.41980000 68.94950000 72.54120000 78.99660000
241 88.00620000 88.00620000 88.00620000 71.76390000 75.50220000 82.22110000
242 89.62260000 89.62260000 89.62260000 74.69460000 78.58560000 85.57890000
243 91.26980000 91.26980000 91.26980000 77.74710000 81.79710000 89.07610000
244 92.94870000 92.94870000 92.94870000 80.92700000 85.14260000 92.71940000
245 94.66020000 94.66020000 94.66020000 84.24030000 88.62850000 96.51550000
246 96.40520000 96.40520000 96.40520000 87.69330000 92.26150000 100.4720000
247 0.000000000 20.05800000 77.42050000 11.26210000 6.120460000 56.66890000
248 0.000000000 24.80130000 100.0000000 19.68480000 10.45070000 99.45570000
249 0.000000000 33.04620000 100.0000000 20.44540000 13.02240000 99.74550000
250 33.23480000 34.71100000 100.0000000 25.74580000 16.28700000 100.0560000
251 0.000000000 19.63500000 42.41970000 3.371920000 2.890540000 15.23290000
252 0.000000000 30.00680000 76.09260000 11.63420000 8.571870000 54.85520000
253 0.000000000 69.03380000 76.62350000 18.69150000 31.95990000 58.32050000
254 0.000000000 49.00830000 63.91290000 10.89790000 15.88420000 38.50970000
255 0.000000000 54.25670000 100.0000000 23.65570000 23.87710000 100.9680000
256 41.66580000 62.87190000 100.0000000 33.91630000 34.47160000 102.0670000
257 0.000000000 26.78230000 30.17520000 2.373400000 4.000920000 7.499220000
258 0.000000000 31.76760000 40.49930000 4.068190000 6.069130000 14.14700000
259 0.000000000 44.12370000 40.20630000 5.606240000 11.39130000 14.53330000
260 22.73250000 93.17430000 100.0000000 36.92080000 62.37100000 105.2800000
261 22.31670000 100.0000000 100.0000000 39.50410000 71.35870000 106.2940000
262 0.000000000 0.000000000 94.66020000 16.68070000 6.672000000 87.85700000
263 0.000000000 0.000000000 100.0000000 18.82030000 7.527820000 99.12640000
264 100.0000000 26.12530000 100.0000000 77.46160000 40.54160000 102.1970000
265 52.46910000 52.46910000 52.46910000 23.01130000 24.21000000 26.36440000
266 53.48260000 53.48260000 53.48260000 24.00010000 25.25030000 27.49730000
267 38.93650000 65.99410000 34.88420000 16.54070000 29.62900000 12.95270000
268 61.51970000 100.0000000 33.73890000 40.09230000 73.63870000 17.08330000
269 83.21900000 100.0000000 35.15080000 58.94650000 83.34150000 18.81620000
270 30.17060000 36.59300000 0.000000000 6.168300000 9.007540000 0.968309000
271 50.74840000 49.45080000 0.000000000 16.91870000 20.02290000 2.109900000
272 68.04880000 73.43480000 0.000000000 34.14280000 44.56480000 4.742590000
273 81.39500000 100.0000000 0.000000000 55.22670000 81.64180000 8.785520000
274 86.59260000 100.0000000 83.40000000 73.20070000 89.44950000 75.53530000
275 69.66530000 57.28650000 47.65010000 35.18070000 33.32830000 22.71270000
276 100.0000000 64.74640000 49.89620000 68.88420000 55.48490000 26.90550000
277 47.61740000 23.80130000 0.000000000 12.06950000 8.486010000 0.829187000
278 54.66390000 32.36350000 0.000000000 16.83170000 13.12650000 1.307010000
279 62.50080000 34.88320000 47.49180000 26.00510000 18.23050000 20.93360000
280 81.12660000 34.08490000 100.0000000 56.96770000 32.18200000 101.4950000
281 27.92200000 0.000000000 40.45780000 6.059640000 2.827000000 13.71220000
282 36.11400000 0.000000000 56.55730000 11.51440000 5.315590000 28.59230000
283 57.98760000 0.000000000 75.72770000 27.60880000 13.05480000 54.59790000
284 88.34440000 0.000000000 79.88550000 55.39880000 27.23660000 62.54870000
285 30.97860000 15.39940000 29.41460000 5.961460000 3.794790000 7.041880000
286 58.47540000 34.86200000 27.52370000 20.65160000 15.75880000 7.333850000
287 74.14470000 73.97910000 50.66240000 43.65150000 49.42120000 27.26110000
288 74.64730000 100.0000000 53.86140000 53.69770000 80.29530000 33.90980000
289 76.36760000 62.81220000 36.12860000 40.55350000 39.79820000 14.59840000
290 100.0000000 76.81310000 42.40250000 70.91080000 65.99630000 21.68060000
291 100.0000000 61.45650000 33.40620000 65.72000000 51.91540000 14.01580000
292 100.0000000 80.72670000 68.38190000 77.41690000 72.17450000 50.08740000
293 100.0000000 87.59170000 89.27660000 86.20120000 82.47910000 85.22420000
294 100.0000000 100.0000000 93.21760000 92.35220000 98.91960000 94.70850000
295 46.73050000 31.22270000 100.0000000 31.07760000 17.95810000 100.1800000
296 66.01730000 42.28060000 100.0000000 44.75380000 28.90600000 101.2750000
297 100.0000000 43.24650000 100.0000000 79.42870000 47.19270000 102.9470000
298 100.0000000 57.18940000 100.0000000 81.92120000 55.62050000 103.8960000
299 100.0000000 78.16830000 100.0000000 87.28620000 73.76030000 105.9400000
300 27.57640000 53.54660000 0.000000000 8.090300000 17.63180000 1.948290000
301 45.25830000 63.47420000 0.000000000 16.91520000 28.28770000 3.073520000
302 48.57160000 100.0000000 0.000000000 30.33630000 68.80790000 7.619570000
