dispcalGUI/ti1/d3-e4-s13-g37-m4-b4-f0.ti1
CTI1   

ORIGINATOR "Argyll targen"
KEYWORD "MULTI_DIM_BCC_STEPS"
MULTI_DIM_BCC_STEPS "4"
CREATED "Sat Oct 19 14:08:23 2013"
KEYWORD "COMP_GREY_STEPS"
COMP_GREY_STEPS "37"
KEYWORD "BLACK_COLOR_PATCHES"
BLACK_COLOR_PATCHES "4"
KEYWORD "APPROX_WHITE_POINT"
APPROX_WHITE_POINT "95.106486 100.000000 108.844025"
DESCRIPTOR "Argyll Calibration Target chart information 1"
KEYWORD "MULTI_DIM_STEPS"
MULTI_DIM_STEPS "4"
KEYWORD "WHITE_COLOR_PATCHES"
WHITE_COLOR_PATCHES "4"
KEYWORD "SINGLE_DIM_STEPS"
SINGLE_DIM_STEPS "13"
KEYWORD "COLOR_REP"
COLOR_REP "RGB"

NUMBER_OF_FIELDS 7
BEGIN_DATA_FORMAT
SAMPLE_ID RGB_R RGB_G RGB_B XYZ_X XYZ_Y XYZ_Z
END_DATA_FORMAT

NUMBER_OF_SETS 154
BEGIN_DATA
1 100.000 100.000 100.000 95.1065 100.000 108.844
2 16.6667 50.0000 83.3333 21.3724 21.3828 65.8730
3 16.6667 83.3333 83.3333 37.2280 53.0897 71.1583
4 16.6667 16.6667 50.0000 6.62830 4.70235 21.4719
5 16.6667 16.6667 83.3333 14.6316 7.90317 63.6261
6 100.000 33.3333 100.000 62.9175 35.6311 98.1143
7 33.3333 0.00000 66.6667 11.8929 5.78548 39.0116
8 33.3333 33.3333 66.6667 15.1091 12.2171 40.0837
9 50.0000 50.0000 83.3333 29.1460 25.3909 66.2373
10 50.0000 83.3333 83.3333 45.0016 57.0978 71.5225
11 0.00000 0.00000 0.00000 1.00000 1.00000 1.00000
12 33.3333 0.00000 0.00000 4.70908 2.91242 1.17380
13 41.6667 0.00000 0.00000 6.91425 4.04941 1.27713
14 50.0000 0.00000 0.00000 9.73934 5.50603 1.40951
15 58.3333 0.00000 0.00000 13.2261 7.30384 1.57290
16 66.6667 0.00000 0.00000 17.4128 9.46250 1.76908
17 75.0000 0.00000 0.00000 22.3346 12.0002 1.99970
18 83.3333 0.00000 0.00000 28.0245 14.9339 2.26632
19 5.55556 5.55556 5.55556 1.41919 1.44098 1.48038
20 0.00000 0.00000 0.00000 1.00000 1.00000 1.00000
21 11.1111 11.1111 11.1111 2.11371 2.17162 2.27628
22 0.00000 16.6667 0.00000 1.83742 2.67460 1.27914
23 0.00000 25.0000 0.00000 2.80128 4.60205 1.60043
24 0.00000 33.3333 0.00000 4.21627 7.43164 2.07210
25 0.00000 41.6667 0.00000 6.12844 11.2555 2.70950
26 0.00000 50.0000 0.00000 8.57817 16.1542 3.52608
27 0.00000 58.3333 0.00000 11.6017 22.2004 4.53393
28 0.00000 66.6667 0.00000 15.2321 29.4602 5.74408
29 0.00000 75.0000 0.00000 19.5000 37.9948 7.16671
30 0.00000 83.3333 0.00000 24.4338 47.8611 8.81135
31 0.00000 91.6667 0.00000 30.0605 59.1128 10.6869
32 0.00000 100.000 0.00000 36.4052 71.8005 12.8018
33 33.3333 100.000 66.6667 47.2981 76.5860 50.8134
34 100.000 100.000 66.6667 84.4192 95.7257 52.5528
35 0.00000 0.00000 16.6667 1.42269 1.16905 3.22637
36 0.00000 0.00000 41.6667 3.58863 2.03529 14.6346
37 0.00000 0.00000 50.0000 4.82515 2.52982 21.1475
38 0.00000 0.00000 58.3333 6.35130 3.14018 29.1859
39 0.00000 0.00000 66.6667 8.18379 3.87306 38.8378
40 0.00000 0.00000 75.0000 10.3380 4.73463 50.1844
41 8.33333 0.00000 0.00000 1.31146 1.16059 1.01459
42 66.6667 0.00000 100.000 35.2839 16.6098 95.8980
43 100.000 0.00000 100.000 59.7013 29.1995 97.0422
44 100.000 66.6667 100.000 73.9334 57.6597 101.786
45 2.77778 2.77778 2.77778 1.20233 1.21285 1.23186
46 0.00000 0.00000 8.33333 1.13632 1.05452 1.71803
47 0.00000 8.33333 0.00000 1.27008 1.54008 1.09003
48 8.33333 8.33333 8.33333 1.71786 1.75519 1.82265
49 13.8889 13.8889 13.8889 2.61414 2.69807 2.84977
50 16.6667 16.6667 16.6667 3.22584 3.34159 3.55077
51 19.4444 19.4444 19.4444 3.95495 4.10861 4.38632
52 22.2222 22.2222 22.2222 4.80716 5.00513 5.36292
53 25.0000 25.0000 25.0000 5.78777 6.03673 6.48668
54 27.7778 27.7778 27.7778 6.90179 7.20869 7.76333
55 30.5556 30.5556 30.5556 8.15397 8.52597 9.19829
56 33.3333 33.3333 33.3333 9.54879 9.99333 10.7967
57 36.1111 36.1111 36.1111 11.0906 11.6153 12.5636
58 38.8889 38.8889 38.8889 12.7834 13.3962 14.5036
59 41.6667 41.6667 41.6667 14.6313 15.3402 16.6212
60 44.4444 44.4444 44.4444 16.6381 17.4512 18.9209
61 47.2222 47.2222 47.2222 18.8073 19.7333 21.4068
62 50.0000 50.0000 50.0000 21.1427 22.1901 24.0831
63 66.6667 66.6667 100.000 49.5160 45.0701 100.642
64 100.000 100.000 100.000 95.1065 100.000 108.844
65 58.3333 58.3333 58.3333 29.1791 30.6444 33.2927
66 61.1111 61.1111 61.1111 32.2123 33.8353 36.7686
67 63.8889 63.8889 63.8889 35.4278 37.2181 40.4535
68 66.6667 66.6667 66.6667 38.8287 40.7958 44.3509
69 69.4444 69.4444 69.4444 42.4179 44.5716 48.4641
70 72.2222 72.2222 72.2222 46.1983 48.5486 52.7963
71 75.0000 75.0000 75.0000 50.1727 52.7296 57.3508
72 77.7778 77.7778 77.7778 54.3438 57.1176 62.1308
73 80.5556 80.5556 80.5556 58.7142 61.7154 67.1393
74 83.3333 83.3333 83.3333 63.2868 66.5257 72.3793
75 86.1111 86.1111 86.1111 68.0640 71.5513 77.8539
76 88.8889 88.8889 88.8889 73.0483 76.7948 83.5658
77 91.6667 91.6667 91.6667 78.2423 82.2589 89.5180
78 94.4444 94.4444 94.4444 83.6484 87.9461 95.7133
79 0.00000 66.6667 33.3333 16.8555 30.1095 14.2949
80 0.00000 100.000 66.6667 43.5890 74.6736 50.6396
81 66.6667 33.3333 0.00000 20.6291 15.8941 2.84118
82 100.000 33.3333 0.00000 45.0464 28.4838 3.98533
83 100.000 66.6667 0.00000 56.0623 50.5124 7.65731
84 66.6667 66.6667 0.00000 31.6449 37.9227 6.51315
85 33.3333 66.6667 0.00000 18.9412 31.3726 5.91788
86 33.3333 100.000 0.00000 40.1143 73.7129 12.9756
87 66.6667 100.000 0.00000 52.8180 80.2630 13.5709
88 100.000 100.000 0.00000 77.2354 92.8527 14.7151
89 33.3333 0.00000 33.3333 6.33252 3.56169 9.72464
90 66.6667 0.00000 33.3333 19.0363 10.1118 10.3199
91 83.3333 16.6667 50.0000 32.6871 18.1383 22.6929
92 50.0000 16.6667 16.6667 10.9994 7.34968 3.91503
93 83.3333 16.6667 16.6667 29.2846 16.7776 4.77184
94 83.3333 50.0000 16.6667 36.0254 30.2572 7.01877
95 33.3333 33.3333 0.00000 7.92535 9.34406 2.24590
96 33.3333 66.6667 33.3333 20.5646 32.0219 14.4687
97 66.6667 66.6667 33.3333 33.2684 38.5720 15.0640
98 100.000 66.6667 33.3333 57.6857 51.1617 16.2081
99 0.00000 100.000 33.3333 38.0287 72.4498 21.3527
100 33.3333 100.000 33.3333 41.7377 74.3622 21.5265
101 66.6667 100.000 33.3333 54.4415 80.9123 22.1217
102 100.000 100.000 33.3333 78.8588 93.5020 23.2659
103 0.00000 0.00000 0.00000 1.00000 1.00000 1.00000
104 100.000 0.00000 33.3333 43.4536 22.7014 11.4641
105 100.000 0.00000 66.6667 49.0140 24.9252 40.7510
106 97.2222 97.2222 97.2222 89.2690 93.8590 102.154
107 100.000 100.000 100.000 95.1065 100.000 108.844
108 66.6667 33.3333 33.3333 22.2525 16.5434 11.3920
109 83.3333 50.0000 50.0000 39.4278 31.6180 24.9399
110 16.6667 50.0000 16.6667 9.96660 16.8212 5.79771
111 16.6667 50.0000 50.0000 13.3691 18.1820 23.7188
112 33.3333 66.6667 66.6667 26.1250 34.2457 43.7556
113 0.00000 0.00000 0.00000 1.00000 1.00000 1.00000
114 91.6667 0.00000 0.00000 34.5133 18.2796 2.57037
115 100.000 0.00000 0.00000 41.8302 22.0522 2.91323
116 100.000 33.3333 33.3333 46.6699 29.1331 12.5362
117 100.000 66.6667 66.6667 63.2461 53.3855 45.4951
118 0.00000 0.00000 83.3333 12.8285 5.73063 63.3017
119 0.00000 0.00000 91.6667 15.6685 6.86649 78.2607
120 0.00000 0.00000 100.000 18.8711 8.14731 95.1290
121 0.00000 66.6667 100.000 33.1032 36.6075 99.8730
122 100.000 100.000 100.000 95.1065 100.000 108.844
123 33.3333 0.00000 100.000 22.5802 10.0597 95.3028
124 33.3333 33.3333 100.000 25.7965 16.4914 96.3749
125 33.3333 66.6667 100.000 36.8123 38.5200 100.047
126 0.00000 33.3333 66.6667 11.4001 10.3047 39.9098
127 0.00000 66.6667 66.6667 22.4159 32.3333 43.5818
128 0.00000 100.000 100.000 54.2763 78.9478 106.931
129 33.3333 100.000 100.000 57.9854 80.8602 107.105
130 66.6667 100.000 100.000 70.6891 87.4103 107.700
131 66.6667 0.00000 66.6667 24.5966 12.3356 39.6068
132 66.6667 33.3333 66.6667 27.8129 18.7672 40.6789
133 100.000 33.3333 66.6667 52.2302 31.3569 41.8231
134 16.6667 83.3333 16.6667 25.8223 48.5281 11.0830
135 50.0000 83.3333 16.6667 33.5959 52.5362 11.4472
136 50.0000 50.0000 16.6667 17.7402 20.8293 6.16196
137 83.3333 83.3333 16.6667 51.8810 61.9641 12.3040
138 83.3333 83.3333 50.0000 55.2835 63.3249 30.2251
139 16.6667 0.00000 0.00000 1.96573 1.49793 1.04525
140 25.0000 0.00000 0.00000 3.07728 2.07105 1.09734
141 66.6667 33.3333 100.000 38.5002 23.0415 96.9701
142 0.00000 0.00000 25.0000 1.90921 1.36363 5.78891
143 0.00000 0.00000 33.3333 2.62344 1.64927 9.55084
144 16.6667 83.3333 50.0000 29.2247 49.8889 29.0041
145 50.0000 83.3333 50.0000 36.9983 53.8970 29.3683
146 66.6667 100.000 66.6667 60.0018 83.1361 51.4087
147 50.0000 16.6667 50.0000 14.4019 8.71045 21.8361
148 50.0000 16.6667 83.3333 22.4052 11.9113 63.9903
149 83.3333 16.6667 83.3333 40.6904 21.3392 64.8471
150 83.3333 50.0000 83.3333 47.4311 34.8188 67.0941
151 52.7778 52.7778 52.7778 23.6475 24.8252 26.9536
152 55.5556 55.5556 55.5556 26.3253 27.6422 30.0222
153 0.00000 33.3333 33.3333 5.83971 8.08091 10.6229
154 0.00000 33.3333 100.000 22.0874 14.5790 96.2011
END_DATA
CTI1   

ORIGINATOR "Argyll targen"
KEYWORD "DENSITY_EXTREME_VALUES"
DENSITY_EXTREME_VALUES "8"
CREATED "October 19, 2013"
DESCRIPTOR "Argyll Calibration Target chart information 1"

KEYWORD "INDEX"
NUMBER_OF_FIELDS 7
BEGIN_DATA_FORMAT
INDEX RGB_R RGB_G RGB_B XYZ_X XYZ_Y XYZ_Z
END_DATA_FORMAT

NUMBER_OF_SETS 8
BEGIN_DATA
0 100.000 100.000 100.000 95.1065 100.000 108.844
1 0.00000 47.3607 100.000 25.6130 21.6292 97.3763
2 100.000 0.00000 79.3514 52.4258 26.2898 58.7215
3 0.00000 0.00000 58.9971 6.48583 3.19399 29.8944
4 100.000 66.6593 0.00000 56.0588 50.5054 7.65614
5 0.00000 35.6011 0.00000 4.68562 8.37021 2.22855
6 84.4444 0.00000 0.00000 28.8428 15.3558 2.30466
7 0.00000 0.00000 0.00000 1.00000 1.00000 1.00000
END_DATA
CTI1   

ORIGINATOR "Argyll targen"
CREATED "October 19, 2013"
DESCRIPTOR "Argyll Calibration Target chart information 1"
KEYWORD "DEVICE_COMBINATION_VALUES"
DEVICE_COMBINATION_VALUES "9"

KEYWORD "INDEX"
NUMBER_OF_FIELDS 7
BEGIN_DATA_FORMAT
INDEX RGB_R RGB_G RGB_B XYZ_X XYZ_Y XYZ_Z
END_DATA_FORMAT

NUMBER_OF_SETS 9
BEGIN_DATA
0 100.000 100.000 100.000 95.1065 100.000 108.844
1 0.00000 100.000 100.000 54.2763 78.9478 106.931
2 100.000 0.00000 100.000 59.7013 29.1995 97.0422
3 0.00000 0.00000 100.000 18.8711 8.14731 95.1290
4 100.000 100.000 0.00000 77.2354 92.8527 14.7151
5 0.00000 100.000 0.00000 36.4052 71.8005 12.8018
6 100.000 0.00000 0.00000 41.8302 22.0522 2.91323
7 0.00000 0.00000 0.00000 1.00000 1.00000 1.00000
8 50.0000 50.0000 50.0000 21.1427 22.1901 24.0831
END_DATA