dispcalGUI/ti1/d3-e4-s0-g52-m4-f500-crossover.ti1
CTI1   

ORIGINATOR "Argyll targen"
CREATED "Sun Oct 19 08:39:00 2008"
KEYWORD "COMP_GREY_STEPS"
COMP_GREY_STEPS "52"
KEYWORD "ERROR_OPTIMISED_PATCHES"
ERROR_OPTIMISED_PATCHES "385"
KEYWORD "APPROX_WHITE_POINT"
APPROX_WHITE_POINT "95.106486 100.000000 108.844025"
DESCRIPTOR "Argyll Calibration Target chart information 1"
KEYWORD "MULTI_DIM_STEPS"
MULTI_DIM_STEPS "4"
KEYWORD "WHITE_COLOR_PATCHES"
WHITE_COLOR_PATCHES "4"
KEYWORD "COLOR_REP"
COLOR_REP "RGB"

NUMBER_OF_FIELDS 7
BEGIN_DATA_FORMAT
SAMPLE_ID RGB_R RGB_G RGB_B XYZ_X XYZ_Y XYZ_Z
END_DATA_FORMAT

NUMBER_OF_SETS 512
BEGIN_DATA
1 100.000 100.000 100.000 95.1060 100.000 108.840
2 100.000 100.000 100.000 95.1060 100.000 108.840
3 100.000 100.000 100.000 95.1060 100.000 108.840
4 100.000 100.000 100.000 95.1060 100.000 108.840
5 0.00000 0.00000 0.00000 1.00000 1.00000 1.00000
6 1.96080 1.96080 1.96080 1.14280 1.15020 1.16370
7 3.92160 3.92160 3.92160 1.28560 1.30050 1.32730
8 5.88240 5.88240 5.88240 1.44950 1.47290 1.51520
9 7.84310 7.84310 7.84310 1.65830 1.69250 1.75440
10 9.80390 9.80390 9.80390 1.91480 1.96240 2.04840
11 11.7650 11.7650 11.7650 2.22180 2.28530 2.40010
12 13.7250 13.7250 13.7250 2.58170 2.66390 2.81260
13 15.6860 15.6860 15.6860 2.99680 3.10070 3.28830
14 17.6470 17.6470 17.6470 3.46950 3.59790 3.83000
15 19.6080 19.6080 19.6080 4.00160 4.15770 4.43980
16 21.5690 21.5690 21.5690 4.59530 4.78220 5.12010
17 23.5290 23.5290 23.5290 5.25230 5.47340 5.87310
18 25.4900 25.4900 25.4900 5.97450 6.23320 6.70070
19 27.4510 27.4510 27.4510 6.76370 7.06340 7.60500
20 29.4120 29.4120 29.4120 7.62130 7.96560 8.58790
21 31.3730 31.3730 31.3730 8.54920 8.94180 9.65120
22 33.3330 33.3330 33.3330 9.54880 9.99330 10.7970
23 35.2940 35.2940 35.2940 10.6220 11.1220 12.0260
24 37.2550 37.2550 37.2550 11.7690 12.3290 13.3410
25 39.2160 39.2160 39.2160 12.9930 13.6160 14.7430
26 41.1760 41.1760 41.1760 14.2940 14.9850 16.2340
27 43.1370 43.1370 43.1370 15.6740 16.4370 17.8160
28 45.0980 45.0980 45.0980 17.1340 17.9730 19.4890
29 47.0590 47.0590 47.0590 18.6750 19.5940 21.2550
30 49.0200 49.0200 49.0200 20.2990 21.3030 23.1170
31 50.9800 50.9800 50.9800 22.0070 23.1000 25.0740
32 52.9410 52.9410 52.9410 23.8000 24.9860 27.1290
33 54.9020 54.9020 54.9020 25.6790 26.9630 29.2820
34 56.8630 56.8630 56.8630 27.6460 29.0320 31.5360
35 58.8240 58.8240 58.8240 29.7010 31.1940 33.8910
36 60.7840 60.7840 60.7840 31.8460 33.4500 36.3490
37 62.7450 62.7450 62.7450 34.0810 35.8020 38.9110
38 64.7060 64.7060 64.7060 36.4090 38.2500 41.5780
39 66.6670 66.6670 66.6670 38.8290 40.7960 44.3510
40 68.6270 68.6270 68.6270 41.3430 43.4400 47.2320
41 70.5880 70.5880 70.5880 43.9510 46.1850 50.2210
42 72.5490 72.5490 72.5490 46.6560 49.0300 53.3210
43 74.5100 74.5100 74.5100 49.4570 51.9770 56.5310
44 76.4710 76.4710 76.4710 52.3560 55.0270 59.8530
45 78.4310 78.4310 78.4310 55.3540 58.1800 63.2890
46 80.3920 80.3920 80.3920 58.4520 61.4390 66.8380
47 82.3530 82.3530 82.3530 61.6500 64.8030 70.5030
48 84.3140 84.3140 84.3140 64.9490 68.2750 74.2850
49 86.2750 86.2750 86.2750 68.3510 71.8540 78.1830
50 88.2350 88.2350 88.2350 71.8570 75.5410 82.2000
51 90.1960 90.1960 90.1960 75.4660 79.3380 86.3370
52 92.1570 92.1570 92.1570 79.1810 83.2460 90.5940
53 94.1180 94.1180 94.1180 83.0010 87.2650 94.9720
54 96.0780 96.0780 96.0780 86.9290 91.3970 99.4720
55 98.0390 98.0390 98.0390 90.9630 95.6410 104.100
56 33.3330 0.00000 0.00000 4.70910 2.91240 1.17380
57 66.6670 0.00000 0.00000 17.4130 9.46250 1.76910
58 100.000 0.00000 0.00000 41.8300 22.0520 2.91320
59 0.00000 33.3330 0.00000 4.21630 7.43160 2.07210
60 33.3330 33.3330 0.00000 7.92540 9.34410 2.24590
61 66.6670 33.3330 0.00000 20.6290 15.8940 2.84120
62 100.000 33.3330 0.00000 45.0460 28.4840 3.98530
63 0.00000 66.6670 0.00000 15.2320 29.4600 5.74410
64 33.3330 66.6670 0.00000 18.9410 31.3730 5.91790
65 66.6670 66.6670 0.00000 31.6450 37.9230 6.51320
66 100.000 66.6670 0.00000 56.0620 50.5120 7.65730
67 0.00000 100.000 0.00000 36.4050 71.8010 12.8020
68 33.3330 100.000 0.00000 40.1140 73.7130 12.9760
69 66.6670 100.000 0.00000 52.8180 80.2630 13.5710
70 100.000 100.000 0.00000 77.2350 92.8530 14.7150
71 0.00000 0.00000 33.3330 2.62340 1.64930 9.55080
72 33.3330 0.00000 33.3330 6.33250 3.56170 9.72460
73 66.6670 0.00000 33.3330 19.0360 10.1120 10.3200
74 100.000 0.00000 33.3330 43.4540 22.7010 11.4640
75 0.00000 33.3330 33.3330 5.83970 8.08090 10.6230
76 66.6670 33.3330 33.3330 22.2530 16.5430 11.3920
77 100.000 33.3330 33.3330 46.6700 29.1330 12.5360
78 0.00000 66.6670 33.3330 16.8560 30.1100 14.2950
79 33.3330 66.6670 33.3330 20.5650 32.0220 14.4690
80 66.6670 66.6670 33.3330 33.2680 38.5720 15.0640
81 100.000 66.6670 33.3330 57.6860 51.1620 16.2080
82 0.00000 100.000 33.3330 38.0290 72.4500 21.3530
83 33.3330 100.000 33.3330 41.7380 74.3620 21.5260
84 66.6670 100.000 33.3330 54.4410 80.9120 22.1220
85 100.000 100.000 33.3330 78.8590 93.5020 23.2660
86 0.00000 0.00000 66.6670 8.18380 3.87310 38.8380
87 33.3330 0.00000 66.6670 11.8930 5.78550 39.0120
88 66.6670 0.00000 66.6670 24.5970 12.3360 39.6070
89 100.000 0.00000 66.6670 49.0140 24.9250 40.7510
90 0.00000 33.3330 66.6670 11.4000 10.3050 39.9100
91 33.3330 33.3330 66.6670 15.1090 12.2170 40.0840
92 66.6670 33.3330 66.6670 27.8130 18.7670 40.6790
93 100.000 33.3330 66.6670 52.2300 31.3570 41.8230
94 0.00000 66.6670 66.6670 22.4160 32.3330 43.5820
95 33.3330 66.6670 66.6670 26.1250 34.2460 43.7560
96 100.000 66.6670 66.6670 63.2460 53.3850 45.4950
97 0.00000 100.000 66.6670 43.5890 74.6740 50.6400
98 33.3330 100.000 66.6670 47.2980 76.5860 50.8130
99 66.6670 100.000 66.6670 60.0020 83.1360 51.4090
100 100.000 100.000 66.6670 84.4190 95.7260 52.5530
101 0.00000 0.00000 100.000 18.8710 8.14730 95.1290
102 33.3330 0.00000 100.000 22.5800 10.0600 95.3030
103 66.6670 0.00000 100.000 35.2840 16.6100 95.8980
104 100.000 0.00000 100.000 59.7010 29.1990 97.0420
105 0.00000 33.3330 100.000 22.0870 14.5790 96.2010
106 33.3330 33.3330 100.000 25.7960 16.4910 96.3750
107 66.6670 33.3330 100.000 38.5000 23.0410 96.9700
108 100.000 33.3330 100.000 62.9180 35.6310 98.1140
109 0.00000 66.6670 100.000 33.1030 36.6080 99.8730
110 33.3330 66.6670 100.000 36.8120 38.5200 100.050
111 66.6670 66.6670 100.000 49.5160 45.0700 100.640
112 100.000 66.6670 100.000 73.9330 57.6600 101.790
113 0.00000 100.000 100.000 54.2760 78.9480 106.930
114 33.3330 100.000 100.000 57.9850 80.8600 107.100
115 66.6670 100.000 100.000 70.6890 87.4100 107.700
116 82.4110 16.6070 82.3580 39.7070 20.8600 63.1840
117 18.4810 82.2280 81.4600 36.1450 51.5700 67.8290
118 15.7620 18.7090 83.4630 14.7780 8.26680 63.9060
119 81.9310 18.5940 51.4330 32.1020 18.0840 23.9790
120 84.9270 82.9420 18.6020 52.9070 62.1160 12.7720
121 17.0620 50.9140 83.9670 21.9210 22.0910 67.0480
122 49.4060 17.0210 84.0390 22.4420 11.9520 65.1860
123 19.2550 84.9380 49.6360 30.4870 52.0730 29.0450
124 48.7260 82.4990 16.4130 32.5860 51.2380 11.1890
125 81.8180 50.1650 17.0240 35.0030 29.8090 7.07280
126 15.4190 81.5860 17.1930 24.6300 46.2910 10.8420
127 82.7360 17.8860 18.0310 29.0300 16.8090 5.13300
128 51.3870 50.0290 16.1700 18.2600 21.1140 6.07220
129 49.7430 83.8350 81.3550 44.6010 57.4360 68.3460
130 83.4970 47.4030 80.2930 45.7790 32.8550 61.8290
131 17.2440 48.7420 50.4600 13.1010 17.4330 23.9890
132 52.6750 16.3390 48.9930 15.2530 9.12490 21.0090
133 78.9460 84.9490 46.7750 52.7150 63.5970 27.7290
134 51.8790 48.1550 82.2680 28.9450 24.4500 64.2970
135 50.3430 85.4830 47.3920 38.0950 56.5650 27.6370
136 84.8180 50.9570 49.2730 40.7230 32.7700 24.4690
137 15.8960 18.2060 50.0080 6.69740 4.95510 21.5240
138 19.1540 51.3380 17.7230 10.7430 17.8770 6.22260
139 54.8890 18.8520 16.6750 13.1750 8.78580 4.07970
140 55.7480 98.8470 84.4190 58.7330 80.5370 77.1580
141 100.000 80.3380 56.2540 68.3540 67.1870 36.1390
142 79.9130 99.5050 59.5140 66.1940 85.9230 43.2750
143 97.4400 53.6590 81.6290 59.6160 43.0260 65.2200
144 16.2650 41.6730 2.17910 7.08450 11.7470 2.91210
145 19.6540 1.68550 41.1710 4.87810 2.77620 14.3700
146 2.49300 18.4460 40.6980 4.54950 4.04110 14.3120
147 84.0000 58.2930 94.7700 54.9170 42.6800 89.1330
148 67.6840 47.0720 25.7890 25.5940 23.4440 9.10500
149 59.9540 83.9720 96.2650 54.2150 61.9240 95.8830
150 86.7770 40.2880 1.16430 35.3990 25.8230 4.06420
151 49.8160 65.3810 22.5500 24.0450 33.0260 9.86720
152 53.2340 22.5170 62.7320 18.7600 11.6120 35.0330
153 2.65330 49.5300 74.9020 17.8200 19.6150 52.5200
154 42.8680 84.2650 0.00000 31.3100 52.2880 9.30380
155 17.3020 75.4630 99.2550 38.3600 46.0680 99.8420
156 40.4410 16.5750 3.23570 7.42610 5.53860 1.77230
157 84.1050 57.9230 66.4990 46.1740 38.9580 43.3990
158 56.9820 80.9060 67.0230 41.8090 53.7420 47.1410
159 41.7100 0.00000 16.1020 7.32450 4.21500 3.37030
160 26.4280 67.1370 48.2850 21.3220 32.5220 24.6130
161 40.2430 52.4540 66.1780 21.9700 23.4720 41.2860
162 97.0090 15.1330 39.2470 42.0930 22.9700 15.0360
163 67.3880 43.0810 49.2020 27.0090 22.1530 23.0820
164 0.00000 84.3730 9.72530 25.2690 49.2570 9.93630
165 75.3100 33.0900 18.8620 26.2300 18.6490 5.85760
166 23.9950 97.1010 52.2250 40.2360 69.8910 34.2690
167 3.90180 82.9620 93.8760 39.8040 53.6480 90.2830
168 66.8840 8.60780 80.5890 28.7850 14.4770 59.6500
169 4.44680 41.2520 14.8650 6.50680 11.2510 4.49670
170 51.0200 0.00000 75.7920 19.6900 9.53070 51.7820
171 90.6750 0.00000 51.0210 37.6940 19.4580 23.5810
172 10.0660 68.7880 81.5810 27.9460 36.2330 65.4970
173 67.6950 51.3870 73.3730 34.9120 29.3900 51.3080
174 74.5900 81.1330 2.07020 44.1690 56.0020 9.49340
175 80.8010 2.34860 92.0390 41.0810 20.0490 80.1760
176 74.0930 18.4880 95.1070 38.7200 20.1060 86.2990
177 18.6320 37.6110 76.6640 16.1250 13.7980 54.0940
178 48.5200 67.5080 75.5800 33.3250 38.2860 56.3020
179 31.5580 18.2080 74.0100 14.3640 8.30250 49.2290
180 98.6020 49.7460 9.03660 48.1930 36.4390 6.16020
181 30.6110 27.8310 50.6520 10.2780 8.63700 22.6090
182 52.1030 36.4720 20.1830 15.0330 13.9180 5.90980
183 81.5560 24.1570 35.4970 30.2780 18.3810 12.5070
184 74.7490 97.9630 19.1910 56.5090 79.7000 16.1390
185 8.48880 99.7930 16.2600 36.9630 71.7940 14.8910
186 74.1290 15.7670 2.98020 22.5840 13.2490 2.44380
187 15.7080 73.8390 3.85570 19.7880 37.1960 7.27700
188 25.2590 51.7970 33.0670 12.8970 19.0900 12.2370
189 13.8950 91.3290 31.4380 31.9590 59.5660 18.2220
190 14.1680 58.2070 67.3400 19.6220 25.4110 43.2420
191 65.0250 74.7430 49.0150 38.5540 47.1860 27.1470
192 50.3460 97.2380 8.47580 43.2320 72.0630 13.2250
193 41.6260 17.9950 37.3850 9.92500 6.79260 12.4480
194 66.6290 73.2230 16.1430 35.3270 44.6770 9.71550
195 8.05970 50.8230 98.2910 26.3320 23.7250 94.1420
196 0.22104 90.8880 48.5970 33.1090 59.4440 29.4490
197 35.7630 72.6350 13.9580 22.8220 37.7760 8.57020
198 17.3270 97.2080 92.0820 50.0540 73.8480 90.1710
199 33.1760 82.0640 58.0910 32.6140 50.2850 36.6480
200 80.7400 67.7410 8.86890 41.0640 43.5240 7.88120
201 17.0740 35.4270 41.1960 8.18410 9.82630 15.5730
202 26.4120 4.11380 80.7830 14.4580 6.83070 59.2410
203 82.3720 33.7690 58.9710 36.1120 23.3730 32.2010
204 49.2390 8.94010 97.8430 26.7610 12.7600 91.0730
205 82.7050 7.07570 66.4700 34.9200 17.9830 39.9070
206 100.000 85.5930 9.72540 66.8920 71.8930 12.1140
207 31.4290 41.9900 17.7330 9.97370 13.3090 5.38390
208 77.2490 4.15240 17.8290 24.3850 13.1710 4.62290
209 34.5000 61.1980 82.4580 28.3120 31.2290 65.9520
210 25.3370 16.9720 97.2480 20.7710 10.5380 89.7310
211 99.6370 24.6370 16.6210 43.6640 25.5470 5.69620
212 55.9340 36.5440 83.5560 27.9440 19.2920 65.4970
213 95.7030 7.63860 86.8050 51.1590 25.7160 71.1160
214 3.21520 15.3270 73.8020 10.8310 6.09690 48.6910
215 68.2090 19.3710 39.9010 21.7330 13.0550 14.6180
216 20.4720 91.7710 66.3020 38.6450 62.8290 48.1580
217 58.8690 80.8740 32.8190 36.9530 51.8690 17.1680
218 84.5550 58.8090 33.3090 41.3380 37.6280 14.4440
219 91.9870 64.8610 50.0720 52.0090 46.7320 27.2580
220 16.9320 8.14340 68.4720 9.87760 5.08340 41.2830
221 83.9310 91.1640 30.5660 58.5240 73.0980 19.0140
222 5.72920 69.3500 17.8410 17.2030 32.3550 8.70740
223 33.5160 80.5830 91.0570 40.9300 52.1670 84.5220
224 83.3220 29.9490 92.1450 45.4430 26.0330 81.3050
225 49.3040 73.0100 39.7980 29.2500 41.1500 19.5780
226 57.9960 45.0290 0.00000 19.1220 19.3230 3.58230
227 3.66450 50.1070 41.9240 11.3520 17.3330 17.3570
228 40.0540 1.59310 47.5450 9.91560 5.26480 19.3430
229 51.9410 100.000 58.1450 51.2100 78.8190 41.2340
230 67.4300 14.9420 58.2100 23.8480 13.1880 30.0740
231 39.9630 83.2890 31.6470 31.2800 51.1810 16.7430
232 35.1320 92.9750 15.7120 35.5230 63.2920 13.2000
233 96.7290 7.34860 15.7250 39.4650 21.1240 4.85550
234 99.4480 52.4770 58.2400 55.0670 40.7500 33.7810
235 58.9000 3.20320 49.5560 17.3280 9.11510 21.3770
236 8.61210 2.25620 82.7320 13.0260 5.94630 62.3310
237 2.01520 15.4020 91.1410 16.2700 8.27780 77.5070
238 96.3650 24.4240 84.8820 52.5850 28.7250 68.2730
239 51.6850 57.1300 98.0370 37.6010 32.9270 94.7950
240 39.8510 37.8370 81.9490 21.9590 16.7000 62.6450
241 92.0760 98.0810 17.3870 69.1880 86.3860 16.2830
242 39.2540 48.4310 3.35250 13.3340 17.8530 3.84660
243 96.5970 84.5200 28.0360 64.0750 69.2940 16.8460
244 16.1450 92.7790 3.54940 31.8270 61.2120 11.2570
245 92.8030 51.2140 25.9030 44.4180 35.1200 10.4120
246 2.78410 74.6280 49.4190 23.1130 39.1230 26.7480
247 16.4760 74.5780 30.2870 21.5490 38.5530 14.1620
248 96.3080 18.9970 59.6250 45.1640 24.7010 32.6850
249 51.0780 27.4780 96.7470 28.9020 16.6930 89.4650
250 16.7690 31.9590 93.0480 20.1000 13.4710 81.9510
251 50.6300 70.3770 6.76790 26.1330 37.7690 7.30960
252 83.7050 7.18710 37.1110 30.5440 16.3240 13.0370
253 2.76950 85.2650 25.1360 26.6820 50.7560 14.0690
254 91.4750 17.0360 98.3290 52.4250 26.8190 93.4430
255 52.5690 95.3330 42.2790 45.1740 70.6060 26.1070
256 28.3830 52.2360 95.7250 28.1880 25.5120 89.1350
257 93.5350 17.1980 3.84850 37.0200 20.8810 3.21970
258 4.52860 81.8760 75.6440 33.1840 49.9180 58.6480
259 69.1920 93.1130 50.0870 52.7740 71.9360 32.0950
260 47.5890 30.9610 5.54910 11.7000 10.6110 2.70840
261 37.2270 95.9840 83.2580 49.7260 72.6300 74.1450
262 69.3730 52.1900 93.5520 42.6060 33.0170 85.5190
263 96.7820 84.0870 73.2370 71.6730 71.9070 57.3860
264 3.55740 15.1680 27.1060 2.88760 2.90040 6.86260
265 15.1720 24.1330 2.41010 3.53100 4.79570 1.77420
266 71.4560 98.1800 82.6090 65.7040 83.4160 74.3060
267 74.4840 83.0630 97.5230 62.1520 65.1020 98.6510
268 66.9870 25.6460 24.6320 20.3650 13.6940 7.06000
269 15.0550 3.60250 28.4930 3.08390 2.08460 7.28310
270 3.70790 50.0610 58.2820 14.0560 18.3910 31.6700
271 77.4090 42.4350 32.3690 30.7590 24.0790 11.9000
272 80.2910 33.1260 74.7430 38.2980 23.8720 52.0310
273 34.9670 44.2550 56.3070 15.8770 16.7500 29.2210
274 56.4120 33.4270 52.2610 19.8060 15.0110 24.7840
275 31.6810 83.4560 74.9380 37.1740 53.4670 58.0870
276 16.1690 75.2750 65.4330 27.4590 41.5270 43.5640
277 96.2580 35.5270 51.2490 46.1450 29.2560 25.2300
278 48.2170 3.66770 33.3990 10.8110 6.01930 9.99770
279 59.0940 84.0830 3.29140 37.5350 55.3190 9.79960
280 16.7610 4.17810 95.7830 18.2950 8.21300 86.4340
281 95.7570 70.0120 15.6650 54.2450 51.9580 10.0150
282 4.53640 31.7210 83.0950 15.8010 11.5840 63.8760
283 82.6580 74.0140 29.1540 46.7300 51.0920 14.7360
284 83.3150 3.59990 4.25130 28.1690 15.1480 2.60880
285 3.56290 95.5710 82.4480 44.6030 69.5520 72.4750
286 3.67960 34.2910 49.8280 8.32300 9.39740 22.1400
287 51.3030 3.34230 4.42340 10.3930 5.97170 1.78700
288 82.0700 95.7140 3.50540 59.2110 78.5760 13.1630
289 96.5370 53.3360 96.2350 63.7830 44.4150 91.9400
290 4.68320 3.98750 48.0360 4.76680 2.69850 19.5220
291 46.6960 39.1450 95.8850 29.2810 20.3740 88.4080
292 5.75400 51.8950 3.83740 9.45680 17.5450 4.02650
293 96.3900 96.0270 50.9390 74.8280 86.5260 34.4980
294 50.4810 94.4540 93.6880 56.4360 73.9580 92.9610
295 99.8830 52.6210 42.8030 52.9280 40.0210 20.1660
296 58.7410 18.5000 1.98690 14.4550 9.43830 2.06430
297 17.8330 35.1540 57.4410 10.8560 10.8110 29.4970
298 35.8130 57.5550 19.0140 16.1350 24.0190 7.46770
299 51.5040 73.9000 59.7630 33.8610 43.8550 37.1280
300 72.0420 58.4680 49.5490 34.9080 33.8630 25.2220
301 15.7140 61.4320 4.23670 13.8070 25.2260 5.30960
302 60.2340 72.9710 85.6990 44.1170 47.5980 73.7730
303 59.7970 4.36790 18.4550 14.5390 8.10020 4.32700
304 26.6800 14.5680 39.4730 6.33120 4.46060 13.4930
305 18.5680 40.4330 28.8830 8.20120 11.7150 9.04420
306 3.22050 16.0890 57.7620 7.12490 4.71880 28.8510
307 87.4170 62.9220 84.2980 55.7660 46.4200 70.5240
308 86.9930 74.7100 58.6040 54.5200 55.1890 36.9830
309 37.7040 26.5330 17.2040 8.26510 7.70130 4.25800
310 77.2100 3.66790 53.7550 28.3440 14.7300 25.6750
311 55.0810 95.2900 27.5870 44.6190 70.4520 17.9040
312 52.7790 53.5580 31.9520 21.1120 24.2530 12.2320
313 71.8200 82.4140 58.4460 48.5980 58.8410 37.8320
314 94.5410 38.1130 77.4560 51.2280 32.0440 56.9630
315 91.9920 77.1940 42.8130 57.2590 58.9760 23.6040
316 67.0300 89.7080 84.1400 57.3740 69.7400 74.6720
317 30.0650 11.9280 10.1610 4.65720 3.56230 2.26460
318 32.8030 6.64650 86.2950 17.5830 8.36360 68.6370
319 83.3940 87.3830 68.6720 61.8220 70.1790 51.3720
320 12.1280 35.0450 13.2560 5.40740 8.53370 3.70610
321 26.5990 49.5600 71.8400 19.2660 20.4710 48.2650
322 35.5840 14.8390 58.0950 11.2310 6.67240 29.3600
323 67.4000 55.5350 9.45530 27.5000 28.7740 5.82720
324 29.0820 81.0920 40.6180 28.3000 47.5020 21.3960
325 71.3200 18.5640 73.8140 30.0990 16.4750 49.6970
326 13.0410 10.1260 32.7760 3.55900 2.67500 9.40960
327 57.6950 40.8720 15.9910 18.2510 17.1560 5.26750
328 23.5640 69.4200 87.3220 31.5640 38.3470 75.5050
329 26.6210 18.9610 64.8320 11.1660 7.03490 37.0340
330 4.00310 48.4930 27.5420 9.32180 15.6910 9.17380
331 40.9040 61.6570 49.0830 22.3380 29.3490 24.6160
332 92.8770 36.8970 11.4850 39.7180 26.8300 5.11640
333 18.4480 62.4890 41.4960 17.0630 27.2910 18.6830
334 27.7390 96.3960 82.2770 47.6190 72.0480 72.5150
335 56.7070 25.0480 34.9650 16.0920 11.2580 11.5800
336 28.2930 5.55410 54.7700 8.47660 4.54970 25.7330
337 69.8290 83.2620 25.5760 43.5320 57.5310 14.6580
338 48.1700 72.2120 97.1420 42.7940 45.8420 95.1680
339 52.9470 38.2990 72.5480 23.8580 18.1540 48.5600
340 60.1240 20.1760 90.7510 29.5960 15.8540 77.5350
341 74.2650 35.5800 47.8820 29.0350 20.5150 21.5560
342 44.0080 88.6100 65.9210 41.5650 61.0500 47.1890
343 49.7300 5.82780 60.2750 15.5550 8.08770 31.7480
344 89.2720 77.9900 96.2500 69.1420 64.2070 95.5090
345 29.9060 23.9060 85.8770 18.2790 10.8940 68.3590
346 22.3180 65.1970 21.0650 16.8650 29.2090 9.03130
347 77.0290 47.8330 62.6370 36.7940 28.9530 37.3200
348 0.35394 23.2230 11.1590 2.78370 4.20970 2.64200
349 30.0640 83.7910 5.26390 27.8030 50.0210 9.44220
350 36.3980 92.8200 44.2090 38.2820 64.2510 26.6390
351 77.3890 62.1340 22.5960 36.8120 37.4560 10.0650
352 21.6460 5.33410 0.17237 2.72320 2.11120 1.13620
353 92.9180 16.3080 28.6810 37.5590 20.9070 9.18290
354 21.4140 99.5630 24.5770 38.4720 72.2430 17.3880
355 57.8830 1.90220 90.9400 27.4790 13.0640 77.4620
356 11.5310 87.7870 94.8630 43.7190 60.3040 93.3090
357 3.12890 59.4670 84.3830 24.3250 28.0320 68.7740
358 96.3340 96.4410 78.4550 81.4430 89.6730 68.0300
359 3.52670 6.22980 18.9640 1.82880 1.63520 3.88680
360 78.8450 95.3220 97.3950 73.4470 83.5340 101.350
361 89.9640 42.3940 65.3630 45.3170 30.9510 40.4970
362 73.2130 60.6690 81.8030 44.1170 39.0710 65.5570
363 73.2390 2.48900 80.5680 32.2640 15.9530 59.7200
364 11.2990 99.5410 39.7860 38.8810 72.2580 25.0690
365 88.4200 55.8800 4.63850 41.6030 36.2490 6.00460
366 90.3090 76.4570 0.35588 52.7190 56.3300 8.98220
367 96.9730 68.6110 83.2370 66.0420 55.6850 69.9800
368 71.6670 39.6680 80.3960 35.8090 24.5460 60.9150
369 82.8820 28.4140 5.87100 30.1050 19.4450 3.47410
370 12.3070 64.4290 60.6580 20.5980 30.0150 36.1380
371 73.5520 85.8960 36.9870 48.5290 62.5080 20.9310
372 26.3290 40.4110 88.9020 21.7950 17.2730 74.8010
373 91.9550 22.8020 70.1610 44.3050 24.6310 45.4680
374 89.3320 0.00000 22.8920 33.3790 17.6060 6.51390
375 10.2520 42.8860 67.0050 14.1430 15.0280 41.1020
376 28.6830 81.3970 24.2790 26.8160 47.1980 13.0590
377 18.0330 62.2870 93.5290 29.7140 32.2050 85.9960
378 66.5680 10.6490 12.5650 18.0090 10.3210 3.25950
379 62.1160 92.8740 16.4120 45.3830 68.2630 13.8010
380 60.4550 49.8190 37.2050 23.7830 23.6700 14.8680
381 8.08670 82.8890 37.6520 26.5430 48.2900 19.7450
382 40.5870 71.2180 83.8540 35.0720 41.6420 69.9380
383 44.9030 40.5700 62.4300 18.9950 16.7530 35.6650
384 82.4510 99.8530 42.2640 65.3400 86.2360 28.0510
385 57.8300 15.3000 30.4360 15.0630 9.16160 8.90080
386 80.1530 42.5150 95.7580 47.3080 30.9480 89.2440
387 65.2260 26.7330 12.2190 18.9410 13.2750 3.71900
388 33.7540 52.5830 40.4200 15.6860 20.8360 16.7820
389 38.1800 46.3520 25.1210 13.2740 16.7760 8.21100
390 19.7970 0.00000 12.1240 2.56970 1.78120 2.34610
391 23.2980 33.4170 10.6180 6.23950 8.47680 3.19870
392 62.2060 61.6890 19.3520 27.6280 32.4570 8.58550
393 80.8930 70.1510 39.4490 44.5210 46.8260 19.6430
394 57.0120 10.7980 72.1960 21.6050 11.2260 46.8510
395 6.72360 83.8050 61.9570 31.0750 51.0240 41.1020
396 26.9360 50.7360 6.54910 11.3270 17.9220 4.23550
397 55.2160 40.4370 34.6960 18.4190 16.9210 12.4010
398 13.4910 26.7130 36.2910 5.65630 6.22480 11.9140
399 77.9690 18.5140 62.0500 31.4170 17.4800 34.7150
400 75.7990 65.3190 55.2010 41.1910 41.3620 31.5370
401 39.6380 1.85150 85.7540 18.9900 8.89140 67.7210
402 84.2440 37.1450 45.1000 35.7850 24.5570 19.7790
403 59.9380 59.4000 88.8930 38.6930 35.2240 77.3590
404 39.2880 50.9490 94.0020 29.6450 25.6870 85.6690
405 75.0170 75.3820 91.8380 55.7870 55.3150 85.8260
406 32.6940 12.5990 28.1790 6.23250 4.32850 7.41420
407 8.37540 19.0570 99.7410 20.1500 10.4080 94.9470
408 90.0660 0.16567 77.3080 43.2020 21.6100 55.1470
409 5.81550 44.1390 86.9100 19.9940 17.8930 71.4340
410 13.4420 24.0790 68.3060 10.9170 7.72020 41.5230
411 11.8240 46.2130 37.1710 9.96580 14.8800 13.8780
412 36.3730 11.1470 47.5490 9.29800 5.50660 19.4260
413 62.5300 46.2740 60.7060 27.5000 23.5070 34.5710
414 14.8040 6.40020 57.7000 7.19520 3.86920 28.6190
415 52.0570 53.6060 72.2070 27.9300 26.9740 49.5730
416 36.1350 16.8790 97.6700 23.1790 11.7480 90.7080
417 9.99020 99.4460 56.8320 41.4230 73.1440 39.2940
418 41.8120 86.7480 96.2410 48.9930 61.9250 96.1100
419 26.1580 86.5280 99.1960 46.3260 60.1970 102.030
420 5.31930 58.2600 16.8310 12.1750 22.4030 6.79850
421 87.7170 32.8740 24.1530 35.3120 23.2320 7.93920
422 26.5480 43.5470 44.6480 11.9710 14.6700 18.7830
423 88.5080 69.0650 73.6080 56.3070 51.3260 54.7490
424 71.5760 27.6320 87.6090 35.6600 20.6000 72.3750
425 24.0770 66.6280 76.3170 26.8520 34.3020 56.9660
426 66.8540 86.9910 72.5510 52.0030 64.6090 56.0490
427 41.3250 10.5210 70.0160 15.2060 7.96850 43.5900
428 14.0700 95.9160 72.5900 42.6020 69.2420 57.4920
429 28.6420 20.4630 5.66480 5.02840 4.88380 1.96480
430 14.0520 73.7490 46.0470 22.7350 38.2790 23.8460
431 95.1290 51.3210 69.5400 53.3590 38.9840 46.9360
432 91.2710 60.1850 21.2390 46.2040 41.0830 9.83190
433 60.5140 44.1090 91.9560 34.8150 25.3180 81.3650
434 50.7480 95.7960 69.9330 50.1270 73.0660 54.2060
435 91.9450 26.3610 45.6160 39.8840 23.6540 19.7850
436 74.5900 45.2680 8.32350 28.3300 24.1570 4.74400
437 25.0780 57.3410 57.0080 18.3890 24.5310 31.3030
438 22.8970 94.7650 11.4280 34.3060 64.6510 12.6930
439 39.9370 76.3000 69.8610 33.6030 45.4200 49.6450
440 39.3680 73.7330 49.1910 27.7480 40.7940 26.6320
441 34.3930 46.0350 78.0010 21.4950 19.8020 57.0000
442 3.46910 59.8110 48.2090 15.8450 24.8680 23.3610
443 65.7950 30.4780 51.6170 23.7170 16.2130 24.2250
444 91.1660 42.0780 36.2370 41.2670 29.3100 14.4630
445 42.4250 61.0920 85.3740 31.3710 32.6300 70.9910
446 74.7170 8.78630 25.4680 23.3900 12.8680 7.05560
447 25.7820 69.5430 8.99280 18.9920 33.4580 7.11700
448 9.15960 27.5950 54.0400 8.07710 7.37730 25.5960
449 28.7360 2.89160 20.2110 4.42390 2.81320 4.33320
450 7.43600 29.3030 23.5580 4.54710 6.40490 6.09990
451 71.3060 58.3380 0.00000 30.6640 32.0310 5.42760
452 85.4120 75.0610 23.0470 48.8770 53.1020 12.6020
