dispcalGUI/ti1/d3-e4-s65-g129-m0-f1524-caRGB.ti1
CTI1   

ORIGINATOR "Argyll targen"
KEYWORD "OFPS_PATCHES"
OFPS_PATCHES "1197"
CREATED "Wed Oct 16 19:36:53 2013"
KEYWORD "COMP_GREY_STEPS"
COMP_GREY_STEPS "129"
KEYWORD "BLACK_COLOR_PATCHES"
BLACK_COLOR_PATCHES "4"
KEYWORD "APPROX_WHITE_POINT"
APPROX_WHITE_POINT "95.045781 100.000003 108.905751"
DESCRIPTOR "Argyll Calibration Target chart information 1"
KEYWORD "ACCURATE_EXPECTED_VALUES"
ACCURATE_EXPECTED_VALUES "true"
KEYWORD "WHITE_COLOR_PATCHES"
WHITE_COLOR_PATCHES "4"
KEYWORD "SINGLE_DIM_STEPS"
SINGLE_DIM_STEPS "65"
KEYWORD "COLOR_REP"
COLOR_REP "RGB"

NUMBER_OF_FIELDS 7
BEGIN_DATA_FORMAT
SAMPLE_ID RGB_R RGB_G RGB_B XYZ_X XYZ_Y XYZ_Z
END_DATA_FORMAT

NUMBER_OF_SETS 1524
BEGIN_DATA
1 100.0000000 100.0000000 100.0000000 95.04580000 100.0000000 108.9060000
2 100.0000000 0.000000000 0.000000000 57.66700000 29.73440000 2.703760000
3 100.0000000 25.95800000 0.000000000 58.62270000 32.96570000 3.067800000
4 100.0000000 92.35920000 71.91750000 82.36360000 86.05570000 56.65240000
5 100.0000000 100.0000000 80.45520000 87.89050000 97.13770000 71.22080000
6 37.69960000 44.63590000 45.50290000 13.22800000 15.45610000 19.06140000
7 42.95570000 59.30890000 45.49800000 18.20480000 25.85530000 20.20380000
8 46.55670000 70.00490000 84.55810000 32.21980000 39.37780000 72.28160000
9 54.02450000 77.80170000 100.0000000 44.39500000 51.32870000 103.9020000
10 43.61700000 0.000000000 100.0000000 28.12200000 12.32460000 99.57010000
11 60.19920000 0.000000000 100.0000000 37.71120000 17.26900000 100.0200000
12 100.0000000 50.37690000 59.05120000 67.68460000 45.98700000 35.39310000
13 100.0000000 65.44160000 76.67720000 75.46640000 58.62430000 60.76690000
14 14.06250000 0.000000000 0.000000000 0.771490000 0.397798000 0.036171900
15 7.812500000 0.000000000 0.000000000 0.211802000 0.109210000 0.009930510
16 10.93750000 0.000000000 0.000000000 0.443913000 0.228892000 0.020813200
17 12.50000000 0.000000000 0.000000000 0.595436000 0.307020000 0.027917500
18 15.62500000 0.000000000 0.000000000 0.972660000 0.501526000 0.045603900
19 17.18750000 0.000000000 0.000000000 1.199480000 0.618479000 0.056238500
20 18.75000000 0.000000000 0.000000000 1.452440000 0.748911000 0.068098800
21 20.31250000 0.000000000 0.000000000 1.732000000 0.893058000 0.081206100
22 21.87500000 0.000000000 0.000000000 2.038580000 1.051140000 0.095580600
23 23.43750000 0.000000000 0.000000000 2.372600000 1.223370000 0.111241000
24 25.00000000 0.000000000 0.000000000 2.734420000 1.409930000 0.128206000
25 26.56250000 0.000000000 0.000000000 3.124410000 1.611020000 0.146491000
26 28.12500000 0.000000000 0.000000000 3.542920000 1.826810000 0.166113000
27 29.68750000 0.000000000 0.000000000 3.990260000 2.057470000 0.187087000
28 31.25000000 0.000000000 0.000000000 4.466750000 2.303160000 0.209427000
29 32.81250000 0.000000000 0.000000000 4.972690000 2.564030000 0.233149000
30 34.37500000 0.000000000 0.000000000 5.508370000 2.840240000 0.258265000
31 35.93750000 0.000000000 0.000000000 6.074070000 3.131930000 0.284788000
32 37.50000000 0.000000000 0.000000000 6.670050000 3.439230000 0.312730000
33 39.06250000 0.000000000 0.000000000 7.296560000 3.762270000 0.342105000
34 40.62500000 0.000000000 0.000000000 7.953870000 4.101190000 0.372923000
35 42.18750000 0.000000000 0.000000000 8.642200000 4.456110000 0.405197000
36 43.75000000 0.000000000 0.000000000 9.361800000 4.827160000 0.438936000
37 45.31250000 0.000000000 0.000000000 10.11290000 5.214440000 0.474151000
38 46.87500000 0.000000000 0.000000000 10.89570000 5.618070000 0.510854000
39 48.43750000 0.000000000 0.000000000 11.71040000 6.038160000 0.549053000
40 50.00000000 0.000000000 0.000000000 12.55730000 6.474830000 0.588759000
41 51.56250000 0.000000000 0.000000000 13.43650000 6.928170000 0.629982000
42 53.12500000 0.000000000 0.000000000 14.34830000 7.398290000 0.672730000
43 54.68750000 0.000000000 0.000000000 15.29280000 7.885290000 0.717013000
44 56.25000000 0.000000000 0.000000000 16.27020000 8.389270000 0.762840000
45 57.81250000 0.000000000 0.000000000 17.28070000 8.910310000 0.810219000
46 59.37500000 0.000000000 0.000000000 18.32450000 9.448530000 0.859159000
47 60.93750000 0.000000000 0.000000000 19.40180000 10.00400000 0.909668000
48 62.50000000 0.000000000 0.000000000 20.51270000 10.57680000 0.961754000
49 64.06250000 0.000000000 0.000000000 21.65740000 11.16710000 1.015430000
50 65.62500000 0.000000000 0.000000000 22.83610000 11.77480000 1.070690000
51 67.18750000 0.000000000 0.000000000 24.04900000 12.40020000 1.127560000
52 68.75000000 0.000000000 0.000000000 25.29610000 13.04330000 1.186030000
53 70.31250000 0.000000000 0.000000000 26.57780000 13.70410000 1.246120000
54 71.87500000 0.000000000 0.000000000 27.89400000 14.38280000 1.307830000
55 73.43750000 0.000000000 0.000000000 29.24500000 15.07940000 1.371170000
56 75.00000000 0.000000000 0.000000000 30.63090000 15.79400000 1.436150000
57 76.56250000 0.000000000 0.000000000 32.05190000 16.52670000 1.502780000
58 78.12500000 0.000000000 0.000000000 33.50800000 17.27750000 1.571050000
59 79.68750000 0.000000000 0.000000000 34.99960000 18.04660000 1.640980000
60 81.25000000 0.000000000 0.000000000 36.52660000 18.83390000 1.712580000
61 82.81250000 0.000000000 0.000000000 38.08920000 19.63970000 1.785840000
62 84.37500000 0.000000000 0.000000000 39.68760000 20.46380000 1.860790000
63 85.93750000 0.000000000 0.000000000 41.32190000 21.30650000 1.937410000
64 87.50000000 0.000000000 0.000000000 42.99230000 22.16780000 2.015730000
65 89.06250000 0.000000000 0.000000000 44.69870000 23.04770000 2.095740000
66 90.62500000 0.000000000 0.000000000 46.44150000 23.94630000 2.177450000
67 92.18750000 0.000000000 0.000000000 48.22070000 24.86370000 2.260870000
68 93.75000000 0.000000000 0.000000000 50.03640000 25.79990000 2.346000000
69 95.31250000 0.000000000 0.000000000 51.88870000 26.75500000 2.432850000
70 96.87500000 0.000000000 0.000000000 53.77790000 27.72910000 2.521420000
71 98.43750000 0.000000000 0.000000000 55.70390000 28.72220000 2.611720000
72 100.0000000 47.54350000 33.01230000 62.92880000 42.62080000 12.74470000
73 100.0000000 100.0000000 53.69080000 81.01680000 94.38800000 35.01890000
74 9.375000000 9.375000000 9.375000000 0.521282000 0.548454000 0.597298000
75 3.125000000 0.000000000 0.000000000 0.028234000 0.014558100 0.001323780
76 0.000000000 1.562500000 0.000000000 0.001978350 0.006688550 0.000753540
77 0.000000000 3.125000000 0.000000000 0.009085190 0.030715900 0.003460490
78 0.000000000 4.687500000 0.000000000 0.022161400 0.074924800 0.008441130
79 0.000000000 6.250000000 0.000000000 0.041722000 0.141057000 0.015891600
80 0.000000000 7.812500000 0.000000000 0.068154000 0.230420000 0.025959400
81 7.812500000 7.812500000 7.812500000 0.349089000 0.367285000 0.399994000
82 0.000000000 12.50000000 0.000000000 0.191600000 0.647775000 0.072979200
83 0.000000000 14.06250000 0.000000000 0.248251000 0.839305000 0.094557200
84 0.000000000 17.18750000 0.000000000 0.385970000 1.304910000 0.147013000
85 0.000000000 20.31250000 0.000000000 0.557325000 1.884240000 0.212281000
86 0.000000000 21.87500000 0.000000000 0.655978000 2.217780000 0.249858000
87 0.000000000 23.43750000 0.000000000 0.763458000 2.581150000 0.290796000
88 0.000000000 25.00000000 0.000000000 0.879886000 2.974780000 0.335143000
89 0.000000000 26.56250000 0.000000000 1.005380000 3.399050000 0.382942000
90 0.000000000 28.12500000 0.000000000 1.140040000 3.854350000 0.434236000
91 0.000000000 29.68750000 0.000000000 1.283990000 4.341010000 0.489064000
92 0.000000000 31.25000000 0.000000000 1.437320000 4.859390000 0.547465000
93 0.000000000 32.81250000 0.000000000 1.600120000 5.409800000 0.609475000
94 0.000000000 34.37500000 0.000000000 1.772490000 5.992570000 0.675130000
95 0.000000000 35.93750000 0.000000000 1.954520000 6.607990000 0.744464000
96 0.000000000 37.50000000 0.000000000 2.146300000 7.256350000 0.817510000
97 0.000000000 39.06250000 0.000000000 2.347900000 7.937940000 0.894298000
98 0.000000000 40.62500000 0.000000000 2.559400000 8.653020000 0.974861000
99 0.000000000 42.18750000 0.000000000 2.780900000 9.401860000 1.059230000
100 0.000000000 43.75000000 0.000000000 3.012450000 10.18470000 1.147420000
101 0.000000000 45.31250000 0.000000000 3.254140000 11.00180000 1.239480000
102 0.000000000 46.87500000 0.000000000 3.506030000 11.85340000 1.335420000
103 0.000000000 48.43750000 0.000000000 3.768200000 12.73980000 1.435280000
104 0.000000000 50.00000000 0.000000000 4.040710000 13.66110000 1.539080000
105 0.000000000 51.56250000 0.000000000 4.323620000 14.61760000 1.646840000
106 0.000000000 53.12500000 0.000000000 4.617000000 15.60950000 1.758590000
107 0.000000000 54.68750000 0.000000000 4.920920000 16.63700000 1.874350000
108 0.000000000 56.25000000 0.000000000 5.235430000 17.70030000 1.994140000
109 0.000000000 57.81250000 0.000000000 5.560600000 18.79970000 2.118000000
110 0.000000000 59.37500000 0.000000000 5.896480000 19.93520000 2.245930000
111 0.000000000 60.93750000 0.000000000 6.243130000 21.10720000 2.377970000
112 0.000000000 62.50000000 0.000000000 6.600600000 22.31580000 2.514130000
113 0.000000000 64.06250000 0.000000000 6.968950000 23.56110000 2.654430000
114 0.000000000 65.62500000 0.000000000 7.348240000 24.84350000 2.798900000
115 0.000000000 67.18750000 0.000000000 7.738510000 26.16290000 2.947550000
116 0.000000000 68.75000000 0.000000000 8.139820000 27.51970000 3.100410000
117 0.000000000 70.31250000 0.000000000 8.552220000 28.91400000 3.257490000
118 0.000000000 71.87500000 0.000000000 8.975760000 30.34590000 3.418810000
119 0.000000000 73.43750000 0.000000000 9.410490000 31.81560000 3.584390000
120 0.000000000 75.00000000 0.000000000 9.856450000 33.32340000 3.754260000
121 0.000000000 76.56250000 0.000000000 10.31370000 34.86930000 3.928420000
122 0.000000000 78.12500000 0.000000000 10.78230000 36.45340000 4.106890000
123 0.000000000 79.68750000 0.000000000 11.26220000 38.07610000 4.289700000
124 0.000000000 81.25000000 0.000000000 11.75360000 39.73730000 4.476860000
125 0.000000000 82.81250000 0.000000000 12.25640000 41.43730000 4.668380000
126 0.000000000 84.37500000 0.000000000 12.77070000 43.17620000 4.864290000
127 0.000000000 85.93750000 0.000000000 13.29660000 44.95420000 5.064600000
128 0.000000000 87.50000000 0.000000000 13.83410000 46.77130000 5.269320000
129 0.000000000 89.06250000 0.000000000 14.38320000 48.62780000 5.478470000
130 0.000000000 90.62500000 0.000000000 14.94400000 50.52380000 5.692070000
131 0.000000000 92.18750000 0.000000000 15.51650000 52.45930000 5.910140000
132 0.000000000 93.75000000 0.000000000 16.10080000 54.43460000 6.132680000
133 0.000000000 95.31250000 0.000000000 16.69680000 56.44980000 6.359710000
134 0.000000000 96.87500000 0.000000000 17.30470000 58.50500000 6.591250000
135 0.000000000 100.0000000 33.42570000 20.24670000 63.41230000 15.97160000
136 0.000000000 100.0000000 74.09740000 28.29140000 66.63040000 58.34120000
137 27.73230000 100.0000000 100.0000000 40.81380000 72.03680000 106.3630000
138 13.28130000 13.28130000 13.28130000 1.121360000 1.179810000 1.284880000
139 7.031250000 7.031250000 7.031250000 0.276889000 0.291321000 0.317266000
140 0.000000000 0.000000000 1.562500000 0.002006760 0.000802765 0.010569100
141 0.000000000 0.000000000 3.125000000 0.009215660 0.003686540 0.048536500
142 0.000000000 0.000000000 4.687500000 0.022479700 0.008992540 0.118395000
143 0.000000000 0.000000000 6.250000000 0.042321100 0.016929700 0.222895000
144 0.000000000 0.000000000 7.812500000 0.069132700 0.027655200 0.364104000
145 0.000000000 0.000000000 9.375000000 0.103233000 0.041296500 0.543704000
146 0.000000000 0.000000000 12.50000000 0.194352000 0.077746500 1.023600000
147 0.000000000 0.000000000 14.06250000 0.251816000 0.100734000 1.326250000
148 0.000000000 0.000000000 17.18750000 0.391513000 0.156617000 2.062000000
149 0.000000000 0.000000000 20.31250000 0.565329000 0.226148000 2.977440000
150 0.000000000 0.000000000 21.87500000 0.665399000 0.266179000 3.504490000
151 0.000000000 0.000000000 23.43750000 0.774422000 0.309792000 4.078680000
152 0.000000000 0.000000000 25.00000000 0.892522000 0.357036000 4.700690000
153 0.000000000 0.000000000 26.56250000 1.019820000 0.407957000 5.371110000
154 0.000000000 0.000000000 28.12500000 1.156420000 0.462602000 6.090560000
155 0.000000000 0.000000000 29.68750000 1.302430000 0.521011000 6.859570000
156 0.000000000 0.000000000 31.25000000 1.457960000 0.583227000 7.678700000
157 0.000000000 0.000000000 32.81250000 1.623100000 0.649288000 8.548450000
158 0.000000000 0.000000000 34.37500000 1.797950000 0.719233000 9.469330000
159 0.000000000 0.000000000 35.93750000 1.982590000 0.793096000 10.44180000
160 0.000000000 0.000000000 37.50000000 2.177120000 0.870913000 11.46630000
161 0.000000000 0.000000000 39.06250000 2.381620000 0.952717000 12.54340000
162 0.000000000 0.000000000 40.62500000 2.596160000 1.038540000 13.67330000
163 0.000000000 0.000000000 42.18750000 2.820840000 1.128420000 14.85660000
164 0.000000000 0.000000000 43.75000000 3.055720000 1.222380000 16.09370000
165 0.000000000 0.000000000 45.31250000 3.300870000 1.320450000 17.38490000
166 0.000000000 0.000000000 46.87500000 3.556380000 1.422660000 18.73060000
167 0.000000000 0.000000000 48.43750000 3.822310000 1.529040000 20.13120000
168 0.000000000 0.000000000 50.00000000 4.098740000 1.639620000 21.58700000
169 0.000000000 0.000000000 51.56250000 4.385710000 1.754420000 23.09840000
170 0.000000000 0.000000000 53.12500000 4.683310000 1.873460000 24.66580000
171 0.000000000 0.000000000 54.68750000 4.991590000 1.996790000 26.28940000
172 0.000000000 0.000000000 56.25000000 5.310620000 2.124410000 27.96970000
173 0.000000000 0.000000000 57.81250000 5.640460000 2.256350000 29.70690000
174 0.000000000 0.000000000 59.37500000 5.981160000 2.392640000 31.50120000
175 0.000000000 0.000000000 60.93750000 6.332790000 2.533300000 33.35320000
176 0.000000000 0.000000000 62.50000000 6.695390000 2.678360000 35.26290000
177 0.000000000 0.000000000 64.06250000 7.069040000 2.827830000 37.23080000
178 0.000000000 0.000000000 65.62500000 7.453770000 2.981730000 39.25710000
179 0.000000000 0.000000000 67.18750000 7.849650000 3.140090000 41.34210000
180 0.000000000 0.000000000 68.75000000 8.256720000 3.302940000 43.48610000
181 0.000000000 0.000000000 70.31250000 8.675050000 3.470280000 45.68930000
182 0.000000000 0.000000000 71.87500000 9.104670000 3.642140000 47.95200000
183 0.000000000 0.000000000 73.43750000 9.545630000 3.818540000 50.27440000
184 0.000000000 0.000000000 75.00000000 9.998000000 3.999500000 52.65690000
185 0.000000000 0.000000000 76.56250000 10.46180000 4.185040000 55.09970000
186 0.000000000 0.000000000 78.12500000 10.93710000 4.375170000 57.60300000
187 0.000000000 0.000000000 79.68750000 11.42390000 4.569920000 60.16700000
188 0.000000000 0.000000000 81.25000000 11.92240000 4.769300000 62.79210000
189 0.000000000 0.000000000 82.81250000 12.43240000 4.973340000 65.47840000
190 0.000000000 0.000000000 84.37500000 12.95410000 5.182040000 68.22620000
191 0.000000000 0.000000000 85.93750000 13.48760000 5.395440000 71.03560000
192 0.000000000 0.000000000 87.50000000 14.03280000 5.613530000 73.90710000
193 0.000000000 0.000000000 89.06250000 14.58980000 5.836350000 76.84060000
194 0.000000000 0.000000000 90.62500000 15.15860000 6.063900000 79.83660000
195 0.000000000 0.000000000 92.18750000 15.73930000 6.296210000 82.89510000
196 0.000000000 0.000000000 93.75000000 16.33200000 6.533290000 86.01650000
197 0.000000000 0.000000000 95.31250000 16.93660000 6.775150000 89.20080000
198 0.000000000 0.000000000 96.87500000 17.55320000 7.021820000 92.44840000
199 0.000000000 0.000000000 98.43750000 18.18190000 7.273300000 95.75940000
200 18.57690000 30.01120000 88.79090000 17.23020000 10.97690000 76.89380000
201 39.35630000 91.82900000 100.0000000 41.62460000 63.36620000 105.3420000
202 10.93750000 10.93750000 10.93750000 0.731650000 0.769787000 0.838342000
203 10.15630000 10.15630000 10.15630000 0.621616000 0.654018000 0.712263000
204 6.250000000 0.000000000 0.000000000 0.129659000 0.066855300 0.006079180
205 0.781250000 0.781250000 0.781250000 0.002206570 0.002321580 0.002528340
206 1.562500000 1.562500000 1.562500000 0.010133200 0.010661400 0.011610900
207 2.343750000 2.343750000 2.343750000 0.024717900 0.026006300 0.028322300
208 3.125000000 3.125000000 3.125000000 0.046534900 0.048960500 0.053320800
209 3.906250000 3.906250000 3.906250000 0.076016000 0.079978300 0.087101000
210 4.687500000 4.687500000 4.687500000 0.113512000 0.119429000 0.130065000
211 5.468750000 5.468750000 5.468750000 0.159321000 0.167625000 0.182554000
212 0.000000000 9.375000000 0.000000000 0.101772000 0.344078000 0.038764300
213 0.000000000 10.93750000 0.000000000 0.142843000 0.482933000 0.054407900
214 4.687500000 0.000000000 0.000000000 0.068871000 0.035511400 0.003229070
215 6.250000000 6.250000000 6.250000000 0.213702000 0.224842000 0.244865000
216 12.50000000 12.50000000 12.50000000 0.981387000 1.032540000 1.124500000
217 8.593750000 8.593750000 8.593750000 0.430494000 0.452934000 0.493271000
218 14.06250000 14.06250000 14.06250000 1.271560000 1.337840000 1.456980000
219 14.84380000 14.84380000 14.84380000 1.432110000 1.506760000 1.640950000
220 15.62500000 15.62500000 15.62500000 1.603120000 1.686680000 1.836900000
221 16.40630000 16.40630000 16.40630000 1.784710000 1.877730000 2.044960000
222 17.18750000 17.18750000 17.18750000 1.976960000 2.080010000 2.265250000
223 17.96880000 17.96880000 17.96880000 2.179990000 2.293620000 2.497890000
224 18.75000000 18.75000000 18.75000000 2.393890000 2.518670000 2.742970000
225 19.53130000 19.53130000 19.53130000 2.618740000 2.755240000 3.000620000
226 20.31250000 20.31250000 20.31250000 2.854650000 3.003450000 3.270930000
227 21.09380000 21.09380000 21.09380000 3.101700000 3.263370000 3.554000000
228 21.87500000 21.87500000 21.87500000 3.359960000 3.535100000 3.849920000
229 22.65630000 22.65630000 22.65630000 3.629530000 3.818720000 4.158800000
230 23.43750000 23.43750000 23.43750000 3.910480000 4.114310000 4.480720000
231 24.21880000 24.21880000 24.21880000 4.202890000 4.421960000 4.815770000
232 25.00000000 25.00000000 25.00000000 4.506830000 4.741750000 5.164040000
233 25.78130000 25.78130000 25.78130000 4.822380000 5.073750000 5.525600000
234 26.56250000 26.56250000 26.56250000 5.149610000 5.418030000 5.900550000
235 27.34380000 27.34380000 27.34380000 5.488590000 5.774680000 6.288960000
236 28.12500000 28.12500000 28.12500000 5.839380000 6.143760000 6.690900000
237 28.90630000 28.90630000 28.90630000 6.202060000 6.525340000 7.106470000
238 29.68750000 29.68750000 29.68750000 6.576680000 6.919490000 7.535720000
239 30.46880000 30.46880000 30.46880000 6.963320000 7.326280000 7.978740000
240 31.25000000 31.25000000 31.25000000 7.362030000 7.745770000 8.435590000
241 32.03130000 32.03130000 32.03130000 7.772870000 8.178030000 8.906350000
242 32.81250000 32.81250000 32.81250000 8.195910000 8.623120000 9.391080000
243 33.59380000 33.59380000 33.59380000 8.631210000 9.081110000 9.889850000
244 34.37500000 34.37500000 34.37500000 9.078810000 9.552040000 10.40270000
245 35.15630000 35.15630000 35.15630000 9.538790000 10.03600000 10.92980000
246 35.93750000 35.93750000 35.93750000 10.01120000 10.53300000 11.47110000
247 36.71880000 36.71880000 36.71880000 10.49610000 11.04320000 12.02660000
248 37.50000000 37.50000000 37.50000000 10.99350000 11.56650000 12.59660000
249 38.28130000 38.28130000 38.28130000 11.50340000 12.10310000 13.18090000
250 39.06250000 39.06250000 39.06250000 12.02610000 12.65290000 13.77980000
251 39.84380000 39.84380000 39.84380000 12.56140000 13.21610000 14.39310000
252 40.62500000 40.62500000 40.62500000 13.10940000 13.79280000 15.02110000
253 41.40630000 41.40630000 41.40630000 13.67030000 14.38280000 15.66370000
254 42.18750000 42.18750000 42.18750000 14.24390000 14.98640000 16.32100000
255 42.96880000 42.96880000 42.96880000 14.83050000 15.60350000 16.99310000
256 43.75000000 43.75000000 43.75000000 15.43000000 16.23420000 17.68000000
257 44.53130000 44.53130000 44.53130000 16.04240000 16.87860000 18.38180000
258 45.31250000 45.31250000 45.31250000 16.66790000 17.53670000 19.09850000
259 46.09380000 46.09380000 46.09380000 17.30650000 18.20850000 19.83020000
260 46.87500000 46.87500000 46.87500000 17.95810000 18.89420000 20.57680000
261 47.65630000 47.65630000 47.65630000 18.62290000 19.59360000 21.33860000
262 48.43750000 48.43750000 48.43750000 19.30090000 20.30700000 22.11550000
263 49.21880000 49.21880000 49.21880000 19.99220000 21.03430000 22.90750000
264 50.00000000 50.00000000 50.00000000 20.69670000 21.77560000 23.71480000
265 50.78130000 50.78130000 50.78130000 21.41460000 22.53080000 24.53740000
266 51.56250000 51.56250000 51.56250000 22.14580000 23.30020000 25.37520000
267 52.34380000 52.34380000 52.34380000 22.89050000 24.08360000 26.22850000
268 54.68750000 54.68750000 54.68750000 25.20530000 26.51910000 28.88080000
269 55.46880000 55.46880000 55.46880000 26.00390000 27.35940000 29.79590000
270 66.81140000 65.28940000 100.0000000 49.84240000 44.34260000 103.0150000
271 100.0000000 100.0000000 100.0000000 95.04580000 100.0000000 108.9060000
272 56.25000000 56.25000000 56.25000000 26.81620000 28.21400000 30.72670000
273 57.03130000 57.03130000 57.03130000 27.64210000 29.08300000 31.67300000
274 57.81250000 57.81250000 57.81250000 28.48170000 29.96630000 32.63510000
275 58.59380000 58.59380000 58.59380000 29.33510000 30.86410000 33.61280000
276 59.37500000 59.37500000 59.37500000 30.20210000 31.77640000 34.60630000
277 60.15630000 60.15630000 60.15630000 31.08300000 32.70320000 35.61570000
278 60.93750000 60.93750000 60.93750000 31.97770000 33.64450000 36.64080000
279 61.71880000 61.71880000 61.71880000 32.88620000 34.60040000 37.68190000
280 62.50000000 62.50000000 62.50000000 33.80870000 35.57100000 38.73880000
281 63.28130000 63.28130000 63.28130000 34.74510000 36.55610000 39.81170000
282 64.06250000 64.06250000 64.06250000 35.69540000 37.55600000 40.90070000
283 64.84380000 64.84380000 64.84380000 36.65980000 38.57060000 42.00560000
284 65.62500000 65.62500000 65.62500000 37.63810000 39.60000000 43.12670000
285 66.40630000 66.40630000 66.40630000 38.63060000 40.64420000 44.26390000
286 67.18750000 67.18750000 67.18750000 39.63720000 41.70320000 45.41720000
287 67.96880000 67.96880000 67.96880000 40.65780000 42.77710000 46.58670000
288 68.75000000 68.75000000 68.75000000 41.69270000 43.86590000 47.77250000
289 69.53130000 69.53130000 69.53130000 42.74170000 44.96960000 48.97450000
290 70.31250000 70.31250000 70.31250000 43.80500000 46.08830000 50.19290000
291 71.09380000 71.09380000 71.09380000 44.88260000 47.22210000 51.42750000
292 71.87500000 71.87500000 71.87500000 45.97440000 48.37080000 52.67860000
293 72.65630000 72.65630000 72.65630000 47.08060000 49.53460000 53.94610000
294 73.43750000 73.43750000 73.43750000 48.20110000 50.71360000 55.23000000
295 74.21880000 74.21880000 74.21880000 49.33600000 51.90760000 56.53040000
296 75.00000000 75.00000000 75.00000000 50.48530000 53.11690000 57.84730000
297 75.78130000 75.78130000 75.78130000 51.64910000 54.34130000 59.18080000
298 76.56250000 76.56250000 76.56250000 52.82740000 55.58100000 60.53090000
299 77.34380000 77.34380000 77.34380000 54.02010000 56.83590000 61.89760000
300 78.12500000 78.12500000 78.12500000 55.22740000 58.10610000 63.28090000
301 78.90630000 78.90630000 78.90630000 56.44930000 59.39170000 64.68090000
302 79.68750000 79.68750000 79.68750000 57.68570000 60.69260000 66.09770000
303 80.46880000 80.46880000 80.46880000 58.93680000 62.00890000 67.53120000
