dispcalGUI/ti1/d3-e4-s25-g73-m0-f679-cRec709_Gamma22.ti1
CTI1   

DESCRIPTOR "Argyll Calibration Target chart information 1"
ORIGINATOR "Argyll targen"
CREATED "Wed Aug 27 18:31:26 2014"
KEYWORD "APPROX_WHITE_POINT"
APPROX_WHITE_POINT "95.045781 100.000003 108.905751"
KEYWORD "COLOR_REP"
COLOR_REP "RGB"
KEYWORD "ACCURATE_EXPECTED_VALUES"
ACCURATE_EXPECTED_VALUES "true"
KEYWORD "DARK_REGION_EMPHASIS"
DARK_REGION_EMPHASIS "1.600000"
KEYWORD "WHITE_COLOR_PATCHES"
WHITE_COLOR_PATCHES "4"
KEYWORD "BLACK_COLOR_PATCHES"
BLACK_COLOR_PATCHES "4"
KEYWORD "SINGLE_DIM_STEPS"
SINGLE_DIM_STEPS "25"
KEYWORD "COMP_GREY_STEPS"
COMP_GREY_STEPS "73"
KEYWORD "OFPS_PATCHES"
OFPS_PATCHES "528"

NUMBER_OF_FIELDS 7
BEGIN_DATA_FORMAT
SAMPLE_ID RGB_R RGB_G RGB_B XYZ_X XYZ_Y XYZ_Z 
END_DATA_FORMAT

NUMBER_OF_SETS 679
BEGIN_DATA
1 100.000 100.000 100.000 95.0458 100.000 108.906 
2 84.7287 100.000 26.2578 65.3542 86.6679 18.2826 
3 89.7524 100.000 68.1674 76.0401 91.3893 54.3661 
4 100.000 100.000 83.7341 89.2116 97.6662 78.1820 
5 0.00000 23.5624 59.3725 7.22358 5.27134 30.6984 
6 0.00000 22.6433 79.8322 12.3625 7.12752 58.3763 
7 0.00000 15.3340 61.9002 6.86451 3.67195 33.2952 
8 0.00000 55.6795 60.9799 15.9470 22.1643 35.3183 
9 0.00000 73.1611 79.9549 29.0201 40.3854 64.1131 
10 0.00000 85.0331 80.9441 36.3715 54.6055 68.0561 
11 0.00000 100.000 83.0465 47.7536 76.3187 75.0953 
12 51.5842 100.000 86.7404 58.5760 81.7588 81.8907 
13 0.00000 100.000 0.00000 35.7573 71.5199 11.9206 
14 32.6107 100.000 0.00000 39.2654 73.3284 12.0848 
15 39.9566 100.000 26.9161 42.2483 74.7499 17.4794 
16 54.7610 19.1987 0.00000 11.9171 7.55204 0.829747 
17 63.8383 29.0834 22.0181 18.3807 12.9120 4.91665 
18 10.6838 0.00000 0.00000 0.301477 0.155420 0.0141135 
19 27.7778 0.00000 0.00000 2.46531 1.27094 0.115412 
20 31.2500 0.00000 0.00000 3.19424 1.64672 0.149537 
21 34.9462 0.00000 0.00000 4.08451 2.10569 0.191215 
22 38.8889 0.00000 0.00000 5.16701 2.66375 0.241891 
23 43.1034 0.00000 0.00000 6.47910 3.34017 0.303316 
24 47.6190 0.00000 0.00000 8.06625 4.15839 0.377618 
25 52.4691 0.00000 0.00000 9.98412 5.14711 0.467402 
26 57.6923 0.00000 0.00000 12.3012 6.34165 0.575877 
27 63.3333 0.00000 0.00000 15.1025 7.78578 0.707016 
28 69.4444 0.00000 0.00000 18.4939 9.53416 0.865784 
29 76.0870 0.00000 0.00000 22.6088 11.6555 1.05842 
30 83.3333 0.00000 0.00000 27.6163 14.2370 1.29285 
31 91.2698 0.00000 0.00000 33.7329 17.3903 1.57919 
32 100.000 0.00000 63.7565 47.9463 23.9430 37.2554 
33 100.000 0.00000 81.5272 52.7574 25.8675 62.5913 
34 100.000 27.1266 85.4252 56.0324 30.4242 69.8297 
35 33.4588 23.3709 39.0025 7.45004 5.74831 12.6478 
36 56.0839 29.2527 41.5699 16.5735 11.7977 15.1303 
37 58.4826 31.1404 54.0226 20.0828 13.8953 26.0481 
38 75.4354 53.4134 68.8740 39.1379 32.6252 45.9023 
39 0.636132 0.636132 0.636132 1.40428e-003 1.47748e-003 1.60906e-003 
40 0.00000 8.33333 0.00000 0.151359 0.302741 0.0504593 
41 0.00000 15.7658 0.00000 0.615127 1.23034 0.205068 
42 0.00000 18.5185 0.00000 0.876336 1.75280 0.292148 
43 0.00000 27.7778 0.00000 2.13764 4.27559 0.712633 
44 0.00000 31.2500 0.00000 2.76968 5.53977 0.923340 
45 0.00000 34.9462 0.00000 3.54162 7.08377 1.18069 
46 0.00000 38.8889 0.00000 4.48024 8.96114 1.49360 
47 0.00000 43.1034 0.00000 5.61794 11.2367 1.87288 
48 0.00000 47.6190 0.00000 6.99414 13.9893 2.33167 
49 0.00000 52.4691 0.00000 8.65710 17.3155 2.88605 
50 0.00000 57.6923 0.00000 10.6662 21.3340 3.55585 
51 0.00000 63.3333 0.00000 13.0952 26.1923 4.36559 
52 0.00000 69.4444 0.00000 16.0358 32.0740 5.34593 
53 0.00000 76.0870 0.00000 19.6038 39.2105 6.53540 
54 0.00000 83.3333 0.00000 23.9457 47.8950 7.98289 
55 0.00000 91.2698 0.00000 29.2493 58.5030 9.75097 
56 100.000 100.000 0.00000 76.9958 92.7795 13.8511 
57 100.000 100.000 34.2549 78.7067 93.4640 22.8612 
58 100.000 100.000 60.5929 82.9934 95.1787 45.4355 
59 0.00000 0.00000 3.96825 0.0149448 5.97831e-003 0.0787022 
60 0.00000 0.00000 6.09756 0.0384388 0.0153765 0.202426 
61 0.00000 0.00000 8.33333 0.0764050 0.0305640 0.402363 
62 0.00000 0.00000 10.6838 0.131956 0.0527858 0.694905 
63 0.00000 0.00000 13.1579 0.208629 0.0834571 1.09868 
64 0.00000 18.6831 19.9918 1.41703 1.99664 3.05461 
65 0.00000 0.00000 0.00000 0.00000 0.00000 0.00000 
66 0.00000 0.00000 1.93798 3.09020e-003 1.23616e-003 0.0162735 
67 0.00000 0.00000 27.7778 1.07906 0.431652 5.68254 
68 0.00000 0.00000 31.2500 1.39811 0.559281 7.36271 
69 0.00000 0.00000 34.9462 1.78778 0.715159 9.41480 
70 0.00000 0.00000 38.8889 2.26159 0.904694 11.9099 
71 0.00000 0.00000 43.1034 2.83589 1.13443 14.9343 
72 0.00000 0.00000 47.6190 3.53058 1.41232 18.5927 
73 0.00000 0.00000 52.4691 4.37003 1.74813 23.0134 
74 0.00000 0.00000 57.6923 5.38423 2.15383 28.3543 
75 0.00000 0.00000 63.3333 6.61033 2.64430 34.8112 
76 0.00000 0.00000 69.4444 8.09475 3.23811 42.6284 
77 0.00000 0.00000 76.0870 9.89584 3.95859 52.1133 
78 0.00000 0.00000 83.3333 12.0876 4.83535 63.6556 
79 0.00000 0.00000 91.2698 14.7648 5.90631 77.7543 
80 0.00000 40.2592 100.000 22.8848 16.8907 96.6664 
81 32.1133 60.1685 100.000 33.1405 32.3687 99.1135 
82 1.28205 1.28205 1.28205 6.55848e-003 6.90033e-003 7.51486e-003 
83 1.93798 1.93798 1.93798 0.0162720 0.0171202 0.0186449 
84 2.60417 2.60417 2.60417 0.0311632 0.0327876 0.0357075 
85 3.28084 3.28084 3.28084 0.0517916 0.0544912 0.0593441 
86 0.00000 75.0833 61.8381 25.3116 40.5910 39.3766 
87 90.8556 100.000 89.9618 83.4579 94.4589 88.8086 
88 100.000 100.000 100.000 95.0458 100.000 108.906 
89 0.00000 1.93798 0.00000 6.12172e-003 0.0122443 2.04082e-003 
90 6.83060 6.83060 6.83060 0.259808 0.273351 0.297695 
91 7.57576 7.57576 7.57576 0.326246 0.343252 0.373821 
92 8.33333 8.33333 8.33333 0.402325 0.423296 0.460994 
93 9.10364 9.10364 9.10364 0.488674 0.514146 0.559935 
94 9.88701 9.88701 9.88701 0.585950 0.616492 0.671396 
95 10.6838 10.6838 10.6838 0.694840 0.731058 0.796164 
96 11.4943 11.4943 11.4943 0.816064 0.858602 0.935066 
97 12.3188 12.3188 12.3188 0.950379 0.999917 1.08897 
98 13.1579 13.1579 13.1579 1.09858 1.15584 1.25878 
99 14.0118 14.0118 14.0118 1.26150 1.32725 1.44545 
100 14.8810 14.8810 14.8810 1.44001 1.51507 1.65000 
101 15.7658 15.7658 15.7658 1.63506 1.72028 1.87349 
102 16.6667 16.6667 16.6667 1.84760 1.94391 2.11703 
103 17.5841 17.5841 17.5841 2.07868 2.18703 2.38180 
104 18.5185 18.5185 18.5185 2.32937 2.45079 2.66905 
105 19.4704 19.4704 19.4704 2.60084 2.73640 2.98010 
106 20.4403 20.4403 20.4403 2.89428 3.04515 3.31634 
107 21.4286 21.4286 21.4286 3.21100 3.37837 3.67924 
108 22.4359 22.4359 22.4359 3.55235 3.73751 4.07037 
109 23.4628 23.4628 23.4628 3.91976 4.12408 4.49136 
110 24.5098 24.5098 24.5098 4.31477 4.53967 4.94397 
111 25.5776 25.5776 25.5776 4.73899 4.98600 5.43004 
112 26.6667 26.6667 26.6667 5.19413 5.46487 5.95156 
113 27.7778 27.7778 27.7778 5.68201 5.97818 6.51058 
114 28.9116 28.9116 28.9116 6.20457 6.52798 7.10934 
115 30.0687 30.0687 30.0687 6.76385 7.11641 7.75018 
116 31.2500 31.2500 31.2500 7.36203 7.74577 8.43559 
117 32.4561 32.4561 32.4561 8.00143 8.41850 9.16823 
118 33.6879 33.6879 33.6879 8.68452 9.13720 9.95093 
119 34.9462 34.9462 34.9462 9.41392 9.90462 10.7867 
120 36.2319 36.2319 36.2319 10.1924 10.7237 11.6787 
121 37.5458 37.5458 37.5458 11.0230 11.5976 12.6304 
122 38.8889 38.8889 38.8889 11.9088 12.5296 13.6454 
123 40.2622 40.2622 40.2622 12.8533 13.5233 14.7276 
124 41.6667 41.6667 41.6667 13.8601 14.5825 15.8812 
125 43.1034 43.1034 43.1034 14.9329 15.7113 17.1105 
126 44.5736 44.5736 44.5736 16.0760 16.9140 18.4203 
127 46.0784 46.0784 46.0784 17.2938 18.1952 19.8157 
128 47.6190 47.6190 47.6190 18.5910 19.5600 21.3020 
129 49.1968 49.1968 49.1968 19.9726 21.0137 22.8851 
130 50.8130 50.8130 50.8130 21.4441 22.5618 24.5711 
131 52.4691 52.4691 52.4691 23.0113 24.2107 26.3668 
132 54.1667 54.1667 54.1667 24.6804 25.9668 28.2794 
133 55.9072 55.9072 55.9072 26.4581 27.8372 30.3163 
134 57.6923 57.6923 57.6923 28.3517 29.8295 32.4860 
135 59.5238 59.5238 59.5238 30.3689 31.9518 34.7974 
136 61.4035 61.4035 61.4035 32.5180 34.2129 37.2599 
137 63.3333 63.3333 63.3333 34.8080 36.6223 39.8838 
138 65.3153 65.3153 65.3153 37.2486 39.1902 42.6804 
139 67.3516 67.3516 67.3516 39.8504 41.9276 45.6615 
140 69.4444 69.4444 69.4444 42.6245 44.8463 48.8402 
141 71.5962 71.5962 71.5962 45.5832 47.9592 52.2303 
142 73.8095 73.8095 73.8095 48.7397 51.2803 55.8472 
143 76.0870 76.0870 76.0870 52.1084 54.8246 59.7071 
144 78.4314 78.4314 78.4314 55.7048 58.6084 63.8279 
145 80.8458 80.8458 80.8458 59.5458 62.6496 68.2290 
146 83.3333 83.3333 83.3333 63.6496 66.9674 72.9313 
147 85.8974 85.8974 85.8974 68.0363 71.5827 77.9577 
148 88.5417 88.5417 88.5417 72.7276 76.5185 83.3330 
149 91.2698 91.2698 91.2698 77.7470 81.7996 89.0844 
150 94.0860 94.0860 94.0860 83.1206 87.4532 95.2416 
151 96.9945 96.9945 96.9945 88.8765 93.5092 101.837 
152 66.7048 56.5380 0.00000 27.1297 29.1330 4.19369 
153 74.8176 61.7427 33.4666 35.7959 36.6497 13.7084 
154 30.7384 47.7805 23.5012 10.8738 15.9807 6.42755 
155 66.3282 48.7979 24.3949 24.9093 23.7051 7.51395 
156 71.9720 69.2144 57.9971 41.3728 44.3337 34.9285 
157 83.0933 80.6066 100.000 67.7480 65.8834 103.759 
158 13.1579 0.00000 0.00000 0.476651 0.245728 0.0223142 
159 21.4286 0.00000 0.00000 1.39319 0.718230 0.0652215 
160 24.5098 0.00000 0.00000 1.87209 0.965119 0.0876411 
161 47.7830 14.1709 12.2906 8.79357 5.23490 1.48836 
162 78.7161 0.00000 19.9741 24.8850 12.7686 3.89189 
163 100.000 0.00000 22.2273 41.8994 21.5240 5.41100 
164 100.000 0.00000 36.1767 43.1676 22.0314 12.0898 
165 100.000 0.00000 48.6372 44.9372 22.7392 21.4088 
166 100.000 25.9048 53.9264 47.7133 26.7834 26.9842 
167 100.000 49.2521 82.6133 60.6301 41.0697 66.8939 
168 0.00000 78.1393 40.2744 23.2282 42.5513 19.7925 
169 53.1159 100.000 47.4471 49.5167 78.2087 30.8461 
170 84.3777 100.000 47.7686 67.6955 87.5744 31.9706 
171 100.000 64.7542 23.8003 55.7566 49.0689 10.5597 
172 100.000 72.5545 42.2897 61.6157 57.6656 22.1385 
173 3.96825 3.96825 3.96825 0.0786949 0.0827968 0.0901705 
174 4.66667 4.66667 4.66667 0.112406 0.118265 0.128797 
175 5.37634 5.37634 5.37634 0.153460 0.161459 0.175839 
176 6.09756 6.09756 6.09756 0.202407 0.212957 0.231923 
177 0.00000 0.00000 15.7658 0.310511 0.124212 1.63521 
178 16.1120 0.00000 26.8846 1.74836 0.785341 5.32329 
179 32.7225 0.00000 37.7350 5.65125 2.66891 11.3120 
180 55.1697 100.000 66.8376 54.3480 80.2444 51.6307 
181 76.0274 100.000 89.6502 72.5220 88.8336 87.7291 
182 83.8170 100.000 100.000 81.7773 93.1597 108.285 
183 0.00000 29.3114 25.6950 3.31490 5.17564 5.58944 
184 0.00000 41.1733 30.4549 6.40056 10.6882 8.65036 
185 29.8984 47.1942 34.0317 11.4424 15.8850 11.3032 
186 32.9236 60.3051 55.6521 20.3144 27.3535 30.2832 
187 31.1545 100.000 58.1013 44.3986 75.3431 40.8673 
188 63.0366 100.000 100.000 68.7546 86.4461 107.675 
189 0.00000 28.2856 33.5007 3.85370 5.10110 9.32112 
190 0.00000 29.8372 55.2578 7.39891 6.96284 26.6234 
191 28.5391 0.00000 73.0760 11.6714 4.97104 47.8078 
192 29.6839 26.4602 100.000 22.8237 12.5334 95.8286 
193 0.00000 80.1182 100.000 40.0109 51.1454 102.376 
194 0.00000 89.6240 100.000 46.1519 63.4283 104.423 
195 0.00000 100.000 100.000 53.8073 78.7404 106.975 
196 36.5111 100.000 100.000 58.3049 81.0590 107.186 
197 23.5425 66.9481 55.4117 21.4360 32.4473 30.9602 
198 49.5805 70.1434 60.9306 31.2793 39.7613 37.8504 
199 59.0648 79.6293 77.1486 44.8232 54.0968 61.5555 
200 100.000 0.00000 0.00000 41.2385 21.2596 1.93056 
201 100.000 29.6011 0.00000 43.6969 26.1768 2.75013 
202 100.000 41.5123 53.0651 50.8903 33.3963 27.2469 
203 27.0612 0.00000 13.8725 2.56198 1.29370 1.34317 
204 41.4916 0.00000 14.3863 6.21207 3.17318 1.61589 
205 60.1351 0.00000 37.5611 15.5711 7.78536 11.6648 
206 88.7490 12.1284 63.4848 38.7084 19.7007 36.5946 
207 100.000 25.7579 70.3556 51.3793 28.2134 46.4024 
208 15.7658 0.00000 0.00000 0.709419 0.365726 0.0332111 
209 18.5185 0.00000 0.00000 1.01067 0.521029 0.0473140 
210 36.6367 15.2142 0.00000 5.10046 3.47387 0.401768 
211 36.5554 47.6870 0.00000 11.5257 16.3581 2.55010 
212 100.000 68.5373 0.00000 56.8172 52.4194 7.12411 
213 100.000 84.5388 0.00000 65.9526 70.6915 10.1696 
214 100.000 84.6773 69.3832 74.1208 74.1017 52.7452 
215 100.000 92.4786 84.7609 83.8942 86.4996 78.0463 
216 32.3052 20.0420 9.67111 4.58500 3.89955 1.06672 
217 67.6074 28.2791 32.2307 21.1549 14.0340 9.43786 
218 87.2877 34.7457 42.3424 36.8046 23.8507 16.9580 
219 38.1684 31.5363 59.8888 13.6300 10.5467 31.9570 
220 52.0709 37.1290 62.4112 20.2652 15.7154 35.5149 
221 100.000 74.5799 83.4684 72.1292 63.6350 72.0674 
222 100.000 79.0097 100.000 80.5866 71.0795 104.085 
223 0.00000 0.00000 0.00000 0.00000 0.00000 0.00000 
224 15.3853 0.00000 13.6021 0.896747 0.436376 1.21337 
225 25.1021 0.00000 22.5819 2.65735 1.29090 3.69610 
226 24.3081 31.8629 48.6413 8.42836 8.20915 20.5315 
227 36.7201 57.9948 75.0141 24.9355 27.7656 54.3210 
228 41.0036 69.3358 79.3352 32.6346 39.2962 62.7309 
229 0.00000 3.96825 0.00000 0.0296059 0.0592162 9.86985e-003 
230 0.00000 6.09756 0.00000 0.0761478 0.152307 0.0253857 
231 0.00000 0.00000 100.000 18.0500 7.22046 95.0546 
232 0.00000 18.9593 100.000 18.9729 9.06632 95.3623 
233 0.00000 30.9783 100.000 20.7670 12.6548 95.9604 
234 0.00000 36.3546 76.6856 13.9310 11.7542 54.3072 
235 0.00000 50.6723 80.2856 19.1551 20.4930 61.3208 
236 0.00000 51.3751 100.000 26.3151 23.7518 97.8100 
237 0.00000 62.0810 100.000 30.5824 32.2872 99.2326 
238 35.7082 73.6478 100.000 40.5811 45.9275 101.339 
239 60.4547 81.1115 100.000 54.2480 59.3806 103.215 
240 32.1480 45.0019 46.7497 12.9665 15.4628 20.0726 
241 87.7972 48.3468 53.7453 42.8131 32.2751 28.1232 
242 100.000 47.5294 100.000 66.2537 42.4115 99.3072 
243 23.5366 0.00000 47.8406 5.27932 2.30966 18.8637 
244 29.9369 14.0416 50.9544 7.48066 4.09112 21.8726 
245 41.8515 13.4577 73.7861 15.7564 7.69926 49.1393 
246 49.2636 39.6588 100.000 31.4192 21.0572 97.0209 
247 65.8363 50.9453 100.000 42.6101 31.9277 98.5295 
248 80.0888 90.0011 100.000 71.7193 76.9962 105.695 
249 100.000 90.5398 100.000 88.0257 85.9589 106.565 
250 37.2930 0.00000 100.000 22.7621 9.64971 95.2752 
251 52.6949 18.1757 100.000 28.9699 14.0986 95.8068 
252 43.1135 66.1946 91.0463 35.5995 38.0818 82.4507 
253 60.2775 70.8336 100.000 48.3459 47.7059 101.273 
254 51.6136 0.00000 48.4489 13.2969 6.43135 19.7635 
255 70.3715 0.00000 52.3398 23.3876 11.5550 23.7802 
256 100.000 74.5838 70.6921 68.4186 62.1541 52.5163 
257 100.000 85.5439 85.8988 79.5245 77.1621 78.4316 
258 12.5592 23.3145 13.0347 2.08886 3.21226 1.58114 
259 0.00000 100.000 27.1091 36.7801 71.9290 17.3066 
260 0.00000 100.000 48.6638 39.4605 73.0013 31.4222 
261 0.00000 100.000 67.2647 43.3038 74.5387 51.6617 
262 33.2479 100.000 75.1169 49.0384 77.2555 62.7552 
263 0.00000 21.4286 0.00000 1.20802 2.41621 0.402721 
264 0.00000 24.5098 0.00000 1.62327 3.24677 0.541155 
265 0.00000 29.6752 16.5381 2.81692 5.08230 2.64067 
266 48.3624 48.3475 30.1812 16.8725 19.2849 9.62179 
267 61.0698 49.3759 41.6163 24.1402 23.3865 17.0022 
268 62.7009 81.7322 64.3021 44.5531 56.2443 44.3340 
269 22.7125 73.8628 34.4137 21.6774 38.2415 15.2989 
270 66.8003 76.9733 43.4289 39.9733 50.1294 22.6824 
271 0.00000 0.00000 18.5185 0.442367 0.176958 2.32959 
272 0.00000 0.00000 21.4286 0.609797 0.243934 3.21130 
273 0.00000 0.00000 24.5098 0.819411 0.327786 4.31517 
274 0.00000 11.2216 24.7461 1.12811 0.917262 4.50427 
275 0.00000 17.2374 25.7710 1.66352 1.86315 5.06813 
276 0.00000 39.1053 49.1416 8.31887 10.5847 21.4371 
277 46.1857 50.6903 70.3002 23.8824 23.2652 46.8206 
278 69.8129 65.6104 92.7997 48.1780 44.0801 86.2435 
279 80.5683 66.0292 100.000 58.0435 49.1461 101.040 
280 27.1002 21.2072 0.00000 3.51574 3.56541 0.502940 
281 42.1294 27.5567 0.00000 8.26185 7.37751 0.988663 
282 60.9341 32.4667 0.00000 16.8852 13.1771 1.65370 
283 62.2054 43.5858 0.00000 20.2744 18.9992 2.59890 
284 91.2823 51.9104 15.2851 42.4888 34.4241 5.92613 
285 89.5408 61.5077 64.1772 51.4283 43.9568 41.4472 
286 90.1375 75.6175 68.4549 60.0013 58.7372 49.2875 
287 34.8487 33.9295 23.4381 8.12111 9.02828 5.20756 
288 35.1394 36.5848 75.4762 17.7734 13.8552 52.6971 
289 44.5633 44.5976 91.1039 27.7325 21.5879 79.7888 
290 39.2626 0.00000 28.7696 6.44246 3.18665 6.38537 
291 48.4528 16.3693 30.2048 10.3455 6.17546 7.44701 
292 58.4333 38.4577 40.1620 19.4507 16.2374 14.8340 
293 100.000 44.4195 39.2531 49.5490 34.1882 16.0881 
294 81.1590 39.7284 0.00000 30.7521 22.8249 2.78525 
295 100.000 51.0648 0.00000 49.3942 37.5722 4.64946 
296 100.000 83.4926 23.5856 66.0379 69.6573 13.9124 
297 100.000 84.0252 41.9848 68.3001 71.1042 24.1551 
298 67.2548 74.6440 0.00000 36.0311 46.4791 7.07279 
299 81.0442 88.6712 47.1889 56.8852 69.6776 28.5922 
300 91.8375 89.0843 67.5775 69.5510 76.1451 50.9943 
301 14.0126 9.61467 0.00000 0.754714 0.696850 0.0947376 
302 16.9525 26.5428 0.00000 2.76637 4.29768 0.683768 
303 31.2709 31.9504 0.00000 6.10698 7.46564 1.11922 
304 47.3728 41.2773 35.9545 14.9857 15.0888 12.0987 
305 0.00000 62.0662 23.9166 13.3023 25.3642 8.26462 
306 0.00000 67.7255 45.7941 18.4156 31.6499 22.1208 
307 41.5855 71.5416 53.0509 27.5853 39.1208 29.5660 
308 74.6269 0.00000 32.3325 23.1725 11.7720 8.94954 
309 78.0720 0.00000 85.9885 36.8772 17.5154 69.3215 
310 83.1804 20.8882 100.000 46.6970 23.6843 96.7230 
311 70.3443 0.00000 100.000 37.0751 17.0284 95.9453 
312 100.000 0.00000 100.000 59.2885 28.4801 96.9852 
313 100.000 28.8229 100.000 61.6070 33.1175 97.7581 
314 3.96825 0.00000 0.00000 0.0341441 0.0176023 1.59844e-003 
315 6.09756 0.00000 0.00000 0.0878204 0.0452740 4.11127e-003 
316 8.33333 0.00000 0.00000 0.174561 0.0899913 8.17199e-003 
317 52.8550 57.2833 0.00000 20.6469 26.2335 3.97563 
318 53.6584 84.2729 27.5033 36.0878 54.9200 14.2329 
319 33.3613 79.5139 0.00000 25.2863 45.1009 7.37294 
320 58.7666 100.000 0.00000 48.5679 78.1241 12.5203 
321 78.5400 100.000 0.00000 60.0002 84.0178 13.0555 
322 45.0106 66.5197 0.00000 21.7142 32.8518 5.19685 
323 57.1027 69.6649 18.3058 28.6057 38.6709 8.21747 
324 26.1641 59.3073 0.00000 13.4952 23.7837 3.87962 
325 44.6339 59.6496 31.0654 19.8541 27.1169 11.4215 
326 74.8281 60.8825 44.4657 36.8376 36.4652 21.0150 
327 68.3074 31.9428 100.000 38.7910 22.2281 96.8585 
328 82.8710 47.1435 100.000 52.1719 34.9683 98.6125 
329 60.7911 0.00000 67.8471 21.4922 10.1915 41.1479 
330 65.9927 38.6946 77.8909 31.3827 21.5538 57.1204 
331 78.0017 37.6045 77.8973 38.4613 24.8021 57.3843 
332 0.00000 10.6838 0.00000 0.261407 0.522852 0.0871463 
333 0.00000 13.1579 0.00000 0.413298 0.826656 0.137783 
334 0.00000 19.0442 13.3033 1.14571 1.94959 1.43625 
335 0.00000 42.8143 42.6413 8.30483 12.1794 16.4298 
336 0.00000 64.4928 82.5516 25.4678 31.9945 66.8930 
337 0.00000 71.4773 100.000 35.1363 41.3956 100.751 
338 32.8171 84.9422 100.000 46.5813 59.0063 103.547 
339 73.3135 24.2272 22.9316 23.1261 14.1897 5.23056 
340 100.000 27.2865 23.0988 44.0131 25.6584 6.40340 
341 100.000 27.1309 39.3836 45.5935 26.2495 14.8529 
342 83.0272 54.3398 0.00000 36.7442 32.8245 4.39962 
343 87.4240 85.6501 0.00000 56.1199 66.6916 9.91565 
344 74.1491 39.7530 13.2485 26.2756 20.5022 3.68299 
345 87.3427 47.6977 30.3763 38.9561 30.3527 10.6913 
346 0.00000 10.1748 13.9150 0.470744 0.564016 1.32081 
347 15.6823 11.9727 38.7843 3.28524 1.93252 11.9844 
348 15.6826 15.2447 53.6422 5.86030 3.33942 24.3834 
349 24.9369 24.1122 55.9510 8.54380 6.14800 27.1193 
350 48.7561 53.0508 59.0886 23.0404 24.3904 33.2400 
351 69.8384 62.4600 58.6357 37.0065 37.2901 34.4949 
352 80.6580 69.2257 77.3632 51.8934 49.2095 60.5673 
353 30.4978 7.22523 89.9176 17.4262 7.49758 75.4218 
354 49.7066 23.4173 88.0783 23.9860 12.9685 72.8044 
355 64.0802 38.4752 90.0233 34.1980 22.4723 77.6223 
356 21.6100 3.10500 36.8964 3.45108 1.57207 10.6812 
357 28.0067 16.1729 40.2857 5.60492 3.57309 13.2055 
358 15.3482 41.5322 34.6943 7.60569 11.4042 11.0235 
359 14.7746 43.4734 48.3427 9.98919 13.2269 21.1570 
360 19.3990 49.9708 48.1474 12.5130 17.5780 21.6942 
361 25.0214 86.0839 81.9725 39.3353 57.1140 70.0574 
362 45.3810 91.2188 84.3853 48.8950 67.1423 75.5149 
363 59.5380 90.7345 87.2559 55.4310 69.8974 80.6744 
364 92.7380 16.2847 12.8695 35.7970 19.4121 2.90221 
365 100.000 45.4847 20.4331 48.1109 34.1267 6.93088 
366 100.000 57.3337 37.4678 53.8433 43.1367 16.4117 
367 32.3846 14.2598 21.8618 4.58536 3.02258 3.68198 
368 43.2449 26.9351 34.7357 10.2877 8.06556 10.2620 
369 69.9888 35.7998 44.2263 25.5498 18.3696 17.9291 
370 1.93798 0.00000 0.00000 7.06011e-003 3.63969e-003 3.30516e-004 
371 13.1550 5.71747 13.3616 0.758318 0.464139 1.18077 
372 14.2148 30.6621 23.5364 3.97086 5.90423 4.85925 
373 17.3788 36.6208 23.1632 5.52816 8.59436 5.16073 
374 16.1813 54.9748 23.4533 11.0874 19.8710 7.14969 
375 18.5417 55.1642 42.5305 13.4323 20.9559 17.7708 
376 37.9717 59.1967 46.7362 19.5785 26.4596 21.8355 
377 53.5634 75.1641 50.3450 33.5229 45.1546 27.8655 
378 40.0411 87.2509 53.2584 36.5170 57.6335 32.8710 
379 60.4698 89.8141 57.7408 47.2687 65.6608 38.4576 
380 20.4654 92.4588 17.6281 31.7499 61.0000 12.1818 
381 66.7577 93.1947 15.5185 47.8798 70.1125 12.5821 
382 83.2328 68.6623 0.00000 43.1844 45.4842 6.50382 
383 97.7644 72.1792 19.6119 57.1974 55.3467 10.2996 
384 59.3242 0.00000 18.5274 13.5223 6.92000 2.94435 
385 82.6885 0.00000 48.2053 30.7754 15.4467 20.3707 
386 88.7730 21.2289 54.6054 37.6909 20.6366 27.0047 
387 52.4992 27.1707 22.9762 12.7438 9.51073 4.89038 
388 56.7803 50.1450 24.7526 20.5511 22.1316 7.57813 
389 67.7049 84.9804 25.9517 43.4185 59.3901 14.0460 
390 65.2900 100.000 30.9308 53.2719 80.3913 19.8748 
391 0.00000 11.6467 39.1790 2.61490 1.55173 12.2116 
392 13.1450 19.9507 46.1506 4.80351 3.62831 17.7214 
393 18.8489 31.7773 59.9522 9.78323 8.63287 31.8616 
394 16.0209 75.6029 90.7900 34.6601 44.8811 83.3369 
395 19.9075 89.5831 94.4745 45.1876 63.1344 93.2997 
396 77.4784 23.9615 0.00000 25.0726 15.2186 1.61634 
397 90.6963 34.8140 11.1412 36.9253 24.2337 3.49036 
398 89.2153 36.5459 25.2701 36.8698 24.7081 7.41991 
399 37.3414 11.7456 16.7622 5.40287 3.22230 2.19970 
400 40.3059 22.0965 17.7015 7.28308 5.62706 2.80205 
401 42.3398 21.6174 25.5999 8.36258 6.03539 5.45072 
402 19.7490 67.8212 16.3604 16.7241 31.1832 6.90339 
403 39.1991 72.8304 15.9180 23.3809 38.4517 7.85227 
404 32.8585 51.7517 77.8798 22.3818 22.8046 57.8191 
405 40.3143 52.3964 89.9033 28.5064 25.8595 78.3560 
406 19.6932 38.8257 59.6623 11.4181 11.8445 32.0697 
407 33.9241 45.0216 60.2941 15.9416 16.7117 33.4829 
408 62.7633 58.2549 67.8567 33.3948 32.5042 44.8400 
409 19.6233 12.4117 12.5420 1.69928 1.39400 1.16367 
410 31.1158 19.5410 19.0105 4.61904 3.79137 2.94480 
411 37.2249 28.9676 23.2179 7.76484 7.39921 4.83193 
412 40.7062 31.3679 32.0291 9.98159 9.12143 8.97091 
413 44.6135 38.6751 45.6137 14.6269 13.7409 18.7169 
414 46.6827 55.5855 46.9483 20.9720 25.0077 21.6596 
415 46.6691 56.6930 68.0325 25.7179 27.6030 44.5286 
416 57.5711 62.9558 80.7510 36.4477 36.6744 64.2796 
417 24.5962 11.4805 8.94390 2.28210 1.62078 0.660461 
418 34.1541 12.7892 10.2147 4.39146 2.82653 0.940817 
419 68.4512 29.8992 50.3097 24.4146 15.8574 22.6583 
420 69.4236 41.0463 67.1899 31.0548 22.6302 42.1910 
421 83.0684 46.8993 70.9315 42.6682 31.0587 48.2004 
422 80.0245 20.7593 40.7753 28.8986 16.2807 14.7758 
423 83.0480 35.1259 51.2173 35.1346 22.9519 24.3004 
424 87.8065 76.5563 77.6575 61.2030 59.8568 62.5830 
425 92.7636 78.4665 90.0151 70.2585 65.7095 84.0528 
426 0.00000 0.00000 0.00000 0.00000 0.00000 0.00000 
427 13.0918 2.06802 18.8355 0.937648 0.440831 2.44259 
428 13.0757 11.7306 23.9828 1.57235 1.19703 4.24277 
429 25.2035 26.2417 69.6225 12.0173 8.05542 43.5912 
430 44.8205 31.6691 84.5340 22.3862 14.3342 66.9713 
431 60.0095 54.6584 87.7089 36.4130 31.2709 75.0239 
432 84.7459 54.7949 87.6211 51.6775 39.2210 75.5980 
433 72.4739 25.6633 61.4446 28.2953 16.5391 34.1186 
434 72.7879 58.4335 64.5039 38.3608 35.2674 40.8591 
435 81.8734 66.2226 66.2487 48.3066 45.5058 44.4921 
