dispcalGUI/ti1/d3-e4-s0-g97-m3-b3-f0-crossover.ti1
CTI1   

ORIGINATOR "Argyll targen"
KEYWORD "MULTI_DIM_BCC_STEPS"
MULTI_DIM_BCC_STEPS "3"
CREATED "Fri Oct 18 17:57:51 2013"
KEYWORD "COMP_GREY_STEPS"
COMP_GREY_STEPS "97"
KEYWORD "BLACK_COLOR_PATCHES"
BLACK_COLOR_PATCHES "4"
KEYWORD "APPROX_WHITE_POINT"
APPROX_WHITE_POINT "95.106486 100.000000 108.844025"
DESCRIPTOR "Argyll Calibration Target chart information 1"
KEYWORD "MULTI_DIM_STEPS"
MULTI_DIM_STEPS "3"
KEYWORD "WHITE_COLOR_PATCHES"
WHITE_COLOR_PATCHES "4"
KEYWORD "SINGLE_DIM_STEPS"
SINGLE_DIM_STEPS "3"
KEYWORD "COLOR_REP"
COLOR_REP "RGB"

NUMBER_OF_FIELDS 7
BEGIN_DATA_FORMAT
SAMPLE_ID RGB_R RGB_G RGB_B XYZ_X XYZ_Y XYZ_Z
END_DATA_FORMAT

NUMBER_OF_SETS 145
BEGIN_DATA
1 100.000 100.000 100.000 95.1060 100.000 108.840
2 100.000 100.000 100.000 95.1060 100.000 108.840
3 100.000 100.000 100.000 95.1060 100.000 108.840
4 100.000 100.000 100.000 95.1060 100.000 108.840
5 0.00000 0.00000 0.00000 1.00000 1.00000 1.00000
6 0.00000 0.00000 0.00000 1.00000 1.00000 1.00000
7 0.00000 0.00000 0.00000 1.00000 1.00000 1.00000
8 0.00000 0.00000 0.00000 1.00000 1.00000 1.00000
9 1.04170 1.04170 1.04170 1.07588 1.07982 1.08695
10 2.08330 2.08330 2.08330 1.15174 1.15963 1.17389
11 3.12500 3.12500 3.12500 1.22762 1.23945 1.26085
12 4.16670 4.16670 4.16670 1.30373 1.31952 1.34806
13 5.20830 5.20830 5.20830 1.38828 1.40847 1.44496
14 6.25000 6.25000 6.25000 1.48518 1.51041 1.55601
15 7.29170 7.29170 7.29170 1.59490 1.62583 1.68174
16 8.33330 8.33330 8.33330 1.71785 1.75518 1.82264
17 9.37500 9.37500 9.37500 1.85450 1.89893 1.97923
18 10.4170 10.4170 10.4170 2.00527 2.05754 2.15201
19 11.4580 11.4580 11.4580 2.17034 2.23120 2.34119
20 12.5000 12.5000 12.5000 2.35042 2.42064 2.54755
21 13.5420 13.5420 13.5420 2.54569 2.62607 2.77133
22 14.5830 14.5830 14.5830 2.75631 2.84764 3.01270
23 15.6250 15.6250 15.6250 2.98301 3.08613 3.27249
24 16.6670 16.6670 16.6670 3.22592 3.34167 3.55086
25 17.7080 17.7080 17.7080 3.48510 3.61433 3.84787
26 18.7500 18.7500 18.7500 3.76135 3.90494 4.16445
27 19.7920 19.7920 19.7920 4.05473 4.21358 4.50066
28 20.8330 20.8330 20.8330 4.36523 4.54022 4.85648
29 21.8750 21.8750 21.8750 4.69372 4.88579 5.23292
30 22.9170 22.9170 22.9170 5.04019 5.25028 5.62997
31 23.9580 23.9580 23.9580 5.40455 5.63358 6.04752
32 25.0000 25.0000 25.0000 5.78777 6.03673 6.48668
33 26.0420 26.0420 26.0420 6.18977 6.45963 6.94736
34 27.0830 27.0830 27.0830 6.61038 6.90212 7.42937
35 28.1250 28.1250 28.1250 7.05067 7.36530 7.93393
36 29.1670 29.1670 29.1670 7.51048 7.84902 8.46087
37 30.2080 30.2080 30.2080 7.98958 8.35303 9.00991
38 31.2500 31.2500 31.2500 8.48913 8.87856 9.58238
39 32.2920 32.2920 32.2920 9.00891 9.42537 10.1780
40 33.3330 33.3330 33.3330 9.54862 9.99314 10.7965
41 34.3750 34.3750 34.3750 10.1095 10.5832 11.4393
42 35.4170 35.4170 35.4170 10.6913 11.1953 12.1060
43 36.4580 36.4580 36.4580 11.2936 11.8289 12.7963
44 37.5000 37.5000 37.5000 11.9179 12.4856 13.5116
45 38.5420 38.5420 38.5420 12.5636 13.1649 14.2517
46 39.5830 39.5830 39.5830 13.2305 13.8665 15.0159
47 40.6250 40.6250 40.6250 13.9200 14.5918 15.8060
48 41.6670 41.6670 41.6670 14.6316 15.3404 16.6215
49 42.7080 42.7080 42.7080 15.3648 16.1118 17.4618
50 43.7500 43.7500 43.7500 16.1213 16.9076 18.3287
51 44.7920 44.7920 44.7920 16.9005 17.7273 19.2216
52 45.8330 45.8330 45.8330 17.7019 18.5704 20.1400
53 46.8750 46.8750 46.8750 18.5272 19.4386 21.0857
54 47.9170 47.9170 47.9170 19.3757 20.3313 22.0582
55 48.9580 48.9580 48.9580 20.2469 21.2478 23.0566
56 50.0000 50.0000 50.0000 21.1427 22.1901 24.0831
57 51.0420 51.0420 51.0420 22.0622 23.1575 25.1369
58 52.0830 52.0830 52.0830 23.0049 24.1492 26.2172
59 53.1250 53.1250 53.1250 23.9727 25.1673 27.3263
60 54.1670 54.1670 54.1670 24.9649 26.2111 28.4633
61 55.2080 55.2080 55.2080 25.9807 27.2796 29.6273
62 56.2500 56.2500 56.2500 27.0221 28.3752 30.8208
63 57.2920 57.2920 57.2920 28.0884 29.4970 32.0428
64 58.3330 58.3330 58.3330 29.1788 30.6441 33.2923
65 59.3750 59.3750 59.3750 30.2954 31.8187 34.5719
66 60.4170 60.4170 60.4170 31.4374 33.0201 35.8806
67 61.4580 61.4580 61.4580 32.6038 34.2472 37.2173
68 62.5000 62.5000 62.5000 33.7971 35.5025 38.5847
69 63.5420 63.5420 63.5420 35.0162 36.7850 39.9818
70 64.5830 64.5830 64.5830 36.2601 38.0937 41.4074
71 65.6250 65.6250 65.6250 37.5315 39.4311 42.8643
72 66.6670 66.6670 66.6670 38.8291 40.7962 44.3514
73 67.7080 67.7080 67.7080 40.1520 42.1879 45.8674
74 68.7500 68.7500 68.7500 41.5028 43.6089 47.4154
75 69.7920 69.7920 69.7920 42.8804 45.0582 48.9940
76 70.8330 70.8330 70.8330 44.2836 46.5343 50.6021
77 71.8750 71.8750 71.8750 45.7152 48.0404 52.2427
78 72.9170 72.9170 72.9170 47.1741 49.5751 53.9145
79 73.9580 73.9580 73.9580 48.6589 51.1371 55.6161
80 75.0000 75.0000 75.0000 50.1727 52.7296 57.3508
81 76.0420 76.0420 76.0420 51.7141 54.3512 59.1173
82 77.0830 77.0830 77.0830 53.2819 56.0005 60.9139
83 78.1250 78.1250 78.1250 54.8791 57.6808 62.7443
84 79.1670 79.1670 79.1670 56.5044 59.3906 64.6069
85 80.2080 80.2080 80.2080 58.1564 61.1285 66.5000
86 81.2500 81.2500 81.2500 59.8383 62.8979 68.4275
87 82.2920 82.2920 82.2920 61.5488 64.6973 70.3876
88 83.3330 83.3330 83.3330 63.2862 66.5251 72.3787
89 84.3750 84.3750 84.3750 65.0541 68.3849 74.4046
90 85.4170 85.4170 85.4170 66.8509 70.2752 76.4638
91 86.4580 86.4580 86.4580 68.6750 72.1941 78.5541
92 87.5000 87.5000 87.5000 70.5301 74.1456 80.6800
93 88.5420 88.5420 88.5420 72.4145 76.1280 82.8394
94 89.5830 89.5830 89.5830 74.3264 78.1394 85.0305
95 90.6250 90.6250 90.6250 76.2698 80.1838 87.2576
96 91.6670 91.6670 91.6670 78.2429 82.2595 89.5188
97 92.7080 92.7080 92.7080 80.2440 84.3646 91.8119
98 93.7500 93.7500 93.7500 82.2769 86.5032 94.1415
99 94.7920 94.7920 94.7920 84.3399 88.6735 96.5057
100 95.8330 95.8330 95.8330 86.4311 90.8735 98.9022
101 96.8750 96.8750 96.8750 88.5546 93.1074 101.336
102 97.9170 97.9170 97.9170 90.7086 95.3735 103.804
103 98.9580 98.9580 98.9580 92.8912 97.6695 106.305
104 0.00000 0.00000 50.0000 4.82515 2.52982 21.1475
105 0.00000 0.00000 100.000 18.8711 8.14731 95.1290
106 0.00000 50.0000 0.00000 8.57817 16.1542 3.52608
107 0.00000 50.0000 50.0000 12.4033 17.6840 23.6735
108 0.00000 50.0000 100.000 26.4493 23.3015 97.6550
109 0.00000 100.000 0.00000 36.4052 71.8005 12.8018
110 0.00000 100.000 50.0000 40.2304 73.3303 32.9493
111 0.00000 100.000 100.000 54.2763 78.9478 106.931
112 25.0000 25.0000 75.0000 14.2166 9.40773 50.8822
113 25.0000 75.0000 25.0000 22.4865 39.4295 12.0530
114 25.0000 75.0000 75.0000 30.9153 42.8005 56.4485
115 50.0000 0.00000 0.00000 9.73934 5.50603 1.40951
116 50.0000 0.00000 50.0000 13.5645 7.03585 21.5570
117 50.0000 0.00000 100.000 27.6104 12.6533 95.5385
118 50.0000 50.0000 0.00000 17.3175 20.6603 3.93559
119 50.0000 50.0000 100.000 35.1886 27.8076 98.0645
120 50.0000 100.000 0.00000 45.1445 76.3065 13.2113
121 50.0000 100.000 50.0000 48.9697 77.8364 33.3588
122 50.0000 100.000 100.000 63.0157 83.4539 107.340
123 75.0000 25.0000 25.0000 25.0451 15.9659 7.38905
124 75.0000 25.0000 75.0000 33.4740 19.3369 51.7845
125 75.0000 75.0000 25.0000 41.7438 49.3586 12.9553
126 100.000 0.00000 0.00000 41.8302 22.0522 2.91323
127 100.000 0.00000 50.0000 45.6553 23.5820 23.0607
128 100.000 0.00000 100.000 59.7013 29.1995 97.0422
129 100.000 50.0000 0.00000 49.4083 37.2064 5.43931
130 100.000 50.0000 50.0000 53.2335 38.7362 25.5868
131 100.000 50.0000 100.000 67.2794 44.3537 99.5683
132 100.000 100.000 0.00000 77.2354 92.8527 14.7151
133 100.000 100.000 50.0000 81.0605 94.3825 34.8625
134 0.00000 12.5000 100.000 19.3792 9.16329 95.2983
135 12.5000 0.00000 100.000 19.4570 8.44941 95.1564
136 0.00000 100.000 12.5000 36.6617 71.9031 14.1526
137 12.5000 100.000 0.00000 36.9911 72.1026 12.8293
138 100.000 0.00000 12.5000 42.0866 22.1547 4.26397
139 100.000 12.5000 0.00000 42.3382 23.0681 3.08259
140 0.00000 25.0000 100.000 20.6724 11.7494 95.7294
141 25.0000 0.00000 100.000 20.9484 9.21837 95.2263
142 0.00000 100.000 25.0000 37.3144 72.1641 17.5907
143 25.0000 100.000 0.00000 38.4825 72.8716 12.8992
144 100.000 0.00000 25.0000 42.7394 22.4158 7.70214
145 100.000 25.0000 0.00000 43.6314 25.6542 3.51366
END_DATA
CTI1   

ORIGINATOR "Argyll targen"
KEYWORD "DENSITY_EXTREME_VALUES"
DENSITY_EXTREME_VALUES "8"
CREATED "October 18, 2013"
DESCRIPTOR "Argyll Calibration Target chart information 1"

KEYWORD "INDEX"
NUMBER_OF_FIELDS 7
BEGIN_DATA_FORMAT
INDEX RGB_R RGB_G RGB_B XYZ_X XYZ_Y XYZ_Z
END_DATA_FORMAT

NUMBER_OF_SETS 8
BEGIN_DATA
0 100.00 100.00 100.00 95.106 100.00 108.84
1 0.0000 47.361 100.00 25.613 21.629 97.376
2 100.00 0.0000 79.351 52.426 26.290 58.722
3 0.0000 0.0000 58.997 6.4858 3.1940 29.894
4 100.00 66.659 0.0000 56.059 50.505 7.6561
5 0.0000 35.601 0.0000 4.6856 8.3702 2.2286
6 84.444 0.0000 0.0000 28.843 15.356 2.3047
7 0.0000 0.0000 0.0000 1.0000 1.0000 1.0000
END_DATA
CTI1   

ORIGINATOR "Argyll targen"
CREATED "October 18, 2013"
DESCRIPTOR "Argyll Calibration Target chart information 1"
KEYWORD "DEVICE_COMBINATION_VALUES"
DEVICE_COMBINATION_VALUES "9"

KEYWORD "INDEX"
NUMBER_OF_FIELDS 7
BEGIN_DATA_FORMAT
INDEX RGB_R RGB_G RGB_B XYZ_X XYZ_Y XYZ_Z
END_DATA_FORMAT

NUMBER_OF_SETS 9
BEGIN_DATA
0 100.00 100.00 100.00 95.106 100.00 108.84
1 0.0000 100.00 100.00 54.276 78.948 106.93
2 100.00 0.0000 100.00 59.701 29.199 97.042
3 0.0000 0.0000 100.00 18.871 8.1473 95.129
4 100.00 100.00 0.0000 77.235 92.853 14.715
5 0.0000 100.00 0.0000 36.405 71.801 12.802
6 100.00 0.0000 0.0000 41.830 22.052 2.9132
7 0.0000 0.0000 0.0000 1.0000 1.0000 1.0000
8 50.000 50.000 50.000 21.143 22.190 24.083
END_DATA