dispcalGUI/ti1/d3-e4-s29-g85-m0-f994-caRGB.ti1
CTI1   

ORIGINATOR "Argyll targen"
KEYWORD "OFPS_PATCHES"
OFPS_PATCHES "819"
CREATED "Sat Oct 19 13:35:01 2013"
KEYWORD "COMP_GREY_STEPS"
COMP_GREY_STEPS "85"
KEYWORD "BLACK_COLOR_PATCHES"
BLACK_COLOR_PATCHES "4"
KEYWORD "APPROX_WHITE_POINT"
APPROX_WHITE_POINT "95.045781 100.000003 108.905751"
DESCRIPTOR "Argyll Calibration Target chart information 1"
KEYWORD "ACCURATE_EXPECTED_VALUES"
ACCURATE_EXPECTED_VALUES "true"
KEYWORD "WHITE_COLOR_PATCHES"
WHITE_COLOR_PATCHES "4"
KEYWORD "SINGLE_DIM_STEPS"
SINGLE_DIM_STEPS "29"
KEYWORD "COLOR_REP"
COLOR_REP "RGB"

NUMBER_OF_FIELDS 7
BEGIN_DATA_FORMAT
SAMPLE_ID RGB_R RGB_G RGB_B XYZ_X XYZ_Y XYZ_Z
END_DATA_FORMAT

NUMBER_OF_SETS 994
BEGIN_DATA
1 100.000000 100.000000 100.000000 95.0458000 100.000000 108.906000
2 98.8095000 98.8095000 98.8095000 92.5751000 97.4006000 106.075000
3 13.0947000 22.7183000 0.00000000 1.37240000 2.75023000 0.30245500
4 21.2748000 23.3546000 0.00000000 2.67513000 3.54988000 0.37844700
5 28.6285000 53.2441000 35.2456000 10.2233000 18.3460000 11.9448000
6 44.7636000 100.000000 59.4742000 34.4047000 70.2140000 39.1467000
7 52.7627000 100.000000 72.7201000 42.0319000 73.7608000 56.9312000
8 0.00000000 37.2272000 17.0365000 2.49609000 7.29435000 2.82684000
9 0.00000000 51.5564000 19.6807000 4.84987000 14.8248000 4.42396000
10 0.00000000 66.3010000 21.3687000 8.14774000 25.6626000 6.19126000
11 67.3249000 74.3311000 65.1066000 41.1463000 48.0595000 43.3920000
12 71.2591000 81.2646000 88.6741000 53.5795000 59.6467000 81.8676000
13 78.1568000 85.0061000 100.000000 65.3424000 68.7122000 105.651000
14 15.4762000 15.4762000 15.4762000 1.56974000 1.65156000 1.79864000
15 10.7143000 10.7143000 10.7143000 0.69921300 0.73566000 0.80117600
16 14.2857000 0.00000000 0.00000000 0.79867800 0.41181700 0.03744670
17 10.7143000 0.00000000 0.00000000 0.42423300 0.21874400 0.01989050
18 35.7143000 0.00000000 0.00000000 5.99141000 3.08931000 0.28091200
19 39.2857000 0.00000000 0.00000000 7.38857000 3.80971000 0.34641900
20 42.8571000 0.00000000 0.00000000 8.94676000 4.61315000 0.41947600
21 46.4286000 0.00000000 0.00000000 10.6688000 5.50107000 0.50021500
22 50.0000000 0.00000000 0.00000000 12.5573000 6.47483000 0.58875900
23 53.5714000 0.00000000 0.00000000 14.6148000 7.53571000 0.68522500
24 60.7143000 0.00000000 0.00000000 19.2458000 9.92358000 0.90235600
25 64.2857000 0.00000000 0.00000000 21.8237000 11.2528000 1.02322000
26 67.8571000 0.00000000 0.00000000 24.5793000 12.6736000 1.15242000
27 71.4286000 0.00000000 0.00000000 27.5144000 14.1870000 1.29003000
28 75.0000000 0.00000000 0.00000000 30.6309000 15.7940000 1.43615000
29 78.5714000 0.00000000 0.00000000 33.9306000 17.4954000 1.59086000
30 82.1429000 0.00000000 0.00000000 37.4152000 19.2921000 1.75424000
31 85.7143000 0.00000000 0.00000000 41.0863000 21.1850000 1.92636000
32 89.2857000 0.00000000 0.00000000 44.9455000 23.1749000 2.10730000
33 92.8571000 0.00000000 0.00000000 48.9944000 25.2626000 2.29714000
34 96.4286000 0.00000000 0.00000000 53.2344000 27.4488000 2.49594000
35 100.000000 0.00000000 0.00000000 57.6670000 29.7344000 2.70376000
36 100.000000 85.5618000 0.00000000 70.8361000 74.2575000 7.71979000
37 100.000000 100.000000 0.00000000 76.2231000 92.4704000 9.77168000
38 0.00000000 74.5105000 83.3317000 22.3200000 37.8891000 70.0852000
39 0.00000000 85.5345000 82.6767000 25.5475000 49.4473000 70.2549000
40 0.00000000 100.000000 86.0253000 32.0741000 68.1435000 78.2633000
41 0.00000000 32.1429000 0.00000000 1.52918000 5.16997000 0.58245500
42 0.00000000 35.7143000 0.00000000 1.92792000 6.51806000 0.73433300
43 20.8218000 77.9461000 54.8346000 17.5781000 39.2217000 30.6172000
44 73.2987000 77.2888000 58.9541000 45.5420000 52.9731000 36.3886000
45 81.5218000 77.8620000 60.6498000 53.7657000 57.6640000 38.8097000
46 87.7504000 88.0014000 67.3767000 65.1707000 72.8299000 48.9630000
47 70.1724000 41.9505000 32.9931000 30.8509000 23.5873000 10.9391000
48 100.000000 46.0318000 49.5744000 65.0582000 42.7331000 25.1719000
49 93.4076000 43.1284000 53.5921000 57.3289000 37.3722000 28.5843000
50 100.000000 44.0278000 62.7528000 67.4768000 42.7641000 39.4446000
51 64.0199000 0.00000000 17.1353000 22.0147000 11.3063000 3.06219000
52 100.000000 0.00000000 30.4880000 59.0479000 30.2868000 9.97671000
53 100.000000 53.7145000 86.6507000 76.1324000 51.2217000 76.8441000
54 100.000000 57.0787000 100.000000 81.8962000 55.5429000 103.897000
55 0.00000000 67.8571000 0.00000000 7.90915000 26.7398000 3.01254000
56 0.00000000 71.4286000 0.00000000 8.85361000 29.9329000 3.37228000
57 0.00000000 75.0000000 0.00000000 9.85645000 33.3234000 3.75426000
58 72.9118000 74.1656000 0.00000000 38.4035000 47.3565000 5.01270000
59 100.000000 100.000000 86.1334000 89.7784000 97.8929000 81.1639000
60 100.000000 100.000000 100.000000 95.0458000 100.000000 108.906000
61 0.00000000 78.5714000 0.00000000 10.9182000 36.9131000 4.15868000
62 0.00000000 96.4286000 0.00000000 17.1298000 57.9137000 6.52464000
63 0.00000000 100.000000 0.00000000 18.5562000 62.7360000 7.06792000
64 0.00000000 100.000000 40.8334000 21.1817000 63.7863000 20.8960000
65 11.7969000 15.5827000 0.00000000 0.83538000 1.32219000 0.14308500
66 11.9048000 11.9048000 11.9048000 0.88153700 0.92748700 1.01009000
67 35.3055000 0.00000000 39.9769000 8.34757000 4.01453000 13.4721000
68 39.8284000 0.00000000 54.6590000 12.6008000 5.92091000 26.6163000
69 53.6094000 20.7105000 53.0403000 19.8861000 11.3808000 25.4873000
70 77.9633000 57.5272000 63.0703000 45.6866000 38.5276000 39.6334000
71 100.000000 60.2798000 65.2087000 71.1131000 53.2842000 43.7372000
72 48.4956000 27.3558000 0.00000000 12.8139000 9.68041000 0.95904700
73 68.2880000 27.6952000 0.00000000 26.0259000 16.5773000 1.58835000
74 74.7432000 45.3149000 0.00000000 33.6552000 26.6784000 2.66499000
75 100.000000 51.8267000 0.00000000 62.0395000 44.5172000 4.36922000
76 100.000000 80.7804000 56.4259000 74.6189000 71.1074000 35.2864000
77 58.4988000 56.1259000 63.4571000 29.8681000 29.5286000 39.2775000
78 61.6216000 71.0548000 80.8258000 40.4220000 44.5569000 66.3392000
79 27.1283000 31.3557000 37.1977000 6.85938000 7.43861000 11.9690000
80 48.2103000 32.6591000 51.8317000 17.6099000 13.1050000 24.5111000
81 51.2135000 31.5740000 61.7719000 21.2327000 14.4065000 35.5465000
82 50.8758000 40.5767000 74.3372000 25.4035000 19.2794000 53.2230000
83 66.3959000 45.8964000 76.9152000 37.3454000 27.6247000 58.0328000
84 0.00000000 0.00000000 71.4286000 8.98076000 3.59257000 47.2994000
85 0.00000000 0.00000000 75.0000000 9.99800000 3.99950000 52.6569000
86 0.00000000 0.00000000 78.5714000 11.0750000 4.43034000 58.3293000
87 0.00000000 0.00000000 82.1429000 12.2124000 4.88532000 64.3196000
88 0.00000000 0.00000000 85.7143000 13.4107000 5.36466000 70.6305000
89 0.00000000 0.00000000 89.2857000 14.6703000 5.86856000 77.2648000
90 0.00000000 0.00000000 92.8571000 15.9919000 6.39723000 84.2251000
91 0.00000000 0.00000000 96.4286000 17.3758000 6.95085000 91.5141000
92 59.0158000 0.00000000 100.000000 36.9042000 16.8529000 99.9818000
93 79.4389000 0.00000000 100.000000 53.5826000 25.4526000 100.764000
94 12.3913000 0.00000000 11.0186000 0.73137400 0.36009000 0.80300700
95 7.14286000 0.00000000 0.00000000 0.17391700 0.08967530 0.00815422
96 0.00000000 0.00000000 7.14286000 0.05676680 0.02270840 0.29897600
97 3.57143000 3.57143000 3.57143000 0.06241890 0.06567240 0.07152100
98 4.76190000 4.76190000 4.76190000 0.11751200 0.12363800 0.13464800
99 1.19048000 1.19048000 1.19048000 0.00557214 0.00586258 0.00638469
100 2.38095000 2.38095000 2.38095000 0.02558900 0.02692280 0.02932040
101 0.00000000 0.00000000 3.57143000 0.01236130 0.00494488 0.06510370
102 0.00000000 3.57143000 0.00000000 0.01218630 0.04120020 0.00464167
103 5.95238000 5.95238000 5.95238000 0.19196000 0.20196500 0.21995200
104 13.0952000 13.0952000 13.0952000 1.08711000 1.14377000 1.24563000
105 14.2857000 14.2857000 14.2857000 1.31637000 1.38498000 1.50833000
106 16.6667000 16.6667000 16.6667000 1.84760000 1.94391000 2.11703000
107 17.8571000 17.8571000 17.8571000 2.15032000 2.26241000 2.46389000
108 19.0476000 19.0476000 19.0476000 2.47825000 2.60743000 2.83964000
109 20.2381000 20.2381000 20.2381000 2.83171000 2.97931000 3.24464000
110 21.4286000 21.4286000 21.4286000 3.21100000 3.37837000 3.67924000
111 22.6190000 22.6190000 22.6190000 3.61643000 3.80494000 4.14380000
112 23.8095000 23.8095000 23.8095000 4.04829000 4.25930000 4.63863000
113 25.0000000 25.0000000 25.0000000 4.50683000 4.74175000 5.16404000
114 26.1905000 26.1905000 26.1905000 4.99233000 5.25255000 5.72033000
115 27.3810000 27.3810000 27.3810000 5.50502000 5.79197000 6.30779000
116 28.5714000 28.5714000 28.5714000 6.04517000 6.36027000 6.92670000
117 29.7619000 29.7619000 29.7619000 6.61299000 6.95769000 7.57732000
118 30.9524000 30.9524000 30.9524000 7.20871000 7.58446000 8.25992000
119 32.1429000 32.1429000 32.1429000 7.83256000 8.24083000 8.97474000
120 33.3333000 33.3333000 33.3333000 8.48475000 8.92701000 9.72203000
121 34.5238000 34.5238000 34.5238000 9.16547000 9.64322000 10.5020000
122 35.7143000 35.7143000 35.7143000 9.87494000 10.3897000 11.3149000
123 36.9048000 36.9048000 36.9048000 10.6133000 11.1666000 12.1610000
124 38.0952000 38.0952000 38.0952000 11.3809000 11.9741000 13.0405000
125 39.2857000 39.2857000 39.2857000 12.1777000 12.8125000 13.9535000
126 40.4762000 40.4762000 40.4762000 13.0041000 13.6819000 14.9004000
127 41.6667000 41.6667000 41.6667000 13.8601000 14.5825000 15.8812000
128 42.8571000 42.8571000 42.8571000 14.7459000 15.5145000 16.8962000
129 44.0476000 44.0476000 44.0476000 15.6618000 16.4781000 17.9456000
130 45.2381000 45.2381000 45.2381000 16.6078000 17.4734000 19.0296000
131 46.4286000 46.4286000 46.4286000 17.5841000 18.5007000 20.1483000
132 47.6190000 47.6190000 47.6190000 18.5910000 19.5600000 21.3020000
133 48.8095000 48.8095000 48.8095000 19.6285000 20.6516000 22.4908000
134 50.0000000 50.0000000 50.0000000 20.6967000 21.7756000 23.7148000
135 51.1905000 51.1905000 51.1905000 21.7960000 22.9321000 24.9743000
136 52.3810000 52.3810000 52.3810000 22.9263000 24.1213000 26.2695000
137 53.5714000 53.5714000 53.5714000 24.0878000 25.3434000 27.6004000
138 54.7619000 54.7619000 54.7619000 25.2808000 26.5985000 28.9673000
139 55.9524000 55.9524000 55.9524000 26.5052000 27.8867000 30.3703000
140 57.1429000 57.1429000 57.1429000 27.7612000 29.2083000 31.8095000
141 58.3333000 58.3333000 58.3333000 29.0491000 30.5633000 33.2852000
142 59.5238000 59.5238000 59.5238000 30.3689000 31.9518000 34.7974000
143 60.7143000 60.7143000 60.7143000 31.7207000 33.3741000 36.3463000
144 61.9048000 61.9048000 61.9048000 33.1046000 34.8302000 37.9321000
145 63.0952000 63.0952000 63.0952000 34.5209000 36.3202000 39.5548000
146 64.2857000 64.2857000 64.2857000 35.9695000 37.8444000 41.2147000
147 65.4762000 65.4762000 65.4762000 37.4507000 39.4028000 42.9119000
148 66.6667000 66.6667000 66.6667000 38.9645000 40.9956000 44.6465000
149 67.8571000 67.8571000 67.8571000 40.5112000 42.6228000 46.4187000
150 69.0476000 69.0476000 69.0476000 42.0907000 44.2846000 48.2285000
151 70.2381000 70.2381000 70.2381000 43.7031000 45.9812000 50.0761000
152 71.4286000 71.4286000 71.4286000 45.3488000 47.7125000 51.9617000
153 72.6190000 72.6190000 72.6190000 47.0276000 49.4789000 53.8853000
154 73.8095000 73.8095000 73.8095000 48.7397000 51.2803000 55.8472000
155 75.0000000 75.0000000 75.0000000 50.4853000 53.1169000 57.8473000
156 76.1905000 76.1905000 76.1905000 52.2645000 54.9887000 59.8859000
157 77.3810000 77.3810000 77.3810000 54.0773000 56.8960000 61.9630000
158 78.5714000 78.5714000 78.5714000 55.9238000 58.8388000 64.0789000
159 79.7619000 79.7619000 79.7619000 57.8042000 60.8173000 66.2335000
160 80.9524000 80.9524000 80.9524000 59.7186000 62.8314000 68.4270000
161 82.1429000 82.1429000 82.1429000 61.6670000 64.8814000 70.6596000
162 83.3333000 83.3333000 83.3333000 63.6496000 66.9674000 72.9313000
163 84.5238000 84.5238000 84.5238000 65.6665000 69.0893000 75.2423000
164 85.7143000 85.7143000 85.7143000 67.7177000 71.2475000 77.5926000
165 86.9048000 86.9048000 86.9048000 69.8034000 73.4418000 79.9824000
166 88.0952000 88.0952000 88.0952000 71.9236000 75.6726000 82.4118000
167 89.2857000 89.2857000 89.2857000 74.0784000 77.9397000 84.8808000
168 90.4762000 90.4762000 90.4762000 76.2680000 80.2434000 87.3897000
169 91.6667000 91.6667000 91.6667000 78.4924000 82.5838000 89.9385000
170 92.8571000 92.8571000 92.8571000 80.7517000 84.9609000 92.5272000
171 94.0476000 94.0476000 94.0476000 83.0460000 87.3748000 95.1561000
172 95.2381000 95.2381000 95.2381000 85.3754000 89.8256000 97.8252000
173 96.4286000 96.4286000 96.4286000 87.7400000 92.3134000 100.535000
174 21.2790000 16.9528000 0.00000000 2.29289000 2.25523000 0.23258100
175 28.0019000 17.7454000 10.7616000 4.06280000 3.26510000 1.05863000
176 69.7225000 53.3079000 0.00000000 30.7418000 29.1804000 2.99517000
177 88.6226000 56.3848000 0.00000000 49.4777000 40.5918000 4.07771000
178 100.000000 62.6705000 55.4836000 69.4600000 54.2455000 32.3714000
179 100.000000 75.3666000 64.4099000 74.7833000 66.2787000 44.1748000
180 100.000000 91.0273000 67.6743000 80.7325000 83.9431000 50.4553000
181 60.7963000 49.4300000 20.9036000 23.8453000 23.5149000 5.57712000
182 100.000000 77.7877000 22.2450000 69.0375000 66.1187000 10.4079000
183 100.000000 88.9718000 24.8046000 72.8953000 78.6043000 12.7902000
184 0.00000000 50.0000000 0.00000000 4.04071000 13.6611000 1.53908000
185 0.00000000 53.5714000 0.00000000 4.70276000 15.8994000 1.79125000
186 0.00000000 39.2857000 0.00000000 2.37750000 8.03804000 0.90557600
187 0.00000000 42.8571000 0.00000000 2.87890000 9.73319000 1.09655000
188 0.00000000 46.4286000 0.00000000 3.43302000 11.6066000 1.30761000
189 0.00000000 47.0440000 44.9358000 6.77472000 13.2440000 18.4147000
190 0.00000000 0.00000000 17.8571000 0.42584500 0.17035100 2.24282000
191 0.00000000 0.00000000 21.4286000 0.63589900 0.25437900 3.34912000
192 12.0887000 0.00000000 20.0587000 1.10311000 0.50522200 2.92216000
193 23.5383000 0.00000000 29.1116000 3.64260000 1.73400000 6.68260000
194 36.3530000 23.5128000 43.5766000 10.0276000 7.02330000 16.5387000
195 40.7123000 32.2234000 42.9179000 12.4585000 10.4909000 16.3886000
196 50.2400000 48.1161000 71.3035000 25.3499000 22.6768000 49.1268000
197 52.4448000 70.0151000 100.000000 41.2429000 43.3669000 103.015000
198 24.0963000 42.4875000 44.1058000 8.45697000 12.0941000 17.5770000
199 41.5374000 57.7205000 51.2736000 18.2250000 24.7733000 25.3169000
200 49.3380000 67.4409000 57.0453000 25.4746000 34.8593000 32.3906000
201 0.00000000 10.7143000 0.00000000 0.13651000 0.46152300 0.05199580
202 0.00000000 0.00000000 0.00000000 0.00000000 0.00000000 0.00000000
203 7.14286000 7.14286000 7.14286000 0.28664600 0.30158800 0.32844600
204 13.2194000 23.5512000 63.1417000 8.29255000 5.69520000 36.3896000
205 31.8929000 56.2747000 64.9350000 17.1944000 23.0393000 40.5702000
206 33.6313000 59.3548000 76.2087000 21.4975000 26.7698000 57.0317000
207 69.4873000 63.1829000 78.6426000 43.7539000 40.6476000 62.2346000
208 100.000000 70.3885000 100.000000 85.0622000 66.2467000 105.103000
209 25.8785000 20.5985000 43.1895000 6.49520000 4.65246000 16.0009000
210 28.1000000 20.2390000 100.000000 22.9115000 11.2221000 99.5105000
211 48.3183000 17.7504000 100.000000 30.8841000 14.9359000 99.8380000
212 72.5711000 57.1257000 100.000000 52.7305000 40.5325000 102.533000
213 86.5737000 59.2978000 100.000000 66.6999000 49.0629000 103.343000
214 89.3627000 100.000000 100.000000 82.4096000 93.4845000 108.313000
215 57.1429000 0.00000000 0.00000000 16.8435000 8.68491000 0.78972300
216 100.000000 31.3779000 0.00000000 59.1173000 34.6376000 3.25617000
217 100.000000 64.0018000 17.6931000 65.0387000 53.4134000 7.55043000
218 0.00000000 38.1046000 67.0938000 10.0487000 10.6466000 42.0622000
219 0.00000000 47.9364000 67.4375000 11.5970000 15.6176000 43.0840000
220 0.00000000 18.2530000 19.8036000 0.97520100 1.70334000 2.98364000
221 14.2681000 25.6339000 18.0253000 2.16093000 3.72779000 2.68100000
222 11.3521000 23.7809000 22.5332000 1.98026000 3.19757000 4.06342000
223 32.1142000 22.0275000 21.5212000 6.05095000 4.95428000 3.85713000
224 38.6719000 21.4187000 18.9759000 8.25006000 5.99205000 3.13666000
225 81.9615000 24.5221000 17.6991000 38.4947000 22.2168000 4.26634000
226 100.000000 30.0733000 18.9194000 59.4715000 34.3939000 5.75365000
227 100.000000 58.5142000 28.9933000 64.6135000 49.5341000 11.3905000
228 100.000000 88.3215000 47.1461000 75.3901000 78.9177000 27.0521000
229 49.8671000 81.3539000 30.6182000 25.6646000 46.8438000 12.4162000
230 58.8506000 100.000000 42.0702000 39.3303000 73.1235000 22.6764000
231 33.0216000 75.2285000 43.2125000 17.9390000 37.3368000 19.6779000
232 43.6717000 100.000000 43.7498000 30.9368000 68.7665000 23.5987000
233 88.5121000 100.000000 58.8789000 68.5215000 87.8205000 40.0606000
234 100.000000 100.000000 68.1366000 84.3187000 95.7089000 52.4090000
235 14.0655000 10.2605000 0.00000000 0.89596700 0.81760700 0.08346410
236 17.8571000 0.00000000 0.00000000 1.30466000 0.67271300 0.06117010
237 25.0000000 0.00000000 0.00000000 2.73442000 1.40993000 0.12820600
238 28.5714000 0.00000000 0.00000000 3.66777000 1.89119000 0.17196700
239 32.1429000 0.00000000 0.00000000 4.75224000 2.45036000 0.22281200
240 31.5936000 22.6093000 0.00000000 5.28084000 4.74402000 0.48320000
241 32.2425000 30.5156000 0.00000000 6.14878000 7.07886000 0.74390200
242 30.8170000 64.4752000 41.1702000 14.0732000 27.1992000 16.9754000
243 33.7513000 79.9992000 61.6434000 23.1455000 43.7308000 38.7836000
244 40.9301000 83.1785000 100.000000 39.2843000 53.5400000 104.227000
245 47.5794000 100.000000 100.000000 48.6378000 76.0710000 106.730000
246 0.00000000 50.6512000 33.4803000 5.85399000 14.7342000 10.5193000
247 13.5735000 67.9247000 77.2942000 19.3231000 31.4399000 59.3170000
248 28.8584000 77.8314000 81.3270000 26.3899000 42.8653000 67.1718000
249 57.9029000 52.0375000 46.1486000 25.1881000 25.2310000 20.5915000
250 57.6832000 51.9828000 100.000000 40.4199000 31.2771000 101.617000
251 64.3594000 64.4386000 100.000000 47.7607000 42.6773000 102.849000
252 71.4179000 75.0006000 100.000000 56.1846000 55.0360000 104.178000
253 0.00000000 20.6155000 36.9671000 2.68543000 2.79054000 11.3303000
254 23.3004000 25.0485000 44.3745000 6.37830000 5.45624000 17.0496000
255 22.2902000 35.8848000 57.8373000 9.71864000 9.94068000 30.5765000
256 49.1903000 34.4553000 100.000000 32.7187000 19.7995000 100.381000
257 46.4234000 0.00000000 37.2532000 12.8119000 6.35808000 11.8011000
258 52.6744000 0.00000000 51.2204000 18.4039000 8.98989000 23.4230000
259 85.4937000 0.00000000 89.1486000 55.4749000 26.9141000 78.9196000
260 100.000000 0.00000000 100.000000 76.4896000 37.2640000 101.838000
261 31.5963000 23.5955000 12.8093000 5.55623000 5.06126000 1.58982000
262 42.2267000 35.4631000 18.5063000 11.0188000 11.0672000 3.55510000
263 89.4368000 100.000000 21.1145000 64.2847000 86.2435000 12.4252000
264 100.000000 100.000000 30.0448000 77.5603000 93.0053000 16.8141000
265 28.4342000 23.2735000 67.3715000 12.2779000 7.57191000 42.0480000
266 32.2112000 26.9874000 89.8147000 20.6777000 11.9269000 78.8955000
267 66.0595000 42.4451000 100.000000 44.8110000 29.0052000 101.294000
268 82.5031000 43.1843000 100.000000 59.5271000 36.9056000 102.020000
269 40.5153000 38.2431000 51.1531000 14.4571000 13.3771000 23.9213000
270 61.2296000 61.5910000 50.5947000 30.2049000 33.4008000 25.5094000
271 40.4628000 78.1925000 34.7761000 20.5314000 41.3259000 14.1984000
272 62.7886000 80.2994000 34.0938000 33.9406000 50.1129000 14.6338000
273 86.3632000 100.000000 41.9625000 63.1175000 85.3906000 23.7094000
274 100.000000 100.000000 49.1107000 80.1633000 94.0465000 30.5233000
275 55.6384000 51.6764000 27.3592000 21.3166000 23.3140000 8.13137000
276 73.7082000 51.7930000 35.2557000 35.7496000 30.7240000 13.0565000
277 73.9166000 51.8277000 52.2023000 38.5452000 31.8827000 26.7899000
278 49.9685000 16.5864000 39.8306000 15.3826000 8.66690000 13.8161000
279 60.5742000 20.6129000 46.6162000 23.2373000 13.2248000 19.6209000
280 85.3067000 23.6281000 100.000000 60.2576000 31.1212000 101.336000
281 100.000000 25.3505000 100.000000 77.3969000 40.3313000 102.183000
282 100.000000 42.5566000 100.000000 79.3243000 46.8477000 102.918000
283 0.00000000 11.9593000 22.9641000 0.91428100 0.88393900 3.96591000
284 0.00000000 0.00000000 25.0000000 0.89252200 0.35703600 4.70069000
285 0.00000000 0.00000000 28.5714000 1.19717000 0.47890400 6.30519000
286 0.00000000 0.00000000 50.0000000 4.09874000 1.63962000 21.5870000
287 18.0975000 43.7320000 72.1310000 13.5295000 14.5390000 49.5378000
288 30.0248000 100.000000 77.8243000 33.4915000 69.1834000 64.3762000
289 28.7295000 100.000000 89.7234000 37.0976000 70.5823000 85.3422000
290 0.00000000 36.3174000 39.2014000 4.40052000 7.72275000 13.4035000
291 11.2664000 37.8672000 46.7968000 6.20992000 9.07526000 19.5193000
292 26.6027000 59.9631000 52.8675000 13.7940000 23.8420000 26.8458000
293 77.4850000 70.2301000 63.7564000 48.4324000 48.6054000 41.6327000
294 35.9777000 44.2639000 26.7128000 10.2124000 14.0024000 6.90094000
295 40.2615000 49.0415000 53.0417000 16.3377000 18.9797000 26.4214000
296 55.5339000 78.7275000 56.9807000 32.2476000 47.4163000 33.6935000
297 61.9284000 100.000000 59.2429000 44.6105000 75.4822000 39.3578000
298 0.00000000 17.9309000 48.2838000 4.21933000 2.95066000 20.1523000
299 0.00000000 27.1115000 50.9515000 5.32387000 5.26449000 22.9013000
300 0.00000000 26.8514000 64.0802000 8.10293000 6.31045000 37.6456000
301 21.0588000 17.7302000 25.6481000 3.23252000 2.74178000 5.21819000
302 39.5215000 31.0207000 23.1859000 9.65692000 8.94402000 4.87269000
303 49.6666000 32.3183000 21.4928000 14.5616000 11.8686000 4.54087000
304 62.3241000 100.000000 22.0447000 39.6189000 73.5182000 11.5883000
305 76.2648000 100.000000 22.2704000 51.0267000 79.3985000 12.2032000
306 0.00000000 17.8571000 0.00000000 0.41981600 1.41934000 0.15990500
307 0.00000000 14.2857000 0.00000000 0.25700000 0.86888300 0.09788950
308 9.52381000 9.52381000 9.52381000 0.53965200 0.56778200 0.61834700
309 18.8222000 43.2476000 23.0649000 5.14928000 10.9836000 5.12477000
310 35.8279000 48.3062000 20.5208000 10.3573000 16.0062000 4.75464000
311 46.2043000 100.000000 22.8213000 29.8423000 68.4709000 11.4094000
312 28.5963000 100.000000 0.00000000 22.2309000 64.6308000 7.24021000
313 49.8309000 100.000000 0.00000000 31.0203000 69.1628000 7.65231000
314 67.7422000 100.000000 0.00000000 43.0440000 75.3625000 8.21605000
315 83.4837000 100.000000 0.00000000 57.3276000 82.7274000 8.88575000
316 57.4998000 67.3933000 20.2075000 25.4255000 35.3678000 6.71175000
317 69.3291000 67.3431000 22.8788000 34.2795000 39.8763000 8.03861000
318 72.5559000 100.000000 43.5879000 50.0655000 78.6326000 24.3660000
319 0.00000000 65.2417000 35.6013000 9.19620000 25.3023000 12.9912000
320 0.00000000 69.2821000 50.7565000 12.5154000 29.6849000 25.4652000
321 0.00000000 70.7522000 67.1474000 16.5096000 32.4491000 44.5903000
322 0.00000000 0.00000000 32.1429000 1.55114000 0.62050300 8.16947000
323 0.00000000 0.00000000 35.7143000 1.95561000 0.78230300 10.2997000
324 78.0038000 25.7322000 34.9123000 36.1917000 21.1326000 11.7207000
325 84.3392000 24.0314000 46.5865000 43.9656000 24.5754000 20.6443000
326 64.4160000 0.00000000 30.0795000 23.2617000 11.8393000 8.08813000
327 63.6970000 0.00000000 44.3265000 24.5316000 12.2855000 17.5664000
328 67.5720000 0.00000000 62.8800000 31.1380000 15.2711000 36.8779000
329 92.5942000 13.4661000 72.8186000 58.2851000 29.6167000 51.7161000
