dispcalGUI/ti1/d3-e4-s25-g73-m7-b7-f0.ti1
CTI1   

ORIGINATOR "Argyll targen"
KEYWORD "MULTI_DIM_BCC_STEPS"
MULTI_DIM_BCC_STEPS "7"
CREATED "Sat Oct 19 04:53:33 2013"
KEYWORD "COMP_GREY_STEPS"
COMP_GREY_STEPS "73"
KEYWORD "BLACK_COLOR_PATCHES"
BLACK_COLOR_PATCHES "4"
KEYWORD "APPROX_WHITE_POINT"
APPROX_WHITE_POINT "95.106486 100.000000 108.844025"
DESCRIPTOR "Argyll Calibration Target chart information 1"
KEYWORD "MULTI_DIM_STEPS"
MULTI_DIM_STEPS "7"
KEYWORD "WHITE_COLOR_PATCHES"
WHITE_COLOR_PATCHES "4"
KEYWORD "SINGLE_DIM_STEPS"
SINGLE_DIM_STEPS "25"
KEYWORD "COLOR_REP"
COLOR_REP "RGB"

NUMBER_OF_FIELDS 7
BEGIN_DATA_FORMAT
SAMPLE_ID RGB_R RGB_G RGB_B XYZ_X XYZ_Y XYZ_Z
END_DATA_FORMAT

NUMBER_OF_SETS 679
BEGIN_DATA
1 100.000 100.000 100.000 95.1065 100.000 108.844
2 0.00000 16.6667 33.3333 3.46086 3.32388 9.82998
3 0.00000 16.6667 50.0000 5.66257 4.20442 21.4266
4 0.00000 16.6667 66.6667 9.02121 5.54766 39.1169
5 0.00000 50.0000 16.6667 9.00087 16.3233 5.75245
6 0.00000 66.6667 16.6667 15.6548 29.6293 7.97045
7 0.00000 83.3333 16.6667 24.8565 48.0302 11.0377
8 41.6667 75.0000 8.33333 25.5506 41.0987 8.16187
9 58.3333 91.6667 25.0000 43.1958 65.7803 16.0487
10 0.00000 8.33333 0.00000 1.27008 1.54008 1.09003
11 2.77778 2.77778 2.77778 1.20233 1.21285 1.23186
12 12.5000 12.5000 12.5000 2.35042 2.42064 2.54755
13 25.0000 8.33333 8.33333 3.48368 2.66565 1.90539
14 25.0000 0.00000 0.00000 3.07728 2.07105 1.09734
15 29.1667 0.00000 0.00000 3.82465 2.45640 1.13236
16 33.3333 0.00000 0.00000 4.70908 2.91242 1.17380
17 37.5000 0.00000 0.00000 5.73696 3.44239 1.22197
18 41.6667 0.00000 0.00000 6.91425 4.04941 1.27713
19 45.8333 0.00000 0.00000 8.24660 4.73637 1.33956
20 50.0000 0.00000 0.00000 9.73934 5.50603 1.40951
21 54.1667 0.00000 0.00000 11.3976 6.36102 1.48721
22 58.3333 0.00000 0.00000 13.2261 7.30384 1.57290
23 62.5000 0.00000 0.00000 15.2297 8.33690 1.66678
24 66.6667 0.00000 0.00000 17.4128 9.46250 1.76908
25 70.8333 0.00000 0.00000 19.7797 10.6829 1.87999
26 75.0000 0.00000 0.00000 22.3346 12.0002 1.99970
27 79.1667 0.00000 0.00000 25.0816 13.4165 2.12842
28 83.3333 0.00000 0.00000 28.0245 14.9339 2.26632
29 87.5000 0.00000 0.00000 31.1672 16.5543 2.41358
30 91.6667 0.00000 0.00000 34.5133 18.2796 2.57037
31 95.8333 0.00000 0.00000 38.0664 20.1116 2.73687
32 100.000 0.00000 0.00000 41.8302 22.0522 2.91323
33 100.000 66.6667 50.0000 59.8874 52.0422 27.8048
34 100.000 83.3333 50.0000 69.0892 70.4431 30.8720
35 0.00000 12.5000 0.00000 1.50806 2.01598 1.16935
36 0.00000 16.6667 0.00000 1.83742 2.67460 1.27914
37 0.00000 20.8333 0.00000 2.26612 3.53189 1.42204
38 0.00000 25.0000 0.00000 2.80128 4.60205 1.60043
39 0.00000 29.1667 0.00000 3.44935 5.89801 1.81646
40 0.00000 33.3333 0.00000 4.21627 7.43164 2.07210
41 0.00000 37.5000 0.00000 5.10758 9.21400 2.36920
42 0.00000 41.6667 0.00000 6.12844 11.2555 2.70950
43 0.00000 45.8333 0.00000 7.28377 13.5658 3.09461
44 0.00000 50.0000 0.00000 8.57817 16.1542 3.52608
45 0.00000 54.1667 0.00000 10.0161 19.0296 4.00538
46 0.00000 58.3333 0.00000 11.6017 22.2004 4.53393
47 0.00000 0.00000 0.00000 1.00000 1.00000 1.00000
48 0.00000 66.6667 0.00000 15.2321 29.4602 5.74408
49 0.00000 70.8333 0.00000 17.2845 33.5645 6.42822
50 0.00000 75.0000 0.00000 19.5000 37.9948 7.16671
51 0.00000 79.1667 0.00000 21.8820 42.7581 7.96071
52 0.00000 83.3333 0.00000 24.4338 47.8611 8.81135
53 0.00000 87.5000 0.00000 27.1590 53.3106 9.71972
54 0.00000 91.6667 0.00000 30.0605 59.1128 10.6869
55 0.00000 95.8333 0.00000 33.1416 65.2741 11.7139
56 0.00000 100.000 0.00000 36.4052 71.8005 12.8018
57 83.3333 100.000 16.6667 63.8524 85.9035 16.2945
58 9.72222 9.72222 9.72222 1.90315 1.95012 2.03499
59 0.00000 0.00000 12.5000 1.25645 1.10256 2.35074
60 0.00000 0.00000 16.6667 1.42269 1.16905 3.22637
61 0.00000 0.00000 20.8333 1.63909 1.25559 4.36613
62 0.00000 0.00000 25.0000 1.90921 1.36363 5.78891
63 0.00000 0.00000 29.1667 2.23633 1.49445 7.51188
64 0.00000 0.00000 33.3333 2.62344 1.64927 9.55084
65 0.00000 0.00000 37.5000 3.07334 1.82920 11.9205
66 0.00000 0.00000 41.6667 3.58863 2.03529 14.6346
67 0.00000 0.00000 45.8333 4.17179 2.26852 17.7061
68 0.00000 0.00000 50.0000 4.82515 2.52982 21.1475
69 0.00000 0.00000 54.1667 5.55095 2.82009 24.9703
70 0.00000 0.00000 58.3333 6.35130 3.14018 29.1859
71 0.00000 0.00000 62.5000 7.22826 3.49091 33.8049
72 0.00000 0.00000 66.6667 8.18379 3.87306 38.8378
73 0.00000 0.00000 70.8333 9.21977 4.28739 44.2944
74 0.00000 0.00000 75.0000 10.3380 4.73463 50.1844
75 0.00000 0.00000 79.1667 11.5404 5.21548 56.5172
76 0.00000 0.00000 83.3333 12.8285 5.73063 63.3017
77 0.00000 0.00000 87.5000 14.2040 6.28076 70.5467
78 0.00000 0.00000 91.6667 15.6685 6.86649 78.2607
79 0.00000 0.00000 95.8333 17.2237 7.48847 86.4521
80 0.00000 0.00000 100.000 18.8711 8.14731 95.1290
81 33.3333 66.6667 100.000 36.8123 38.5200 100.047
82 0.00000 0.00000 8.33333 1.13632 1.05452 1.71803
83 0.00000 4.16667 0.00000 1.11427 1.22850 1.03809
84 0.00000 0.00000 4.16667 1.05768 1.02307 1.30380
85 0.00000 0.00000 0.00000 1.00000 1.00000 1.00000
86 1.38889 1.38889 1.38889 1.10116 1.10642 1.11593
87 4.16667 4.16667 4.16667 1.30372 1.31952 1.34806
88 5.55556 5.55556 5.55556 1.41919 1.44098 1.48038
89 8.33333 8.33333 8.33333 1.71786 1.75519 1.82265
90 13.8889 13.8889 13.8889 2.61414 2.69807 2.84977
91 15.2778 15.2778 15.2778 2.90569 3.00478 3.18388
92 16.6667 16.6667 16.6667 3.22584 3.34159 3.55077
93 18.0556 18.0556 18.0556 3.57536 3.70928 3.95131
94 19.4444 19.4444 19.4444 3.95495 4.10861 4.38632
95 20.8333 20.8333 20.8333 4.36533 4.54033 4.85660
96 22.2222 22.2222 22.2222 4.80716 5.00513 5.36292
97 23.6111 23.6111 23.6111 5.28109 5.50371 5.90604
98 25.0000 25.0000 25.0000 5.78777 6.03673 6.48668
99 26.3889 26.3889 26.3889 6.32780 6.60485 7.10555
100 27.7778 27.7778 27.7778 6.90179 7.20869 7.76333
101 29.1667 29.1667 29.1667 7.51032 7.84886 8.46069
102 30.5556 30.5556 30.5556 8.15397 8.52597 9.19829
103 31.9444 31.9444 31.9444 8.83328 9.24060 9.97677
104 33.3333 33.3333 33.3333 9.54879 9.99333 10.7967
105 34.7222 34.7222 34.7222 10.3011 10.7847 11.6588
106 36.1111 36.1111 36.1111 11.0906 11.6153 12.5636
107 37.5000 37.5000 37.5000 11.9179 12.4856 13.5116
108 38.8889 38.8889 38.8889 12.7834 13.3962 14.5036
109 40.2778 40.2778 40.2778 13.6878 14.3475 15.5399
110 41.6667 41.6667 41.6667 14.6313 15.3402 16.6212
111 43.0556 43.0556 43.0556 15.6146 16.3746 17.7480
112 44.4444 44.4444 44.4444 16.6381 17.4512 18.9209
113 45.8333 45.8333 45.8333 17.7021 18.5707 20.1403
114 47.2222 47.2222 47.2222 18.8073 19.7333 21.4068
115 48.6111 48.6111 48.6111 19.9540 20.9396 22.7209
116 50.0000 50.0000 50.0000 21.1427 22.1901 24.0831
117 51.3889 51.3889 51.3889 22.3737 23.4851 25.4938
118 52.7778 52.7778 52.7778 23.6475 24.8252 26.9536
119 54.1667 54.1667 54.1667 24.9646 26.2107 28.4629
120 55.5556 55.5556 55.5556 26.3253 27.6422 30.0222
121 56.9444 56.9444 56.9444 27.7300 29.1199 31.6320
122 58.3333 58.3333 58.3333 29.1791 30.6444 33.2927
123 59.7222 59.7222 59.7222 30.6731 32.2161 35.0048
124 61.1111 61.1111 61.1111 32.2123 33.8353 36.7686
125 62.5000 62.5000 62.5000 33.7971 35.5025 38.5847
126 63.8889 63.8889 63.8889 35.4278 37.2181 40.4535
127 65.2778 65.2778 65.2778 37.1049 38.9824 42.3755
128 66.6667 66.6667 66.6667 38.8287 40.7958 44.3509
129 68.0556 68.0556 68.0556 40.5996 42.6588 46.3803
130 69.4444 69.4444 69.4444 42.4179 44.5716 48.4641
131 70.8333 70.8333 70.8333 44.2840 46.5348 50.6026
132 72.2222 72.2222 72.2222 46.1983 48.5486 52.7963
133 73.6111 73.6111 73.6111 48.1611 50.6134 55.0456
134 75.0000 75.0000 75.0000 50.1727 52.7296 57.3508
135 76.3889 76.3889 76.3889 52.2335 54.8976 59.7124
136 77.7778 77.7778 77.7778 54.3438 57.1176 62.1308
137 79.1667 79.1667 79.1667 56.5039 59.3901 64.6063
138 80.5556 80.5556 80.5556 58.7142 61.7154 67.1393
139 81.9444 81.9444 81.9444 60.9751 64.0938 69.7302
140 83.3333 83.3333 83.3333 63.2868 66.5257 72.3793
141 84.7222 84.7222 84.7222 65.6496 69.0114 75.0871
142 86.1111 86.1111 86.1111 68.0640 71.5513 77.8539
143 87.5000 87.5000 87.5000 70.5301 74.1456 80.6800
144 88.8889 88.8889 88.8889 73.0483 76.7948 83.5658
145 90.2778 90.2778 90.2778 75.6189 79.4991 86.5117
146 91.6667 91.6667 91.6667 78.2423 82.2589 89.5180
147 93.0556 93.0556 93.0556 80.9187 85.0744 92.5851
148 94.4444 94.4444 94.4444 83.6484 87.9461 95.7133
149 95.8333 95.8333 95.8333 86.4317 90.8742 98.9029
150 97.2222 97.2222 97.2222 89.2690 93.8590 102.154
151 16.6667 0.00000 0.00000 1.96573 1.49793 1.04525
152 12.5000 0.00000 0.00000 1.58591 1.30210 1.02745
153 33.3333 16.6667 0.00000 5.54650 4.58702 1.45294
154 50.0000 16.6667 0.00000 10.5768 7.18063 1.68865
155 66.6667 16.6667 0.00000 18.2502 11.1371 2.04822
156 83.3333 16.6667 0.00000 28.8619 16.6085 2.54546
157 100.000 16.6667 0.00000 42.6676 23.7268 3.19237
158 100.000 66.6667 33.3333 57.6857 51.1617 16.2081
159 100.000 83.3333 33.3333 66.8875 69.5626 19.2754
160 50.0000 33.3333 0.00000 12.9556 11.9377 2.48161
161 66.6667 33.3333 0.00000 20.6291 15.8941 2.84118
162 83.3333 33.3333 0.00000 31.2408 21.3656 3.33842
163 100.000 33.3333 0.00000 45.0464 28.4838 3.98533
164 33.3333 33.3333 0.00000 7.92535 9.34406 2.24590
165 33.3333 50.0000 0.00000 12.2873 18.0666 3.69988
166 50.0000 50.0000 0.00000 17.3175 20.6603 3.93559
167 66.6667 50.0000 0.00000 24.9910 24.6167 4.29515
168 83.3333 50.0000 0.00000 35.6027 30.0881 4.79240
169 100.000 50.0000 0.00000 49.4083 37.2064 5.43931
170 100.000 100.000 16.6667 77.6581 93.0217 16.9414
171 33.3333 66.6667 0.00000 18.9412 31.3726 5.91788
172 50.0000 66.6667 0.00000 23.9714 33.9663 6.15359
173 66.6667 66.6667 0.00000 31.6449 37.9227 6.51315
174 83.3333 66.6667 0.00000 42.2566 43.3942 7.01040
175 100.000 66.6667 0.00000 56.0623 50.5124 7.65731
176 100.000 83.3333 0.00000 65.2640 68.9133 10.7246
177 50.0000 83.3333 0.00000 33.1732 52.3672 9.22086
178 66.6667 83.3333 0.00000 40.8467 56.3236 9.58042
179 4.16667 0.00000 0.00000 1.13178 1.06794 1.00617
180 6.94444 6.94444 6.94444 1.55687 1.58583 1.63816
181 16.6667 83.3333 0.00000 25.3996 48.3591 8.85660
182 16.6667 100.000 0.00000 37.3709 72.2985 12.8471
183 33.3333 100.000 0.00000 40.1143 73.7129 12.9756
184 50.0000 100.000 0.00000 45.1445 76.3065 13.2113
185 66.6667 100.000 0.00000 52.8180 80.2630 13.5709
186 83.3333 100.000 0.00000 63.4297 85.7344 14.0682
187 100.000 100.000 0.00000 77.2354 92.8527 14.7151
188 100.000 100.000 50.0000 81.0605 94.3825 34.8625
189 98.6111 98.6111 98.6111 92.1605 96.9008 105.468
190 20.8333 0.00000 0.00000 2.46012 1.75284 1.06842
191 66.6667 0.00000 16.6667 17.8355 9.63156 3.99545
192 83.3333 0.00000 16.6667 28.4472 15.1030 4.49270
193 100.000 0.00000 16.6667 42.2529 22.2212 5.13961
194 100.000 33.3333 50.0000 48.8716 30.0136 24.1328
195 33.3333 16.6667 16.6667 5.96919 4.75607 3.67932
196 50.0000 16.6667 16.6667 10.9994 7.34968 3.91503
197 66.6667 16.6667 16.6667 18.6729 11.3062 4.27459
198 83.3333 16.6667 16.6667 29.2846 16.7776 4.77184
199 100.000 16.6667 16.6667 43.0903 23.8958 5.41875
200 8.33333 0.00000 0.00000 1.31146 1.16059 1.01459
201 11.1111 11.1111 11.1111 2.11371 2.17162 2.27628
202 0.00000 33.3333 16.6667 4.63896 7.60069 4.29847
203 50.0000 33.3333 16.6667 13.3783 12.1067 4.70798
204 66.6667 33.3333 16.6667 21.0518 16.0632 5.06755
205 83.3333 33.3333 16.6667 31.6635 21.5346 5.56479
206 100.000 33.3333 16.6667 45.4691 28.6529 6.21170
207 100.000 83.3333 16.6667 65.6867 69.0824 12.9510
208 33.3333 33.3333 16.6667 8.34805 9.51311 4.47227
209 33.3333 50.0000 16.6667 12.7099 18.2357 5.92625
210 50.0000 50.0000 16.6667 17.7402 20.8293 6.16196
211 66.6667 50.0000 16.6667 25.4137 24.7858 6.52153
212 83.3333 50.0000 16.6667 36.0254 30.2572 7.01877
213 100.000 50.0000 16.6667 49.8310 37.3754 7.66568
214 16.6667 50.0000 16.6667 9.96660 16.8212 5.79771
215 16.6667 66.6667 16.6667 16.6205 30.1272 8.01570
216 33.3333 66.6667 16.6667 19.3639 31.5417 8.14425
217 50.0000 66.6667 16.6667 24.3941 34.1353 8.37996
218 66.6667 66.6667 16.6667 32.0676 38.0918 8.73953
219 83.3333 66.6667 16.6667 42.6793 43.5632 9.23677
220 100.000 66.6667 16.6667 56.4850 50.6815 9.88368
221 16.6667 33.3333 16.6667 5.60470 8.09863 4.34373
222 16.6667 83.3333 16.6667 25.8223 48.5281 11.0830
223 33.3333 83.3333 16.6667 28.5656 49.9426 11.2115
224 50.0000 83.3333 16.6667 33.5959 52.5362 11.4472
225 66.6667 83.3333 16.6667 41.2694 56.4927 11.8068
226 83.3333 83.3333 16.6667 51.8810 61.9641 12.3040
227 0.00000 62.5000 0.00000 13.3391 25.6747 5.11306
228 0.00000 100.000 16.6667 36.8279 71.9696 15.0282
229 16.6667 100.000 16.6667 37.7936 72.4675 15.0735
230 33.3333 100.000 16.6667 40.5370 73.8820 15.2020
231 50.0000 100.000 16.6667 45.5672 76.4756 15.4377
232 66.6667 100.000 16.6667 53.2407 80.4321 15.7973
233 83.3333 100.000 33.3333 65.0531 86.3837 22.6190
234 100.000 100.000 33.3333 78.8588 93.5020 23.2659
235 16.6667 0.00000 16.6667 2.38843 1.66699 3.27163
236 33.3333 0.00000 16.6667 5.13178 3.08147 3.40018
237 50.0000 0.00000 16.6667 10.1620 5.67508 3.63588
238 66.6667 0.00000 33.3333 19.0363 10.1118 10.3199
239 83.3333 0.00000 33.3333 29.6479 15.5832 10.8172
240 100.000 0.00000 33.3333 43.4536 22.7014 11.4641
241 100.000 0.00000 66.6667 49.0140 24.9252 40.7510
242 0.00000 16.6667 16.6667 2.26011 2.84365 3.50552
243 33.3333 16.6667 33.3333 7.16994 5.23629 10.0038
244 50.0000 16.6667 33.3333 12.2002 7.82991 10.2395
245 66.6667 16.6667 33.3333 19.8737 11.7864 10.5991
246 83.3333 16.6667 33.3333 30.4854 17.2578 11.0963
247 100.000 16.6667 33.3333 44.2910 24.3760 11.7432
248 100.000 16.6667 50.0000 46.4927 25.2566 23.3398
249 50.0000 0.00000 33.3333 11.3628 6.15530 9.96035
250 50.0000 33.3333 33.3333 14.5790 12.5869 11.0324
251 66.6667 33.3333 33.3333 22.2525 16.5434 11.3920
252 83.3333 33.3333 33.3333 32.8642 22.0148 11.8893
253 100.000 33.3333 33.3333 46.6699 29.1331 12.5362
254 100.000 50.0000 33.3333 51.0318 37.8557 13.9901
255 100.000 50.0000 50.0000 53.2335 38.7362 25.5868
256 33.3333 50.0000 33.3333 13.9107 18.7159 12.2507
257 50.0000 50.0000 33.3333 18.9409 21.3095 12.4864
258 66.6667 50.0000 33.3333 26.6144 25.2660 12.8460
259 83.3333 50.0000 33.3333 37.2261 30.7374 13.3432
260 16.6667 33.3333 33.3333 6.80544 8.57885 10.6682
261 16.6667 50.0000 33.3333 11.1673 17.3014 12.1222
262 16.6667 66.6667 33.3333 17.8213 30.6074 14.3402
263 33.3333 66.6667 33.3333 20.5646 32.0219 14.4687
264 50.0000 66.6667 33.3333 25.5949 34.6155 14.7044
265 66.6667 66.6667 33.3333 33.2684 38.5720 15.0640
266 83.3333 66.6667 33.3333 43.8800 44.0434 15.5612
267 16.6667 50.0000 0.00000 9.54390 16.6522 3.57133
268 16.6667 66.6667 0.00000 16.1978 29.9582 5.78933
269 16.6667 83.3333 33.3333 27.0230 49.0083 17.4074
270 33.3333 83.3333 33.3333 29.7664 50.4228 17.5360
271 50.0000 83.3333 33.3333 34.7966 53.0164 17.7717
272 66.6667 83.3333 33.3333 42.4701 56.9729 18.1313
273 66.6667 100.000 33.3333 54.4415 80.9123 22.1217
274 0.00000 83.3333 33.3333 26.0573 48.5104 17.3622
275 0.00000 100.000 33.3333 38.0287 72.4498 21.3527
276 16.6667 100.000 33.3333 38.9944 72.9477 21.3979
277 33.3333 100.000 33.3333 41.7377 74.3622 21.5265
278 50.0000 100.000 33.3333 46.7680 76.9558 21.7622
279 100.000 100.000 100.000 95.1065 100.000 108.844
280 33.3333 83.3333 0.00000 28.1429 49.7736 8.98515
281 83.3333 83.3333 0.00000 51.4583 61.7951 10.0777
282 83.3333 83.3333 33.3333 53.0818 62.4443 18.6285
283 16.6667 0.00000 33.3333 3.58917 2.14721 9.59609
284 50.0000 0.00000 50.0000 13.5645 7.03585 21.5570
285 66.6667 0.00000 50.0000 21.2380 10.9923 21.9165
286 83.3333 0.00000 50.0000 31.8496 16.4637 22.4138
287 100.000 0.00000 50.0000 45.6553 23.5820 23.0607
288 33.3333 0.00000 33.3333 6.33252 3.56169 9.72464
289 33.3333 0.00000 50.0000 8.53423 4.44223 21.3213
290 33.3333 16.6667 50.0000 9.37165 6.11684 21.6004
291 50.0000 16.6667 50.0000 14.4019 8.71045 21.8361
292 66.6667 16.6667 50.0000 22.0754 12.6669 22.1957
293 83.3333 16.6667 50.0000 32.6871 18.1383 22.6929
294 83.3333 83.3333 50.0000 55.2835 63.3249 30.2251
295 16.6667 16.6667 0.00000 2.80315 3.17254 1.32439
296 16.6667 33.3333 0.00000 5.18200 7.92957 2.11735
297 33.3333 33.3333 50.0000 11.7505 10.8739 22.3934
298 50.0000 33.3333 50.0000 16.7808 13.4675 22.6291
299 66.6667 33.3333 50.0000 24.4542 17.4240 22.9886
300 83.3333 33.3333 50.0000 35.0659 22.8954 23.4859
301 0.00000 33.3333 33.3333 5.83971 8.08091 10.6229
302 0.00000 33.3333 50.0000 8.04142 8.96146 22.2196
303 16.6667 33.3333 50.0000 9.00715 9.45939 22.2648
304 33.3333 50.0000 50.0000 16.1124 19.5965 23.8473
305 66.6667 50.0000 50.0000 28.8161 26.1465 24.4426
306 83.3333 50.0000 50.0000 39.4278 31.6180 24.9399
307 83.3333 66.6667 50.0000 46.0818 44.9240 27.1579
308 16.6667 50.0000 50.0000 13.3691 18.1820 23.7188
309 16.6667 66.6667 50.0000 20.0230 31.4880 25.9368
310 33.3333 66.6667 50.0000 22.7663 32.9025 26.0653
311 50.0000 66.6667 50.0000 27.7966 35.4961 26.3011
312 66.6667 66.6667 50.0000 35.4701 39.4526 26.6606
313 0.00000 50.0000 50.0000 12.4033 17.6840 23.6735
314 0.00000 66.6667 50.0000 19.0573 30.9901 25.8915
315 0.00000 83.3333 50.0000 28.2590 49.3910 28.9588
316 16.6667 83.3333 50.0000 29.2247 49.8889 29.0041
317 33.3333 83.3333 50.0000 31.9681 51.3034 29.1326
318 50.0000 83.3333 50.0000 36.9983 53.8970 29.3683
319 66.6667 83.3333 50.0000 44.6718 57.8535 29.7279
320 0.00000 50.0000 33.3333 10.2016 16.8035 12.0769
321 0.00000 66.6667 33.3333 16.8555 30.1095 14.2949
322 0.00000 100.000 50.0000 40.2304 73.3303 32.9493
323 16.6667 100.000 50.0000 41.1961 73.8283 32.9946
324 33.3333 100.000 50.0000 43.9394 75.2428 33.1231
325 50.0000 100.000 50.0000 48.9697 77.8364 33.3588
326 66.6667 100.000 50.0000 56.6432 81.7928 33.7184
327 83.3333 100.000 50.0000 67.2549 87.2643 34.2156
328 16.6667 0.00000 50.0000 5.79088 3.02775 21.1927
329 16.6667 0.00000 66.6667 9.14952 4.37100 38.8830
330 33.3333 0.00000 66.6667 11.8929 5.78548 39.0116
331 50.0000 0.00000 66.6667 16.9231 8.37909 39.2473
332 66.6667 0.00000 66.6667 24.5966 12.3356 39.6068
333 83.3333 0.00000 66.6667 35.2083 17.8070 40.1041
334 16.6667 16.6667 33.3333 4.42659 3.82181 9.87523
335 16.6667 16.6667 50.0000 6.62830 4.70235 21.4719
336 16.6667 16.6667 66.6667 9.98694 6.04560 39.1621
337 33.3333 16.6667 66.6667 12.7303 7.46008 39.2907
338 50.0000 16.6667 66.6667 17.7605 10.0537 39.5264
339 66.6667 16.6667 66.6667 25.4340 14.0102 39.8860
340 83.3333 16.6667 66.6667 36.0457 19.4816 40.3832
341 83.3333 33.3333 66.6667 38.4246 24.2386 41.1762
342 83.3333 33.3333 83.3333 43.0692 26.0962 65.6401
343 83.3333 66.6667 100.000 60.1277 50.5415 101.139
344 33.3333 33.3333 66.6667 15.1091 12.2171 40.0837
345 50.0000 33.3333 66.6667 20.1394 14.8107 40.3194
346 66.6667 33.3333 66.6667 27.8129 18.7672 40.6789
347 66.6667 33.3333 100.000 38.5002 23.0415 96.9701
348 8.33333 41.6667 58.3333 11.7912 13.5562 30.9100
349 0.00000 50.0000 66.6667 15.7620 19.0273 41.3638
350 16.6667 50.0000 66.6667 16.7277 19.5252 41.4091
351 33.3333 50.0000 66.6667 19.4710 20.9397 41.5376
352 50.0000 50.0000 66.6667 24.5013 23.5333 41.7733
353 66.6667 50.0000 66.6667 32.1748 27.4898 42.1329
354 8.33333 41.6667 8.33333 6.57623 11.4706 3.44212
355 8.33333 58.3333 58.3333 17.2645 24.5012 32.7344
356 0.00000 66.6667 66.6667 22.4159 32.3333 43.5818
357 16.6667 66.6667 66.6667 23.3816 32.8312 43.6271
358 33.3333 66.6667 66.6667 26.1250 34.2457 43.7556
359 50.0000 66.6667 66.6667 31.1552 36.8393 43.9913
360 58.3333 75.0000 75.0000 41.0642 48.0333 56.9240
361 8.33333 41.6667 41.6667 9.02853 12.4513 16.3587
362 8.33333 58.3333 41.6667 14.5018 23.3963 18.1831
363 16.6667 83.3333 66.6667 32.5834 51.2321 46.6943
364 33.3333 83.3333 66.6667 35.3267 52.6466 46.8229
365 50.0000 83.3333 66.6667 40.3570 55.2402 47.0586
366 50.0000 83.3333 83.3333 45.0016 57.0978 71.5225
367 8.33333 91.6667 25.0000 31.2812 59.6371 15.4904
368 8.33333 91.6667 58.3333 35.7232 61.4136 38.8874
369 0.00000 100.000 66.6667 43.5890 74.6736 50.6396
370 16.6667 100.000 66.6667 44.5547 75.1715 50.6848
371 33.3333 100.000 66.6667 47.2981 76.5860 50.8134
372 50.0000 100.000 66.6667 52.3283 79.1796 51.0491
373 66.6667 100.000 66.6667 60.0018 83.1361 51.4087
374 83.3333 100.000 66.6667 70.6135 88.6075 51.9059
375 100.000 100.000 66.6667 84.4192 95.7257 52.5528
376 25.0000 8.33333 58.3333 8.69866 4.75131 29.3732
377 33.3333 0.00000 83.3333 16.5375 7.64305 63.4755
378 50.0000 0.00000 83.3333 21.5678 10.2367 63.7112
379 66.6667 0.00000 83.3333 29.2413 14.1931 64.0707
380 83.3333 0.00000 83.3333 39.8529 19.6646 64.5680
381 91.6667 8.33333 91.6667 49.4519 24.6861 79.9211
382 0.00000 16.6667 83.3333 13.6659 7.40523 63.5808
383 16.6667 16.6667 83.3333 14.6316 7.90317 63.6261
384 33.3333 16.6667 83.3333 17.3750 9.31765 63.7546
385 50.0000 16.6667 83.3333 22.4052 11.9113 63.9903
386 66.6667 16.6667 83.3333 30.0787 15.8677 64.3499
387 83.3333 16.6667 83.3333 40.6904 21.3392 64.8471
388 83.3333 83.3333 100.000 69.3294 68.9424 104.207
389 16.6667 33.3333 66.6667 12.3658 10.8026 39.9551
390 16.6667 33.3333 83.3333 17.0105 12.6602 64.4190
391 33.3333 33.3333 83.3333 19.7538 14.0747 64.5476
392 50.0000 33.3333 83.3333 24.7841 16.6683 64.7833
393 66.6667 33.3333 83.3333 32.4575 20.6248 65.1428
394 75.0000 41.6667 91.6667 42.1316 28.1222 80.9699
395 8.33333 25.0000 58.3333 8.46404 6.90283 29.8009
396 8.33333 25.0000 75.0000 12.4508 8.49727 50.7994
397 16.6667 50.0000 83.3333 21.3724 21.3828 65.8730
398 33.3333 50.0000 83.3333 24.1157 22.7973 66.0015
399 50.0000 50.0000 83.3333 29.1460 25.3909 66.2373
400 66.6667 50.0000 83.3333 36.8194 29.3474 66.5968
401 66.6667 66.6667 100.000 49.5160 45.0701 100.642
402 8.33333 58.3333 75.0000 21.2512 26.0956 53.7329
403 0.00000 66.6667 83.3333 27.0606 34.1909 68.0457
404 16.6667 66.6667 83.3333 28.0263 34.6888 68.0910
405 33.3333 66.6667 83.3333 30.7696 36.1033 68.2195
406 50.0000 66.6667 83.3333 35.7999 38.6969 68.4553
407 66.6667 66.6667 83.3333 43.4734 42.6534 68.8148
408 66.6667 83.3333 83.3333 52.6751 61.0543 71.8821
409 8.33333 75.0000 75.0000 29.1495 41.8900 56.3657
410 0.00000 83.3333 83.3333 36.2623 52.5918 71.1130
411 16.6667 83.3333 83.3333 37.2280 53.0897 71.1583
412 33.3333 83.3333 83.3333 39.9714 54.5042 71.2868
413 8.33333 75.0000 58.3333 25.1627 40.2956 35.3672
414 0.00000 83.3333 66.6667 31.6176 50.7342 46.6491
415 8.33333 91.6667 75.0000 39.7100 63.0080 59.8859
416 0.00000 100.000 83.3333 48.2337 76.5312 75.1035
417 16.6667 100.000 83.3333 49.1994 77.0291 75.1488
418 33.3333 100.000 83.3333 51.9427 78.4436 75.2773
419 50.0000 100.000 83.3333 56.9730 81.0372 75.5130
420 66.6667 100.000 83.3333 64.6465 84.9937 75.8726
421 100.000 100.000 83.3333 89.0638 97.5833 77.0167
422 16.6667 0.00000 83.3333 13.7942 6.22857 63.3469
423 16.6667 0.00000 100.000 19.8368 8.64525 95.1742
424 33.3333 0.00000 100.000 22.5802 10.0597 95.3028
425 50.0000 0.00000 100.000 27.6104 12.6533 95.5385
426 66.6667 0.00000 100.000 35.2839 16.6098 95.8980
427 83.3333 0.00000 100.000 45.8956 22.0812 96.3953
428 100.000 0.00000 100.000 59.7013 29.1995 97.0422
429 100.000 83.3333 100.000 83.1351 76.0606 104.854
430 16.6667 16.6667 100.000 20.6743 10.3198 95.4534
431 33.3333 16.6667 100.000 23.4176 11.7343 95.5819
432 50.0000 16.6667 100.000 28.4479 14.3279 95.8176
433 66.6667 16.6667 100.000 36.1213 18.2844 96.1772
434 66.6667 83.3333 100.000 58.7178 63.4710 103.709
435 0.00000 33.3333 83.3333 16.0447 12.1623 64.3738
436 0.00000 33.3333 100.000 22.0874 14.5790 96.2011
437 16.6667 33.3333 100.000 23.0531 15.0769 96.2463
438 33.3333 33.3333 100.000 25.7965 16.4914 96.3749
439 50.0000 33.3333 100.000 30.8267 19.0850 96.6106
440 0.00000 33.3333 66.6667 11.4001 10.3047 39.9098
441 8.33333 41.6667 75.0000 15.7779 15.1507 51.9085
