dispcalGUI/ti1/verify.ti1
CTI1   

ORIGINATOR "Argyll targen"
CREATED "Thu Mar 11 19:23:29 2010"
KEYWORD "ERROR_OPTIMISED_PATCHES"
ERROR_OPTIMISED_PATCHES "24"
KEYWORD "APPROX_WHITE_POINT"
APPROX_WHITE_POINT "95.106486 100.000000 108.844025"
DESCRIPTOR "Argyll Calibration Target chart information 1"
KEYWORD "COLOR_REP"
COLOR_REP "RGB"

NUMBER_OF_FIELDS 7
BEGIN_DATA_FORMAT
SAMPLE_ID RGB_R RGB_G RGB_B XYZ_X XYZ_Y XYZ_Z
END_DATA_FORMAT

NUMBER_OF_SETS 24
BEGIN_DATA
1 100.00 100.00 100.00 95.106 100.00 108.84
2 87.843 87.843 87.843 71.147 74.795 81.387
3 75.294 75.294 75.294 50.605 53.184 57.846
4 62.745 62.745 62.745 34.081 35.802 38.911
5 50.196 50.196 50.196 21.314 22.370 24.279
6 37.647 37.647 37.647 12.008 12.580 13.615
7 25.098 25.098 25.098 5.8248 6.0757 6.5291
8 12.549 12.549 12.549 2.3593 2.4299 2.5577
9 0.0000 0.0000 0.0000 1.0000 1.0000 1.0000
10 50.196 0.0000 0.0000 9.8136 5.5443 1.4130
11 100.00 0.0000 0.0000 41.830 22.052 2.9132
12 100.00 50.196 50.196 53.330 38.878 25.779
13 0.0000 50.196 0.0000 8.6426 16.283 3.5475
14 0.0000 100.00 0.0000 36.405 71.801 12.802
15 50.196 100.00 50.196 49.076 77.888 33.533
16 0.0000 0.0000 50.196 4.8577 2.5428 21.319
17 0.0000 0.0000 100.00 18.871 8.1473 95.129
18 50.196 50.196 100.00 35.327 27.975 98.089
19 0.0000 50.196 50.196 12.500 17.826 23.866
20 0.0000 100.00 100.00 54.276 78.948 106.93
21 50.196 0.0000 50.196 13.671 7.0871 21.732
22 100.00 0.0000 100.00 59.701 29.199 97.042
23 50.196 50.196 0.0000 17.456 20.827 3.9605
24 100.00 100.00 0.0000 77.235 92.853 14.715
END_DATA
CTI1   

ORIGINATOR "Argyll targen"
KEYWORD "DENSITY_EXTREME_VALUES"
DENSITY_EXTREME_VALUES "8"
CREATED "March 11, 2010"
DESCRIPTOR "Argyll Calibration Target chart information 1"

KEYWORD "INDEX"
NUMBER_OF_FIELDS 7
BEGIN_DATA_FORMAT
INDEX RGB_R RGB_G RGB_B XYZ_X XYZ_Y XYZ_Z
END_DATA_FORMAT

NUMBER_OF_SETS 8
BEGIN_DATA
0 100.00 100.00 100.00 95.106 100.00 108.84
1 0.0000 47.361 100.00 25.613 21.629 97.376
2 100.00 0.0000 79.351 52.426 26.290 58.722
3 0.0000 0.0000 58.997 6.4858 3.1940 29.894
4 100.00 66.659 0.0000 56.059 50.505 7.6561
5 0.0000 35.601 0.0000 4.6856 8.3702 2.2286
6 84.444 0.0000 0.0000 28.843 15.356 2.3047
7 0.0000 0.0000 0.0000 1.0000 1.0000 1.0000
END_DATA
CTI1   

ORIGINATOR "Argyll targen"
CREATED "March 11, 2010"
DESCRIPTOR "Argyll Calibration Target chart information 1"
KEYWORD "DEVICE_COMBINATION_VALUES"
DEVICE_COMBINATION_VALUES "9"

KEYWORD "INDEX"
NUMBER_OF_FIELDS 7
BEGIN_DATA_FORMAT
INDEX RGB_R RGB_G RGB_B XYZ_X XYZ_Y XYZ_Z
END_DATA_FORMAT

NUMBER_OF_SETS 9
BEGIN_DATA
0 100.00 100.00 100.00 95.106 100.00 108.84
1 0.0000 100.00 100.00 54.276 78.948 106.93
2 100.00 0.0000 100.00 59.701 29.199 97.042
3 0.0000 0.0000 100.00 18.871 8.1473 95.129
4 100.00 100.00 0.0000 77.235 92.853 14.715
5 0.0000 100.00 0.0000 36.405 71.801 12.802
6 100.00 0.0000 0.0000 41.830 22.052 2.9132
7 0.0000 0.0000 0.0000 1.0000 1.0000 1.0000
8 60.000 60.000 60.000 30.977 32.536 35.353
END_DATA