DisplayCAL/ref/CMYK_IDEAlliance_ISO_12647-7_Control_Wedge_2013.ti1
CTI1   

DESCRIPTOR "Argyll Calibration Target chart information 1"
ORIGINATOR "Argyll target"
CREATED "Mon Jan 24 02:20:54 2011"
KEYWORD "DEVICE_CLASS"
DEVICE_CLASS "OUTPUT"
KEYWORD "COLOR_REP"
COLOR_REP "CMYK"
KEYWORD "TOTAL_INK_LIMIT"
TOTAL_INK_LIMIT "400"

NUMBER_OF_FIELDS 6
BEGIN_DATA_FORMAT
SAMPLE_ID SAMPLE_NAME CMYK_C CMYK_M CMYK_Y CMYK_K
END_DATA_FORMAT

NUMBER_OF_SETS 84
BEGIN_DATA
1 A1 100 0 0 0
2 A2 100 100 0 80
3 A3 100 70 0 40
4 B1 75 0 0 0
5 B2 100 100 0 0
6 B3 100 100 0 40
7 C1 50 0 0 0
8 C2 75 75 0 0
9 C3 70 100 0 40
10 D1 25 0 0 0
11 D2 50 50 0 0
12 D3 0 100 70 40
13 E1 10 0 0 0
14 E2 25 25 0 0
15 E3 0 100 100 40
16 F1 0 100 0 0
17 F2 0 100 100 80
18 F3 0 70 100 40
19 G1 0 75 0 0
20 G2 0 100 100 0
21 G3 70 0 100 40
22 H1 0 50 0 0
23 H2 0 75 75 0
24 H3 100 0 100 40
25 I1 0 25 0 0
26 I2 0 50 50 0
27 I3 100 0 70 40
28 J1 0 10 0 0
29 J2 0 25 25 0
30 J3 70 40 0 40
31 K1 0 0 100 0
32 K2 100 0 100 80
33 K3 40 70 0 40
34 L1 0 0 75 0
35 L2 100 0 100 0
36 L3 0 70 40 40
37 M1 0 0 50 0
38 M2 75 0 75 0
39 M3 0 40 70 40
40 N1 0 0 25 0
41 N2 50 0 50 0
42 N3 40 0 70 40
43 O1 0 0 10 0
44 O2 25 0 25 0
45 O3 70 0 40 40
46 P1 100 100 100 100
47 P2 0 0 0 0
48 P3 70 40 40 0
49 Q1 0 0 0 3
50 Q2 3 2.24 2.24 0
51 Q3 70 70 40 0
52 R1 0 0 0 10
53 R2 10 7.46 7.46 0
54 R3 40 70 40 0
55 S1 0 0 0 25
56 S2 25 18.88 18.88 0
57 S3 40 70 70 0
58 T1 0 0 0 50
59 T2 50 40 40 0
60 T3 40 40 70 0
61 U1 0 0 0 75
62 U2 75 66.12 66.12 0
63 U3 20 40 70 0
64 V1 0 0 0 90
65 V2 90 85.34 85.34 0
66 V3 20 70 70 0
67 W1 0 0 0 100
68 W2 100 100 100 0
69 W3 70 40 70 0
70 X1 40 10 10 0
71 X2 10 40 10 0
72 X3 10 10 40 0
73 Y1 40 40 10 0
74 Y2 10 40 40 0
75 Y3 40 10 40 0
76 Z1 100 40 0 0
77 Z2 0 100 40 0
78 Z3 40 0 100 0
79 2A1 40 100 0 0
80 2A2 0 40 100 0
81 2A3 100 0 40 0
82 2B1 100 0 0 80
83 2B2 0 100 0 80
84 2B3 0 0 100 80
END_DATA
