DisplayCAL/ref/CMYK_ISO_12647-7_outer_gamut.ti1
CTI1   

DESCRIPTOR "Argyll Calibration Target chart information 1"
ORIGINATOR "Argyll target"
CREATED "Mon Jan 24 02:20:54 2011"
KEYWORD "DEVICE_CLASS"
DEVICE_CLASS "OUTPUT"
KEYWORD "COLOR_REP"
COLOR_REP "CMYK"
KEYWORD "TOTAL_INK_LIMIT"
TOTAL_INK_LIMIT "300"

NUMBER_OF_FIELDS 5
BEGIN_DATA_FORMAT
SAMPLE_ID CMYK_C CMYK_M CMYK_Y CMYK_K
END_DATA_FORMAT

NUMBER_OF_SETS 226
BEGIN_DATA
1 0 0 0 0
2 0 10 0 0
3 0 20 0 0
4 0 30 0 0
5 0 40 0 0
7 0 70 0 0
9 0 100 0 0
10 10 0 0 0
11 10 10 0 0
12 10 20 0 0
14 10 40 0 0
16 10 70 0 0
18 10 100 0 0
19 20 0 0 0
20 20 10 0 0
21 20 20 0 0
23 20 40 0 0
25 20 70 0 0
27 20 100 0 0
28 30 0 0 0
37 40 0 0 0
38 40 10 0 0
39 40 20 0 0
41 40 40 0 0
43 40 70 0 0
45 40 100 0 0
55 70 0 0 0
56 70 10 0 0
57 70 20 0 0
59 70 40 0 0
61 70 70 0 0
63 70 100 0 0
73 100 0 0 0
74 100 10 0 0
75 100 20 0 0
77 100 40 0 0
79 100 70 0 0
81 100 100 0 0
82 0 0 10 0
83 0 10 10 0
84 0 20 10 0
86 0 40 10 0
88 0 70 10 0
90 0 100 10 0
91 10 0 10 0
100 20 0 10 0
118 40 0 10 0
136 70 0 10 0
154 100 0 10 0
163 0 0 20 0
164 0 10 20 0
165 0 20 20 0
167 0 40 20 0
169 0 70 20 0
171 0 100 20 0
172 10 0 20 0
181 20 0 20 0
199 40 0 20 0
217 70 0 20 0
235 100 0 20 0
244 0 0 30 0
325 0 0 40 0
326 0 10 40 0
327 0 20 40 0
329 0 40 40 0
331 0 70 40 0
333 0 100 40 0
334 10 0 40 0
343 20 0 40 0
361 40 0 40 0
379 70 0 40 0
397 100 0 40 0
487 0 0 70 0
488 0 10 70 0
489 0 20 70 0
491 0 40 70 0
493 0 70 70 0
495 0 100 70 0
496 10 0 70 0
505 20 0 70 0
523 40 0 70 0
541 70 0 70 0
559 100 0 70 0
649 0 0 100 0
650 0 10 100 0
651 0 20 100 0
653 0 40 100 0
655 0 70 100 0
657 0 100 100 0
658 10 0 100 0
667 20 0 100 0
685 40 0 100 0
703 70 0 100 0
721 100 0 100 0
735 0 100 0 20
741 10 100 0 20
747 20 100 0 20
753 40 100 0 20
759 70 100 0 20
760 100 0 0 20
761 100 10 0 20
762 100 20 0 20
763 100 40 0 20
764 100 70 0 20
765 100 100 0 20
771 0 100 10 20
796 100 0 10 20
807 0 100 20 20
832 100 0 20 20
843 0 100 40 20
868 100 0 40 20
879 0 100 70 20
904 100 0 70 20
910 0 0 100 20
911 0 10 100 20
912 0 20 100 20
913 0 40 100 20
914 0 70 100 20
915 0 100 100 20
916 10 0 100 20
922 20 0 100 20
928 40 0 100 20
934 70 0 100 20
940 100 0 100 20
950 0 100 0 40
955 20 100 0 40
960 40 100 0 40
965 70 100 0 40
966 100 0 0 40
967 100 20 0 40
968 100 40 0 40
969 100 70 0 40
970 100 100 0 40
975 0 100 20 40
991 100 0 20 40
1000 0 100 40 40
1016 100 0 40 40
1025 0 100 70 40
1041 100 0 70 40
1046 0 0 100 40
1047 0 20 100 40
1048 0 40 100 40
1049 0 70 100 40
1050 0 100 100 40
1051 20 0 100 40
1056 40 0 100 40
1061 70 0 100 40
1066 100 0 100 40
1075 0 100 0 60
1080 20 100 0 60
1085 40 100 0 60
1090 70 100 0 60
1091 100 0 0 60
1092 100 20 0 60
1093 100 40 0 60
1094 100 70 0 60
1095 100 100 0 60
1100 0 100 20 60
1116 100 0 20 60
1125 0 100 40 60
1141 100 0 40 60
1150 0 100 70 60
1166 100 0 70 60
1171 0 0 100 60
1172 0 20 100 60
1173 0 40 100 60
1174 0 70 100 60
1175 0 100 100 60
1176 20 0 100 60
1181 40 0 100 60
1186 70 0 100 60
1191 100 0 100 60
1199 0 100 0 80
1203 40 100 0 80
1207 70 100 0 80
1208 100 0 0 80
1209 100 40 0 80
1210 100 70 0 80
1211 100 100 0 80
1215 0 100 40 80
1224 100 0 40 80
1231 0 100 70 80
1240 100 0 70 80
1244 0 0 100 80
1245 0 40 100 80
1246 0 70 100 80
1247 0 100 100 80
1248 40 0 100 80
1252 70 0 100 80
1256 100 0 100 80
1262 0 100 0 100
1266 100 0 0 100
1268 100 100 0 100
1278 0 0 100 100
1280 0 100 100 100
1284 100 0 100 100
1290 90 0 0 0
1292 80 0 0 0
1295 60 0 0 0
1296 50 0 0 0
1299 25 0 0 0
1301 15 0 0 0
1303 7 0 0 0
1305 3 0 0 0
1310 0 90 0 0
1312 0 80 0 0
1315 0 60 0 0
1316 0 50 0 0
1319 0 25 0 0
1321 0 15 0 0
1323 0 7 0 0
1325 0 3 0 0
1330 0 0 90 0
1332 0 0 80 0
1335 0 0 60 0
1336 0 0 50 0
1339 0 0 25 0
1341 0 0 15 0
1343 0 0 7 0
1345 0 0 3 0
1405 100 0 0 70
1406 0 100 0 70
1407 0 0 100 70
1408 100 100 0 70
1409 100 0 100 70
1410 0 100 100 70
END_DATA
