DisplayCAL/ref/CMYK_IDEAlliance_ControlStrip_2009.ti1
CTI1   

DESCRIPTOR "Argyll Calibration Target chart information 1"
ORIGINATOR "Argyll target"
CREATED "Mon Jan 24 02:20:54 2011"
KEYWORD "DEVICE_CLASS"
DEVICE_CLASS "OUTPUT"
KEYWORD "COLOR_REP"
COLOR_REP "CMYK"
KEYWORD "TOTAL_INK_LIMIT"
TOTAL_INK_LIMIT "320"

NUMBER_OF_FIELDS 5
BEGIN_DATA_FORMAT
SAMPLE_ID CMYK_C CMYK_M CMYK_Y CMYK_K
END_DATA_FORMAT

NUMBER_OF_SETS 54
BEGIN_DATA
1 100.00 0.0000 0.0000 60.000
2 100.00 100.00 0.0000 60.000
3 100.00 0.0000 0.0000 0.0000
4 100.00 100.00 0.0000 0.0000
5 70.000 0.0000 0.0000 0.0000
6 70.000 70.000 0.0000 0.0000
7 30.000 0.0000 0.0000 0.0000
8 30.000 30.000 0.0000 0.0000
9 0.0000 100.00 0.0000 60.000
10 0.0000 100.00 100.00 60.000
11 0.0000 100.00 0.0000 0.0000
12 0.0000 100.00 100.00 0.0000
13 0.0000 70.000 0.0000 0.0000
14 0.0000 70.000 70.000 0.0000
15 0.0000 30.000 0.0000 0.0000
16 0.0000 30.000 30.000 0.0000
17 0.0000 0.0000 100.00 60.000
18 100.00 0.0000 100.00 60.000
19 0.0000 0.0000 100.00 0.0000
20 100.00 0.0000 100.00 0.0000
21 0.0000 0.0000 70.000 0.0000
22 70.000 0.0000 70.000 0.0000
23 0.0000 0.0000 30.000 0.0000
24 30.000 0.0000 30.000 0.0000
25 100.00 0.0000 40.000 0.0000
26 100.00 40.000 0.0000 0.0000
27 40.000 100.00 0.0000 0.0000
28 0.0000 100.00 40.000 0.0000
29 0.0000 40.000 100.00 0.0000
30 40.000 0.0000 100.00 0.0000
31 0.0000 40.000 70.000 40.000
32 10.000 40.000 40.000 0.0000
33 0.0000 70.000 40.000 40.000
34 20.000 70.000 70.000 0.0000
35 40.000 70.000 0.0000 40.000
36 0.0000 70.000 70.000 40.000
37 40.000 0.0000 70.000 40.000
38 70.000 0.0000 40.000 40.000
39 70.000 40.000 0.0000 40.000
40 0.0000 0.0000 0.0000 0.0000
41 0.0000 0.0000 0.0000 3.0000
42 3.1000 2.2000 2.2000 0.0000
43 0.0000 0.0000 0.0000 10.000
44 10.200 7.4000 7.4000 0.0000
45 0.0000 0.0000 0.0000 25.000
46 25.000 19.000 19.000 0.0000
47 0.0000 0.0000 0.0000 50.000
48 50.000 40.000 40.000 0.0000
49 0.0000 0.0000 0.0000 75.000
50 75.000 66.000 66.000 0.0000
51 0.0000 0.0000 0.0000 90.000
52 100.00 100.00 100.00 0.0000
53 0.0000 0.0000 0.0000 100.00
54 80.000 70.000 70.000 100.00
END_DATA
