DisplayCAL/ref/ColorCheckerSG.cie
CTI3   

DESCRIPTOR "ColorChecker SG"

NUMBER_OF_FIELDS 4
BEGIN_DATA_FORMAT
SAMPLE_ID XYZ_X XYZ_Y XYZ_Z
END_DATA_FORMAT

NUMBER_OF_SETS 96
BEGIN_DATA
"B2" 15.25 7.988 10.03
"B3" 38.96 31.43 39.81
"B4" 11.86 5.893 18.49
"B5" 16.19 18.20 47.74
"B6" 22.73 30.12 44.69
"B7" 1.581 2.706 3.100
"B8" 19.65 29.53 32.75
"B9" 3.648 3.700 1.914
"C2" 5.044 3.714 6.813
"C3" 16.19 12.85 29.44
"C4" 3.120 2.875 10.80
"C5" 25.26 29.54 48.77
"C6" 2.058 2.770 6.094
"C7" 29.15 30.48 51.32
"C8" 11.15 19.48 20.92
"C9" 20.41 31.10 14.85
"D2" 67.39 69.80 67.61
"D3" 76.91 71.85 59.79
"D4" 60.68 71.41 60.46
"D5" 77.16 72.99 54.02
"D6" 62.96 70.59 34.96
"D7" 41.61 33.77 10.58
"D8" 42.10 36.36 18.96
"D9" 10.37 19.81 10.51
"E2" 9.624 7.790 2.439
"E3" 42.68 32.85 2.514
"E4" 4.495 2.583 19.77
"E5" 96.06 99.63 82.28
"E6" 0.869 0.897 0.775
"E7" 62.63 56.47 29.26
"E8" 60.17 50.68 24.82
"E9" 1.930 3.290 1.876
"F2" 40.60 35.06 18.02
"F3" 10.56 8.563 30.72
"F4" 12.91 22.07 4.987
"F5" 59.21 60.94 51.06
"F6" 6.958 7.195 6.143
"F7" 38.78 35.62 15.20
"F8" 40.13 36.87 20.35
"F9" 18.97 30.02 20.00
"G2" 15.56 16.47 26.39
"G3" 29.34 17.89 7.934
"G4" 20.99 10.17 1.510
"G5" 36.28 37.41 31.43
"G6" 12.00 12.43 10.49
"G7" 17.41 15.20 4.790
"G8" 40.73 36.58 20.43
"G9" 22.84 32.64 8.391
"H2" 8.481 11.41 2.672
"H3" 5.910 3.517 9.226
"H4" 62.39 64.77 4.647
"H5" 19.60 20.23 16.88
"H6" 30.25 31.18 26.25
"H7" 44.31 40.76 22.85
"H8" 41.22 36.93 19.50
"H9" 11.53 21.65 3.931
"I2" 23.05 21.04 33.97
"I3" 35.82 46.48 6.389
"I4" 31.44 18.44 23.56
"I5" 9.051 9.361 7.840
"I6" 51.58 53.10 44.52
"I7" 20.00 15.98 3.085
"I8" 11.77 10.01 2.754
"I9" 18.48 32.69 6.698
"J2" 30.59 42.07 35.10
"J3" 49.88 45.89 3.702
"J4" 11.90 16.91 30.83
"J5" 2.118 2.203 1.975
"J6" 78.61 81.25 68.58
"J7" 42.12 35.78 15.35
"J8" 44.57 38.94 16.20
"J9" 36.83 33.97 6.548
"K2" 75.49 73.23 44.37
"K3" 71.11 81.84 61.22
"K4" 71.48 70.71 65.90
"K5" 61.59 69.33 67.58
"K6" 44.37 45.75 38.50
"K7" 15.99 16.52 13.67
"K8" 3.180 3.279 2.775
"K9" 28.06 34.30 5.489
"L2" 6.687 3.870 2.198
"L3" 28.50 14.72 1.722
"L4" 41.88 31.49 24.17
"L5" 43.07 32.73 17.78
"L6" 50.17 34.55 2.064
"L7" 43.03 50.84 2.747
"L8" 33.10 34.49 5.219
"L9" 36.57 49.48 5.064
"M2" 26.03 13.72 8.384
"M3" 5.377 3.204 3.942
"M4" 24.74 12.37 2.737
"M5" 40.95 23.05 3.947
"M6" 73.66 67.15 5.790
"M7" 66.53 68.33 4.188
"M8" 38.83 47.72 3.714
"M9" 4.153 3.339 0.995
END_DATA
