DisplayCAL/ref/ColorCheckerDC.cie
CTI3   

DESCRIPTOR "ColorChecker DC"

NUMBER_OF_FIELDS 4
BEGIN_DATA_FORMAT
SAMPLE_ID XYZ_X XYZ_Y XYZ_Z
END_DATA_FORMAT

NUMBER_OF_SETS 176
BEGIN_DATA
"B02" 10.26 6.986 3.709
"B03" 8.117 7.331 4.126
"B04" 21.80 21.78 12.61
"B05" 11.83 12.81 7.411
"B06" 6.141 6.924 4.000
"B07" 5.193 7.080 4.396
"B08" 4.936 6.906 6.348
"B09" 5.837 6.785 7.608
"B10" 4.628 4.874 8.564
"B11" 7.894 6.836 5.897
"C02" 24.61 13.76 6.707
"C03" 15.18 12.79 5.962
"C04" 13.65 13.08 5.052
"C05" 18.37 21.18 8.776
"C06" 9.747 12.71 6.479
"C07" 8.169 12.73 6.727
"C08" 8.828 12.27 10.85
"C09" 6.238 7.033 10.98
"C10" 6.119 6.894 14.03
"C11" 9.411 7.279 7.021
"D02" 26.07 13.73 3.872
"D03" 17.36 13.54 4.715
"D04" 21.92 21.86 4.864
"D05" 17.34 21.23 5.530
"D06" 24.38 33.36 9.102
"D07" 6.890 12.66 7.180
"D08" 12.83 21.37 18.87
"D09" 6.341 6.794 14.21
"D10" 6.253 6.521 16.70
"D11" 10.11 7.026 8.259
"E02" 39.11 22.37 7.320
"E03" 31.19 22.52 4.339
"E04" 22.89 21.65 5.058
"E05" 18.11 21.04 4.907
"E06" 38.49 47.57 20.10
"E07" 13.05 21.66 12.82
"E08" 7.659 13.01 16.31
"E09" 8.791 12.53 22.27
"E10" 10.31 12.30 30.72
"E11" 19.76 12.69 15.86
"F02" 53.36 33.43 12.94
"F03" 17.83 12.08 4.423
"F04" 34.61 33.06 9.646
"F05" 15.60 20.69 7.243
"F06" 42.14 48.63 10.75
"F07" 11.64 21.38 9.212
"F08" 8.861 12.73 18.29
"F09" 9.610 12.52 20.25
"F10" 11.63 12.47 31.36
"F11" 23.77 13.43 10.80
"G02" 49.20 32.94 17.60
"G03" 26.90 21.38 9.193
"G04" 27.90 21.97 4.960
"G05" 15.08 21.58 5.221
"G06" 40.28 47.73 6.461
"G07" 21.49 32.72 16.43
"G08" 22.09 32.00 42.71
"G09" 15.74 20.76 28.50
"G10" 11.91 12.88 26.24
"G11" 34.93 21.85 20.32
"H02" 37.02 22.47 11.24
"H03" 38.32 31.67 14.93
"H04" 18.62 13.39 3.116
"H05" 23.37 33.23 7.524
"H06" 57.55 64.84 21.95
"H07" 25.02 32.24 12.26
"H08" 24.15 32.27 38.64
"H09" 15.16 20.67 37.65
"H10" 19.31 20.90 44.42
"H11" 32.43 21.92 20.28
"I02" 24.39 21.13 17.11
"I03" 35.36 31.84 18.02
"I04" 47.14 32.50 7.072
"I05" 91.05 94.49 79.20
"I06" 34.29 35.57 30.14
"I07" 18.27 19.01 16.26
"I08" 7.787 8.054 6.973
"I09" 27.67 32.49 43.64
"I10" 32.27 32.46 51.27
"I11" 45.48 32.98 29.70
"J02" 29.77 21.40 16.95
"J03" 38.17 32.79 12.65
"J04" 64.16 47.44 9.866
"J05" 71.04 73.85 62.34
"J08" 4.741 4.946 4.354
"J09" 27.67 31.67 51.23
"J10" 46.05 46.72 65.44
"J11" 59.09 47.07 41.39
"K02" 40.60 32.83 22.06
"K03" 40.69 33.40 10.00
"K04" 59.00 47.58 11.47
"K05" 57.35 59.59 50.86
"K08" 3.822 3.972 3.481
"K09" 23.94 31.83 52.69
"K10" 24.29 21.52 41.28
"K11" 35.96 32.14 27.46
"L02" 59.57 46.56 33.19
"L03" 64.34 47.46 23.98
"L04" 45.22 34.02 4.378
"L05" 45.18 46.96 39.73
"L06" 26.04 27.07 23.03
"L07" 12.30 12.86 11.11
"L08" 3.346 3.463 3.073
"L09" 35.41 46.33 60.75
"L10" 8.770 6.822 11.54
"L11" 69.03 63.81 54.35
"M02" 75.50 64.99 51.37
"M03" 60.08 47.32 30.52
"M04" 75.29 64.82 15.18
"M05" 84.48 89.40 15.91
"M06" 16.71 21.43 21.34
"M07" 17.73 32.42 13.34
"M08" 57.69 63.19 58.65
"M09" 36.13 47.07 52.53
"M10" 7.988 6.853 9.721
"M11" 86.41 86.83 76.05
"N02" 73.00 66.51 47.63
"N03" 55.87 46.81 32.41
"N04" 70.45 65.29 18.06
"N05" 69.08 64.89 8.128
"N06" 23.68 32.73 33.70
"N07" 18.90 33.08 19.40
"N08" 59.94 64.89 69.83
"N09" 54.80 63.99 66.01
"N10" 18.75 13.31 21.89
"N11" 46.25 32.99 36.89
"O02" 52.13 47.02 35.24
"O03" 57.32 46.99 17.92
"O04" 85.43 86.17 57.30
"O05" 50.77 47.08 5.065
"O06" 26.22 32.65 32.95
"O07" 29.84 47.26 21.83
"O08" 31.00 32.48 32.12
"O09" 55.76 63.57 54.85
"O10" 25.56 21.67 26.33
"O11" 35.68 32.37 39.64
"P02" 49.15 47.54 37.87
"P03" 79.00 65.68 26.18
"P04" 88.31 86.54 43.56
"P05" 34.88 32.71 6.072
"P06" 22.26 31.83 27.11
"P07" 34.57 46.54 30.95
"P08" 19.04 21.02 26.30
"P09" 42.08 47.53 43.25
"P10" 22.06 21.29 20.40
"P11" 49.17 48.04 51.58
"Q02" 66.40 65.12 47.44
"Q03" 75.17 65.07 35.10
"Q04" 90.88 87.40 54.80
"Q05" 36.64 32.58 6.494
"Q06" 21.01 32.53 31.70
"Q07" 48.84 64.88 44.35
"Q08" 41.52 45.77 30.25
"Q09" 44.52 46.48 19.69
"Q10" 27.54 31.51 25.28
"Q11" 10.45 12.48 10.77
"R02" 34.49 33.28 23.65
"R03" 62.99 63.02 41.41
"R04" 87.86 86.91 64.56
"R05" 47.13 47.02 9.339
"R06" 31.21 46.37 35.73
"R07" 53.79 64.17 37.91
"R08" 29.66 31.97 19.21
"R09" 44.00 47.63 14.11
"R10" 13.05 12.96 6.652
"R11" 18.95 21.81 18.60
"S02" 45.00 46.92 29.57
"S03" 72.02 75.95 47.27
"S04" 3.399 3.716 17.47
"S05" 3.604 12.41 3.262
"S06" 19.54 8.953 0.481
"S07" 98.58 102.1 84.61
"S08" 0.310 0.321 0.272
"S09" 80.47 82.68 5.113
"S10" 18.81 8.361 3.465
"S11" 7.357 12.52 27.55
END_DATA
