DisplayCAL/ref/ISO_12646-2008_color_accuracy_and_gray_balance.ti1
CTI1   

ORIGINATOR "Argyll targen"
CREATED "Mon May 18 22:11:12 2015"
KEYWORD "COMP_GREY_STEPS"
COMP_GREY_STEPS "21"
KEYWORD "BLACK_COLOR_PATCHES"
BLACK_COLOR_PATCHES "1"
KEYWORD "APPROX_WHITE_POINT"
APPROX_WHITE_POINT "95.106486 100.000000 108.844025"
DESCRIPTOR "Argyll Calibration Target chart information 1"
KEYWORD "MULTI_DIM_STEPS"
MULTI_DIM_STEPS "5"
KEYWORD "WHITE_COLOR_PATCHES"
WHITE_COLOR_PATCHES "1"
KEYWORD "COLOR_REP"
COLOR_REP "RGB"

NUMBER_OF_FIELDS 7
BEGIN_DATA_FORMAT
SAMPLE_ID RGB_R RGB_G RGB_B XYZ_X XYZ_Y XYZ_Z
END_DATA_FORMAT

NUMBER_OF_SETS 141
BEGIN_DATA
1 0.0000 0.0000 0.0000 1.0000 1.0000 1.0000
2 5.0000 5.0000 5.0000 1.3704 1.3897 1.4245
3 10.000 10.000 10.000 1.9432 1.9923 2.0809
4 15.000 15.000 15.000 2.8451 2.9411 3.1145
5 20.000 20.000 20.000 4.1154 4.2774 4.5701
6 25.000 25.000 25.000 5.7878 6.0367 6.4867
7 30.000 30.000 30.000 7.8923 8.2507 8.8984
8 35.000 35.000 35.000 10.456 10.948 11.836
9 40.000 40.000 40.000 13.504 14.154 15.329
10 45.000 45.000 45.000 17.059 17.894 19.403
11 50.000 50.000 50.000 21.143 22.190 24.083
12 55.000 55.000 55.000 25.776 27.064 29.392
13 60.000 60.000 60.000 30.977 32.536 35.353
14 65.000 65.000 65.000 36.766 38.626 41.987
15 70.000 70.000 70.000 43.159 45.351 49.313
16 75.000 75.000 75.000 50.173 52.730 57.351
17 80.000 80.000 80.000 57.824 60.779 66.119
18 85.000 85.000 85.000 66.128 69.515 75.636
19 90.000 90.000 90.000 75.101 78.954 85.918
20 95.000 95.000 95.000 84.755 89.111 96.982
21 100.00 100.00 100.00 95.106 100.00 108.84
22 0.0000 0.0000 25.000 1.9092 1.3636 5.7889
23 0.0000 0.0000 50.000 4.8251 2.5298 21.148
24 0.0000 0.0000 75.000 10.338 4.7346 50.184
25 0.0000 0.0000 100.00 18.871 8.1473 95.129
26 0.0000 25.000 0.0000 2.8013 4.6021 1.6004
27 0.0000 25.000 25.000 3.7105 4.9657 6.3893
28 0.0000 25.000 50.000 6.6264 6.1319 21.748
29 0.0000 25.000 75.000 12.139 8.3367 50.785
30 0.0000 25.000 100.00 20.672 11.749 95.729
31 0.0000 50.000 0.0000 8.5782 16.154 3.5261
32 0.0000 50.000 25.000 9.4874 16.518 8.3150
33 0.0000 50.000 50.000 12.403 17.684 23.674
34 0.0000 50.000 75.000 17.916 19.889 52.711
35 0.0000 50.000 100.00 26.449 23.302 97.655
36 0.0000 75.000 0.0000 19.500 37.995 7.1667
37 0.0000 75.000 25.000 20.409 38.358 11.956
38 0.0000 75.000 50.000 23.325 39.525 27.314
39 0.0000 75.000 75.000 28.838 41.729 56.351
40 0.0000 75.000 100.00 37.371 45.142 101.30
41 0.0000 100.00 0.0000 36.405 71.800 12.802
42 0.0000 100.00 25.000 37.314 72.164 17.591
43 0.0000 100.00 50.000 40.230 73.330 32.949
44 0.0000 100.00 75.000 45.743 75.535 61.986
45 0.0000 100.00 100.00 54.276 78.948 106.93
46 25.000 0.0000 0.0000 3.0773 2.0711 1.0973
47 25.000 0.0000 25.000 3.9865 2.4347 5.8863
48 25.000 0.0000 50.000 6.9024 3.6009 21.245
49 25.000 0.0000 75.000 12.415 5.8057 50.282
50 25.000 0.0000 100.00 20.948 9.2184 95.226
51 25.000 25.000 0.0000 4.8786 5.6731 1.6978
52 25.000 25.000 50.000 8.7037 7.2029 21.845
53 25.000 25.000 75.000 14.217 9.4077 50.882
54 25.000 25.000 100.00 22.750 12.820 95.827
55 25.000 50.000 0.0000 10.655 17.225 3.6234
56 25.000 50.000 25.000 11.565 17.589 8.4123
57 25.000 50.000 50.000 14.481 18.755 23.771
58 25.000 50.000 75.000 19.994 20.960 52.808
59 25.000 50.000 100.00 28.527 24.373 97.752
60 25.000 75.000 0.0000 21.577 39.066 7.2641
61 25.000 75.000 25.000 22.486 39.429 12.053
62 25.000 75.000 50.000 25.402 40.596 27.412
63 25.000 75.000 75.000 30.915 42.800 56.449
64 25.000 75.000 100.00 39.448 46.213 101.39
65 25.000 100.00 0.0000 38.483 72.872 12.899
66 25.000 100.00 25.000 39.392 73.235 17.688
67 25.000 100.00 50.000 42.308 74.401 33.047
68 25.000 100.00 75.000 47.821 76.606 62.084
69 25.000 100.00 100.00 56.354 80.019 107.03
70 50.000 0.0000 0.0000 9.7393 5.5060 1.4095
71 50.000 0.0000 25.000 10.649 5.8697 6.1984
72 50.000 0.0000 50.000 13.565 7.0358 21.557
73 50.000 0.0000 75.000 19.077 9.2407 50.594
74 50.000 0.0000 100.00 27.610 12.653 95.538
75 50.000 25.000 0.0000 11.541 9.1081 2.0099
76 50.000 25.000 25.000 12.450 9.4717 6.7988
77 50.000 25.000 50.000 15.366 10.638 22.157
78 50.000 25.000 75.000 20.879 12.843 51.194
79 50.000 25.000 100.00 29.412 16.255 96.139
80 50.000 50.000 0.0000 17.317 20.660 3.9356
81 50.000 50.000 25.000 18.227 21.024 8.7245
82 50.000 50.000 75.000 26.655 24.395 53.120
83 50.000 50.000 100.00 35.189 27.808 98.064
84 50.000 75.000 0.0000 28.239 42.501 7.5762
85 50.000 75.000 25.000 29.148 42.864 12.365
86 50.000 75.000 50.000 32.065 44.031 27.724
87 50.000 75.000 75.000 37.577 46.236 56.761
88 50.000 75.000 100.00 46.110 49.648 101.70
89 50.000 100.00 0.0000 45.145 76.306 13.211
90 50.000 100.00 25.000 46.054 76.670 18.000
91 50.000 100.00 50.000 48.970 77.836 33.359
92 50.000 100.00 75.000 54.483 80.041 62.396
93 50.000 100.00 100.00 63.016 83.454 107.34
94 75.000 0.0000 0.0000 22.335 12.000 1.9997
95 75.000 0.0000 25.000 23.244 12.364 6.7886
96 75.000 0.0000 50.000 26.160 13.530 22.147
97 75.000 0.0000 75.000 31.673 15.735 51.184
98 75.000 0.0000 100.00 40.206 19.148 96.129
99 75.000 25.000 0.0000 24.136 15.602 2.6001
100 75.000 25.000 25.000 25.045 15.966 7.3891
101 75.000 25.000 50.000 27.961 17.132 22.748
102 75.000 25.000 75.000 33.474 19.337 51.785
103 75.000 25.000 100.00 42.007 22.750 96.729
104 75.000 50.000 0.0000 29.913 27.154 4.5258
105 75.000 50.000 25.000 30.822 27.518 9.3147
106 75.000 50.000 50.000 33.738 28.684 24.673
107 75.000 50.000 75.000 39.251 30.889 53.710
108 75.000 50.000 100.00 47.784 34.302 98.655
109 75.000 75.000 0.0000 40.835 48.995 8.1664
110 75.000 75.000 25.000 41.744 49.359 12.955
111 75.000 75.000 50.000 44.660 50.525 28.314
112 75.000 75.000 100.00 58.706 56.142 102.30
113 75.000 100.00 0.0000 57.740 82.801 13.802
114 75.000 100.00 25.000 58.649 83.164 18.590
115 75.000 100.00 50.000 61.565 84.331 33.949
116 75.000 100.00 75.000 67.078 86.535 62.986
117 75.000 100.00 100.00 75.611 89.948 107.93
118 100.00 0.0000 0.0000 41.830 22.052 2.9132
119 100.00 0.0000 25.000 42.739 22.416 7.7021
120 100.00 0.0000 50.000 45.655 23.582 23.061
121 100.00 0.0000 75.000 51.168 25.787 52.098
122 100.00 0.0000 100.00 59.701 29.200 97.042
123 100.00 25.000 0.0000 43.631 25.654 3.5137
124 100.00 25.000 25.000 44.541 26.018 8.3026
125 100.00 25.000 50.000 47.457 27.184 23.661
126 100.00 25.000 75.000 52.969 29.389 52.698
127 100.00 25.000 100.00 61.503 32.801 97.643
128 100.00 50.000 0.0000 49.408 37.206 5.4393
129 100.00 50.000 25.000 50.318 37.570 10.228
130 100.00 50.000 50.000 53.233 38.736 25.587
131 100.00 50.000 75.000 58.746 40.941 54.624
132 100.00 50.000 100.00 67.279 44.354 99.568
133 100.00 75.000 0.0000 60.330 59.047 9.0799
134 100.00 75.000 25.000 61.239 59.411 13.869
135 100.00 75.000 50.000 64.155 60.577 29.227
136 100.00 75.000 75.000 69.668 62.782 58.264
137 100.00 75.000 100.00 78.201 66.194 103.21
138 100.00 100.00 0.0000 77.235 92.853 14.715
139 100.00 100.00 25.000 78.145 93.216 19.504
140 100.00 100.00 50.000 81.061 94.382 34.862
141 100.00 100.00 75.000 86.573 96.587 63.900
END_DATA
CTI1   

ORIGINATOR "Argyll targen"
KEYWORD "DENSITY_EXTREME_VALUES"
DENSITY_EXTREME_VALUES "8"
CREATED "May 18, 2015"
DESCRIPTOR "Argyll Calibration Target chart information 1"

KEYWORD "INDEX"
NUMBER_OF_FIELDS 7
BEGIN_DATA_FORMAT
INDEX RGB_R RGB_G RGB_B XYZ_X XYZ_Y XYZ_Z
END_DATA_FORMAT

NUMBER_OF_SETS 8
BEGIN_DATA
0 100.000 100.000 100.000 95.1065 100.000 108.844
1 0.00000 47.3607 100.000 25.6130 21.6292 97.3763
2 100.000 0.00000 79.3514 52.4258 26.2898 58.7215
3 0.00000 0.00000 58.9971 6.48583 3.19399 29.8944
4 100.000 66.6593 0.00000 56.0588 50.5054 7.65614
5 0.00000 35.6011 0.00000 4.68562 8.37021 2.22855
6 84.4444 0.00000 0.00000 28.8428 15.3558 2.30466
7 0.00000 0.00000 0.00000 1.00000 1.00000 1.00000
END_DATA
CTI1   

ORIGINATOR "Argyll targen"
CREATED "May 18, 2015"
DESCRIPTOR "Argyll Calibration Target chart information 1"
KEYWORD "DEVICE_COMBINATION_VALUES"
DEVICE_COMBINATION_VALUES "9"

KEYWORD "INDEX"
NUMBER_OF_FIELDS 7
BEGIN_DATA_FORMAT
INDEX RGB_R RGB_G RGB_B XYZ_X XYZ_Y XYZ_Z
END_DATA_FORMAT

NUMBER_OF_SETS 9
BEGIN_DATA
0 100.000 100.000 100.000 95.1065 100.000 108.844
1 0.00000 100.000 100.000 54.2763 78.9478 106.931
2 100.000 0.00000 100.000 59.7013 29.1995 97.0422
3 0.00000 0.00000 100.000 18.8711 8.14731 95.1290
4 100.000 100.000 0.00000 77.2354 92.8527 14.7151
5 0.00000 100.000 0.00000 36.4052 71.8005 12.8018
6 100.000 0.00000 0.00000 41.8302 22.0522 2.91323
7 0.00000 0.00000 0.00000 1.00000 1.00000 1.00000
8 50.0000 50.0000 50.0000 21.1427 22.1901 24.0831
END_DATA
