DisplayCAL/ref/ISO_14861_color_accuracy_RGB318.ti1
CTI1   

KEYWORD "COLOR_REP"
COLOR_REP "RGB"

NUMBER_OF_FIELDS 7
BEGIN_DATA_FORMAT
SAMPLE_ID RGB_R RGB_G RGB_B XYZ_X XYZ_Y XYZ_Z
END_DATA_FORMAT

NUMBER_OF_SETS 318
BEGIN_DATA
1 100.00 0.0000 0.0000 41.830 22.052 2.9132
2 0.0000 100.00 0.0000 36.405 71.801 12.802
3 0.0000 0.0000 100.00 18.871 8.1473 95.129
4 0.0000 0.0000 0.0000 1.0000 1.0000 1.0000
5 0.0000 0.0000 0.0000 1.0000 1.0000 1.0000
6 100.00 100.00 100.00 95.106 100.00 108.84
7 100.00 100.00 100.00 95.106 100.00 108.84
8 6.6667 6.6667 6.6667 1.5275 1.5549 1.6045
9 20.000 20.000 20.000 4.1154 4.2774 4.5702
10 49.804 49.804 49.804 20.972 22.011 23.888
11 80.000 80.000 80.000 57.824 60.779 66.119
12 89.412 89.412 89.412 74.010 77.806 84.668
13 100.00 100.00 100.00 95.106 100.00 108.84
14 100.00 0.0000 0.0000 41.830 22.052 2.9132
15 0.0000 100.00 0.0000 36.405 71.801 12.802
16 0.0000 0.0000 100.00 18.871 8.1473 95.129
17 0.0000 100.00 100.00 54.276 78.948 106.93
18 100.00 0.0000 100.00 59.701 29.199 97.042
19 100.00 100.00 0.0000 77.235 92.853 14.715
20 49.804 0.0000 0.0000 9.6654 5.4679 1.4060
21 0.0000 49.804 0.0000 8.5141 16.026 3.5047
22 0.0000 0.0000 49.804 4.7928 2.5169 20.977
23 86.667 0.0000 0.0000 30.522 16.222 2.3834
24 0.0000 0.0000 73.333 9.8807 4.5517 47.776
25 0.0000 86.667 0.0000 26.600 52.193 9.5334
26 0.0000 0.0000 86.667 13.922 6.1679 69.060
27 0.0000 49.804 49.804 12.307 17.543 23.482
28 0.0000 49.804 100.00 26.385 23.173 97.634
29 13.333 0.0000 0.0000 1.6531 1.3368 1.0306
30 0.0000 100.00 49.804 40.198 73.317 32.779
31 0.0000 73.333 0.0000 18.594 36.183 6.8647
32 0.0000 13.333 0.0000 1.5664 2.1325 1.1888
33 49.804 0.0000 49.804 13.458 6.9848 21.383
34 49.804 0.0000 100.00 27.537 12.615 95.535
35 49.804 49.804 0.0000 17.179 20.494 3.9108
36 73.333 0.0000 0.0000 21.290 11.462 1.9507
37 49.804 49.804 100.00 35.051 27.641 98.040
38 49.804 100.00 0.0000 45.071 76.268 13.208
39 49.804 100.00 49.804 48.863 77.785 33.185
40 49.804 100.00 100.00 62.942 83.416 107.34
41 26.667 0.0000 0.0000 3.3602 2.2169 1.1106
42 100.00 0.0000 49.804 45.623 23.569 22.890
43 0.0000 60.000 0.0000 12.278 23.553 4.7594
44 100.00 49.804 0.0000 49.344 37.078 5.4179
45 100.00 49.804 49.804 53.137 38.595 25.395
46 100.00 49.804 100.00 67.215 44.226 99.547
47 0.0000 26.667 0.0000 3.0466 5.0927 1.6822
48 100.00 100.00 49.804 81.028 94.370 34.692
49 60.000 0.0000 0.0000 14.006 7.7061 1.6095
50 0.0000 0.0000 13.333 1.2859 1.1143 2.5057
51 0.0000 0.0000 26.667 2.0330 1.4132 6.4412
52 0.0000 0.0000 60.000 6.6928 3.2768 30.984
53 13.333 6.6667 13.333 2.1375 1.8480 2.6025
54 20.000 13.333 20.000 3.5096 3.0661 4.3682
55 26.667 20.000 26.667 5.5653 4.9739 6.9425
56 0.0000 0.0000 33.333 2.6234 1.6493 9.5508
57 0.0000 0.0000 66.667 8.1838 3.8731 38.838
58 0.0000 0.0000 0.0000 1.0000 1.0000 1.0000
59 0.0000 0.0000 0.0000 1.0000 1.0000 1.0000
60 100.00 100.00 100.00 95.106 100.00 108.84
61 100.00 100.00 100.00 95.106 100.00 108.84
62 73.333 66.667 73.333 44.403 43.473 53.471
63 0.0000 33.333 0.0000 4.2163 7.4316 2.0721
64 0.0000 33.333 33.333 5.8397 8.0809 10.623
65 0.0000 33.333 66.667 11.400 10.305 39.910
66 0.0000 33.333 100.00 22.087 14.579 96.201
67 0.0000 66.667 0.0000 15.232 29.460 5.7441
68 0.0000 66.667 33.333 16.856 30.110 14.295
69 0.0000 66.667 66.667 22.416 32.333 43.582
70 0.0000 66.667 100.00 33.103 36.608 99.873
71 80.000 73.333 80.000 54.039 53.211 64.858
72 0.0000 100.00 33.333 38.029 72.450 21.353
73 0.0000 100.00 66.667 43.589 74.674 50.640
74 66.667 60.000 66.667 35.875 34.889 43.366
75 33.333 0.0000 0.0000 4.7091 2.9124 1.1738
76 33.333 0.0000 33.333 6.3325 3.5617 9.7246
77 33.333 0.0000 66.667 11.893 5.7855 39.012
78 33.333 0.0000 100.00 22.580 10.060 95.303
79 33.333 33.333 0.0000 7.9254 9.3441 2.2459
80 33.333 33.333 33.333 9.5488 9.9933 10.797
81 33.333 33.333 66.667 15.109 12.217 40.084
82 33.333 33.333 100.00 25.796 16.491 96.375
83 33.333 66.667 0.0000 18.941 31.373 5.9179
84 33.333 66.667 33.333 20.565 32.022 14.469
85 33.333 66.667 66.667 26.125 34.246 43.756
86 33.333 66.667 100.00 36.812 38.520 100.05
87 33.333 100.00 0.0000 40.114 73.713 12.976
88 33.333 100.00 33.333 41.738 74.362 21.526
89 33.333 100.00 66.667 47.298 76.586 50.813
90 33.333 100.00 100.00 57.985 80.860 107.10
91 66.667 0.0000 0.0000 17.413 9.4625 1.7691
92 66.667 0.0000 33.333 19.036 10.112 10.320
93 66.667 0.0000 66.667 24.597 12.336 39.607
94 66.667 0.0000 100.00 35.284 16.610 95.898
95 66.667 33.333 0.0000 20.629 15.894 2.8412
96 66.667 33.333 33.333 22.253 16.543 11.392
97 66.667 33.333 66.667 27.813 18.767 40.679
98 66.667 33.333 100.00 38.500 23.041 96.970
99 66.667 66.667 0.0000 31.645 37.923 6.5132
100 66.667 66.667 33.333 33.268 38.572 15.064
101 66.667 66.667 66.667 38.829 40.796 44.351
102 66.667 66.667 100.00 49.516 45.070 100.64
103 66.667 100.00 0.0000 52.818 80.263 13.571
104 66.667 100.00 33.333 54.441 80.912 22.122
105 66.667 100.00 66.667 60.002 83.136 51.409
106 66.667 100.00 100.00 70.689 87.410 107.70
107 86.667 80.000 86.667 64.823 64.141 77.570
108 100.00 0.0000 33.333 43.454 22.701 11.464
109 100.00 0.0000 66.667 49.014 24.925 40.751
110 60.000 53.333 60.000 28.416 27.414 34.500
111 100.00 33.333 0.0000 45.046 28.484 3.9853
112 0.0000 0.0000 0.0000 1.0000 1.0000 1.0000
113 0.0000 0.0000 0.0000 1.0000 1.0000 1.0000
114 100.00 100.00 100.00 95.106 100.00 108.84
115 100.00 100.00 100.00 95.106 100.00 108.84
116 100.00 33.333 33.333 46.670 29.133 12.536
117 100.00 33.333 66.667 52.230 31.357 41.823
118 100.00 33.333 100.00 62.918 35.631 98.114
119 100.00 66.667 0.0000 56.062 50.512 7.6573
120 100.00 66.667 33.333 57.686 51.162 16.208
121 100.00 66.667 66.667 63.246 53.385 45.495
122 100.00 66.667 100.00 73.933 57.660 101.79
123 53.333 46.667 53.333 21.984 21.004 26.823
124 100.00 100.00 33.333 78.859 93.502 23.266
125 100.00 100.00 66.667 84.419 95.726 52.553
126 6.6667 6.6667 0.0000 1.4273 1.5149 1.0769
127 3.1373 3.1373 3.1373 1.2285 1.2404 1.2619
128 86.667 100.00 100.00 83.799 94.170 108.31
129 13.333 13.333 13.333 2.5054 2.5836 2.7251
130 100.00 100.00 86.667 90.157 98.021 82.775
131 24.706 24.706 24.706 5.6777 5.9210 6.3606
132 26.667 26.667 26.667 6.4399 6.7227 7.2340
133 69.804 100.00 100.00 72.454 88.320 107.78
134 40.000 40.000 40.000 13.504 14.154 15.329
135 46.667 46.667 46.667 18.360 19.263 20.895
136 100.00 86.667 100.00 85.301 80.392 105.58
137 53.333 53.333 53.333 24.169 25.374 27.551
138 60.000 60.000 60.000 30.977 32.536 35.353
139 100.00 69.804 100.00 75.464 60.720 102.30
140 73.333 73.333 73.333 47.765 50.196 54.591
141 100.00 93.333 100.00 89.972 89.733 107.13
142 86.667 86.667 86.667 69.044 72.582 78.977
143 93.333 93.333 93.333 81.460 85.644 93.206
144 93.333 86.667 93.333 76.789 76.303 91.649
145 98.039 62.745 27.451 53.573 46.452 12.743
146 4.7059 9.8039 82.353 13.012 6.3720 61.786
147 69.412 31.765 94.902 37.733 22.428 86.392
148 3.5294 43.922 38.039 8.9845 13.384 14.169
149 76.471 79.608 18.823 44.954 54.982 11.874
150 49.020 44.706 64.706 22.055 19.920 38.795
151 70.980 75.294 27.451 39.624 48.485 13.870
152 67.843 65.490 16.078 32.140 37.315 8.4473
153 11.765 49.804 96.078 25.362 22.826 89.479
154 34.118 58.431 22.353 16.263 24.578 8.5806
155 75.294 25.490 50.588 28.317 17.409 23.296
156 69.804 89.020 96.078 62.692 71.284 96.866
157 54.902 13.726 14.902 12.649 7.8494 3.5245
158 25.882 83.922 25.490 27.977 50.134 14.016
159 81.569 24.314 92.941 43.594 23.742 82.491
160 34.902 19.608 25.098 7.1244 5.7278 6.3935
161 61.569 47.451 35.294 23.363 22.366 13.526
162 83.137 58.431 54.902 43.209 38.013 30.492
163 91.765 28.628 75.686 46.484 26.850 53.557
164 75.294 38.039 56.863 31.815 22.584 30.072
165 7.4510 5.4902 52.941 5.7512 3.1797 23.870
166 0.0000 0.0000 0.0000 1.0000 1.0000 1.0000
167 0.0000 0.0000 0.0000 1.0000 1.0000 1.0000
168 100.00 100.00 100.00 95.106 100.00 108.84
169 100.00 100.00 100.00 95.106 100.00 108.84
170 78.039 93.333 12.941 54.862 73.666 13.615
171 56.863 47.059 1.1765 19.227 20.265 3.8441
172 33.725 16.078 79.608 16.257 8.7974 57.654
173 30.980 52.941 16.471 13.184 19.965 6.1884
174 60.392 26.274 65.490 23.087 14.539 38.655
175 69.020 74.902 45.098 40.236 48.252 24.117
176 8.2353 22.745 91.373 17.366 9.9775 78.214
177 15.294 82.745 53.725 29.362 49.335 32.274
178 99.608 7.8431 44.314 44.666 23.540 18.522
179 10.588 96.078 0.3922 33.781 65.881 11.826
180 77.647 81.569 87.059 59.443 62.767 78.282
181 8.6275 40.000 25.882 7.0054 10.965 7.7116
182 80.000 43.137 90.980 45.596 30.519 79.953
183 18.039 26.274 14.510 4.4334 5.6813 3.4561
184 13.726 87.059 58.039 32.841 55.187 37.528
185 54.902 14.510 85.490 24.892 12.842 67.714
186 62.353 34.902 51.373 22.749 16.994 24.206
187 40.000 7.4510 23.922 7.4896 4.5918 5.7236
188 12.157 18.431 23.922 3.3998 3.6346 5.7542
189 41.569 5.0980 90.196 21.169 9.9748 75.807
190 94.510 49.020 49.020 47.841 35.503 24.407
191 33.725 90.196 36.863 34.816 59.783 21.053
192 10.980 78.039 38.824 23.925 42.572 19.507
193 24.314 40.392 9.8039 7.9427 11.687 3.6079
194 13.333 94.118 95.686 48.671 69.496 96.469
195 57.647 5.8824 23.529 13.890 7.8036 5.8679
196 35.294 81.961 1.5686 27.770 48.303 8.8347
197 4.3137 16.863 65.098 8.8067 5.5063 37.185
198 73.333 64.706 45.098 37.675 39.326 22.529
199 54.510 29.804 74.510 23.303 15.232 50.816
200 18.823 68.627 18.431 17.893 32.177 8.7916
201 36.863 62.745 78.039 28.223 32.327 59.122
202 8.2353 92.941 77.647 41.382 65.153 64.165
203 48.627 43.529 44.706 17.865 17.700 19.101
204 30.588 50.980 50.980 16.003 20.004 24.792
205 81.569 79.608 64.314 54.532 59.214 44.199
206 38.039 81.177 53.333 32.372 49.453 31.767
207 34.902 93.725 87.451 48.826 69.489 80.837
208 54.902 62.353 58.824 29.433 33.248 34.302
209 20.784 30.196 47.059 8.4377 8.3463 19.623
210 23.137 84.314 19.608 27.415 50.261 12.106
211 22.745 17.255 22.745 4.3755 3.9764 5.3609
212 43.529 30.980 92.157 25.105 15.820 80.426
213 43.137 18.431 90.588 22.654 12.007 76.853
214 98.039 43.922 10.980 45.977 32.680 5.8343
215 25.882 40.784 59.608 13.737 14.192 32.293
216 26.274 60.392 70.980 22.991 28.363 48.416
217 22.353 11.765 29.804 4.4218 3.2971 8.0344
218 31.765 42.353 50.980 13.658 14.945 23.939
219 8.6275 26.274 80.000 14.106 9.4586 58.515
220 0.0000 0.0000 0.0000 1.0000 1.0000 1.0000
221 0.0000 0.0000 0.0000 1.0000 1.0000 1.0000
222 100.00 100.00 100.00 95.106 100.00 108.84
223 100.00 100.00 100.00 95.106 100.00 108.84
224 2.7451 92.941 72.941 39.846 64.513 57.218
225 49.020 58.039 23.922 20.692 26.618 9.2799
226 45.882 96.471 54.510 45.506 71.839 36.519
227 52.157 23.137 49.020 15.790 10.500 21.269
228 62.353 67.843 39.608 32.277 38.815 18.845
229 36.863 98.823 3.9216 40.089 72.299 12.988
230 88.627 91.373 79.608 71.575 78.971 68.286
231 9.8039 26.274 33.725 5.0472 5.8437 10.441
232 67.843 13.726 72.157 27.223 14.413 47.116
233 10.588 65.490 49.412 18.858 30.081 25.220
234 78.039 71.373 90.196 55.022 51.798 82.097
235 89.020 33.333 69.804 43.536 26.785 45.448
236 19.608 3.1373 74.510 11.590 5.5237 49.558
237 49.804 47.843 90.588 30.837 24.958 78.922
238 61.176 61.961 85.882 39.339 37.270 72.350
239 80.392 57.647 18.431 36.765 34.713 8.2872
240 23.922 88.627 2.7451 29.870 55.843 10.265
241 49.020 16.863 98.039 27.313 13.860 91.662
242 71.373 49.804 47.059 30.970 27.216 22.079
243 5.8824 68.235 4.3137 16.241 31.092 6.3195
244 7.0588 52.157 9.8039 9.7250 17.803 4.6947
245 81.961 81.569 72.157 57.931 62.507 54.782
246 14.902 65.882 51.765 19.779 30.781 27.378
247 97.255 64.706 80.000 63.439 51.717 64.074
248 45.490 43.137 82.353 25.169 20.323 63.839
249 8.2353 13.333 17.255 2.3227 2.4704 3.5739
250 39.216 83.137 80.392 40.423 54.660 66.479
251 5.8824 40.000 52.549 10.160 12.212 25.017
252 41.569 65.490 62.745 26.849 33.906 38.926
253 29.020 43.137 1.5686 9.3383 13.490 3.0855
254 98.431 16.863 10.588 41.439 23.097 4.1624
255 37.255 20.000 49.020 10.509 7.2187 20.913
256 34.118 95.294 92.157 51.471 72.401 89.959
257 5.0980 73.725 27.059 20.033 37.115 12.544
258 42.353 54.902 94.118 31.980 28.952 86.403
259 41.961 98.431 30.196 42.484 72.926 19.652
260 70.196 66.667 53.725 38.108 40.738 30.154
261 69.804 66.667 17.647 33.879 39.020 9.0659
262 12.941 100.00 17.255 37.476 72.301 15.202
263 3.1373 56.078 88.235 24.280 25.880 75.120
264 67.059 19.216 36.863 20.715 12.548 12.678
265 45.882 98.039 15.686 42.489 72.580 14.620
266 85.490 64.314 37.647 44.860 42.880 17.733
267 19.216 42.745 48.235 11.208 13.889 21.508
268 46.667 40.000 46.667 16.533 15.609 20.285
269 40.000 33.333 40.000 12.016 11.178 14.833
270 33.333 26.667 33.333 8.3791 7.6543 10.407
271 93.333 93.333 86.667 79.102 84.701 80.787
272 86.667 86.667 80.000 66.913 71.730 67.754
273 80.000 80.000 73.333 55.914 60.015 56.057
274 0.0000 0.0000 0.0000 1.0000 1.0000 1.0000
275 0.0000 0.0000 0.0000 1.0000 1.0000 1.0000
276 100.00 100.00 100.00 95.106 100.00 108.84
277 100.00 100.00 100.00 95.106 100.00 108.84
278 73.333 73.333 66.667 46.068 49.518 45.653
279 100.00 100.00 69.804 85.192 96.035 56.621
280 66.667 66.667 60.000 37.338 40.199 36.498
281 60.000 60.000 53.333 29.684 32.019 28.544
282 53.333 53.333 46.667 23.066 24.933 21.741
283 46.667 46.667 40.000 17.438 18.894 16.037
284 100.00 100.00 93.333 92.515 98.964 95.195
285 40.000 40.000 33.333 12.753 13.854 11.373
286 33.333 33.333 26.667 8.9584 9.7572 7.6871
287 26.667 26.667 20.000 5.9984 6.5462 4.9089
288 20.000 20.000 13.333 3.8096 4.1551 2.9597
289 13.333 13.333 6.6667 2.3197 2.5094 1.7470
290 100.00 93.333 93.333 87.381 88.697 93.483
291 93.333 100.00 93.333 86.594 95.911 94.917
292 93.333 93.333 100.00 84.052 86.681 106.86
293 0.0000 6.6667 6.6667 1.2986 1.4369 1.5938
294 6.6667 13.333 13.333 2.0811 2.3649 2.7052
295 13.333 20.000 20.000 3.4168 3.9172 4.5374
296 20.000 26.667 26.667 5.4313 6.2027 7.1867
297 26.667 33.333 33.333 8.1999 9.2978 10.734
298 33.333 40.000 40.000 11.788 13.269 15.249
299 40.000 46.667 46.667 16.253 18.177 20.796
300 46.667 53.333 53.333 21.649 24.074 27.433
301 53.333 60.000 60.000 28.023 31.013 35.215
302 60.000 66.667 66.667 35.422 39.039 44.191
303 66.667 73.333 73.333 43.888 48.197 54.410
304 73.333 80.000 80.000 53.460 58.529 65.915
305 80.000 86.667 86.667 64.176 70.072 78.749
306 86.667 93.333 93.333 76.073 82.867 92.953
307 93.333 100.00 100.00 89.186 96.947 108.57
308 100.00 86.667 86.667 80.352 78.413 79.507
309 86.667 100.00 86.667 78.849 92.190 82.246
310 86.667 86.667 100.00 73.993 74.562 105.05
311 6.6667 0.0000 6.6667 1.3290 1.1581 1.5384
312 0.0000 0.0000 0.0000 1.0000 1.0000 1.0000
313 0.0000 0.0000 0.0000 1.0000 1.0000 1.0000
314 100.00 100.00 100.00 95.106 100.00 108.84
315 100.00 100.00 100.00 95.106 100.00 108.84
316 100.00 0.0000 0.0000 41.830 22.052 2.9132
317 0.0000 100.00 0.0000 36.405 71.801 12.802
318 0.0000 0.0000 100.00 18.871 8.1473 95.129
END_DATA
