DisplayCAL/ref/verify_video_extended_smpte2084_200_p3_2020.ti1
CTI1   

DESCRIPTOR "Argyll Calibration Target chart information 1"
ORIGINATOR "Argyll fakeread"
CREATED "Tue Dec 26 00:55:07 2017"
APPROX_WHITE_POINT "95.045471 100.000000 108.905029"
COLOR_REP "RGB"
ACCURATE_EXPECTED_VALUES "true"
WHITE_COLOR_PATCHES "1"
BLACK_COLOR_PATCHES "1"
COMP_GREY_STEPS "21"

NUMBER_OF_FIELDS 7
BEGIN_DATA_FORMAT
SAMPLE_ID RGB_R RGB_G RGB_B XYZ_X XYZ_Y XYZ_Z 
END_DATA_FORMAT

NUMBER_OF_SETS 81
BEGIN_DATA
1 100.0000 100.0000 100.0000 95.04547 100.0000 108.9050 
2 0.00000 0.00000 0.00000 0.00000 0.00000 0.00000 
3 5.000000 5.000000 5.000000 0.00000 0.00000 0.00000 
4 10.00000 10.00000 10.00000 0.00290060 0.00305180 0.00332357 
5 15.00000 15.00000 15.00000 0.0101521 0.0106813 0.0116325 
6 20.00000 20.00000 20.00000 0.0232048 0.0244144 0.0265885 
7 25.00000 25.00000 25.00000 0.0489477 0.0514992 0.0560852 
8 30.00000 30.00000 30.00000 0.0955748 0.100557 0.109512 
9 35.00000 35.00000 35.00000 0.175559 0.184710 0.201159 
10 40.00000 40.00000 40.00000 0.308044 0.324102 0.352963 
11 45.00000 45.00000 45.00000 0.525589 0.552987 0.602231 
12 50.00000 50.00000 50.00000 0.876707 0.922408 1.004549 
13 55.00000 55.00000 55.00000 1.435580 1.510414 1.644917 
14 60.00000 60.00000 60.00000 2.319031 2.439918 2.657193 
15 65.00000 65.00000 65.00000 3.711103 3.904555 4.252257 
16 70.00000 70.00000 70.00000 5.900839 6.208438 6.761301 
17 75.00000 75.00000 75.00000 9.346464 9.833677 10.70937 
18 80.00000 80.00000 80.00000 14.78118 15.55169 16.93657 
19 85.00000 85.00000 85.00000 23.39154 24.61089 26.80250 
20 90.00000 90.00000 90.00000 37.12147 39.05653 42.53453 
21 95.00000 95.00000 95.00000 59.19410 62.27977 67.82581 
22 40.28538 18.55543 0.00000 0.215852 0.101123 0.000123642 
23 31.09057 42.96390 14.16264 0.139025 0.333296 0.0220592 
24 19.03466 10.61933 43.26486 0.0918446 0.0355891 0.489680 
25 43.02037 43.34914 14.13704 0.354877 0.434420 0.0221829 
26 32.43222 43.04977 43.44353 0.230870 0.368885 0.511739 
27 40.82645 19.79057 43.25847 0.307697 0.136712 0.489804 
28 25.97800 25.97800 25.97800 0.0562063 0.0591362 0.0644023 
29 34.43513 23.59118 21.98348 0.121768 0.0756682 0.0366107 
30 41.99595 22.85892 16.97915 0.264437 0.132349 0.0167610 
31 48.56990 24.96903 10.59417 0.516663 0.244588 0.00527881 
32 54.39014 28.49943 0.00000 0.918292 0.430205 0.000526008 
33 49.00101 49.00099 49.00100 0.792853 0.834182 0.908466 
34 43.97282 52.17040 38.98847 0.530979 0.923579 0.340627 
35 42.60118 54.44337 30.76735 0.499177 1.089412 0.157946 
36 42.90736 56.10686 24.72493 0.534268 1.259382 0.100521 
37 43.77595 57.37704 22.97470 0.591451 1.417932 0.0938458 
38 13.19648 14.07625 13.19648 0.00725150 0.00762951 0.00830892 
39 14.11545 14.08377 19.04553 0.00993510 0.00866938 0.0226168 
40 14.13341 13.12848 25.99379 0.0164061 0.0102129 0.0631882 
41 16.34856 12.04296 36.24708 0.0446972 0.0192477 0.226167 
42 29.07011 18.00722 57.71817 0.390731 0.151406 2.083230 
43 55.80300 55.80300 55.80300 1.551310 1.632177 1.777522 
44 56.21324 56.46525 45.72556 1.433890 1.661224 0.682004 
45 56.66769 57.01532 36.11645 1.430907 1.722317 0.274056 
46 57.07628 57.45650 27.33625 1.464568 1.786849 0.129255 
47 57.43738 57.82166 22.57253 1.509743 1.848137 0.0943718 
48 51.42200 51.42201 51.42200 1.009887 1.062531 1.157149 
49 47.75861 52.86939 53.13099 0.858108 1.099350 1.368838 
50 45.35250 54.39750 54.78067 0.821825 1.204342 1.608191 
51 44.62817 55.94342 56.37529 0.870077 1.364098 1.877340 
52 45.37957 57.46864 57.92208 0.982182 1.569337 2.177076 
53 30.43597 30.43601 30.43601 0.100593 0.105837 0.115262 
54 34.18651 28.71922 35.42913 0.151658 0.113191 0.207802 
55 39.20855 26.82198 41.23460 0.262050 0.145168 0.396055 
56 45.91967 25.96435 48.38039 0.528724 0.246377 0.833236 
57 55.01346 29.98647 57.70910 1.309024 0.581610 2.083756 
58 21.63152 15.69334 12.02860 0.0221724 0.0162132 0.00526492 
59 41.22418 31.92795 26.39842 0.265382 0.187703 0.0700481 
60 21.25259 24.68987 32.88142 0.0503776 0.0500250 0.154187 
61 18.48073 21.22944 12.05411 0.0168052 0.0249734 0.00618595 
62 27.49075 26.40653 37.89326 0.0983509 0.0767207 0.274225 
63 31.12070 41.04241 37.09969 0.165598 0.290990 0.259636 
64 46.93185 29.03629 8.711591 0.443248 0.237550 0.00429579 
65 17.98836 17.58177 36.42610 0.0497714 0.0285280 0.230806 
66 40.48273 21.28473 18.53678 0.225598 0.111469 0.0212935 
67 16.92266 10.60719 20.59631 0.0139784 0.00785517 0.0287634 
68 35.84168 40.92146 15.68921 0.183426 0.297507 0.0222211 
69 48.78071 36.08915 8.754232 0.550799 0.356583 0.00839234 
70 13.10005 12.07037 30.73115 0.0233199 0.0117578 0.117328 
71 21.91344 30.84182 14.89553 0.0384463 0.0851187 0.0134802 
72 35.99152 16.40914 8.780182 0.134015 0.0636061 0.00332731 
73 51.38499 44.18966 14.09944 0.749430 0.623429 0.0227505 
74 39.37497 20.99604 31.55162 0.217744 0.106270 0.129952 
75 21.22255 27.95433 36.33825 0.0660852 0.0731282 0.230035 
76 55.33752 55.41019 54.78545 1.471155 1.562936 1.613021 
77 44.21134 44.52487 44.59140 0.490468 0.522277 0.577653 
78 34.36383 34.70185 34.83271 0.165252 0.176681 0.196596 
79 24.46611 24.53161 24.63351 0.0457089 0.0485006 0.0531767 
80 15.65553 15.68360 15.73709 0.0106568 0.0112920 0.0132550 
81 8.699902 5.571847 5.571847 0.00145030 0.00152590 0.00166178 
END_DATA
