DisplayCAL/ref/verify_video_extended_smpte2084_500_p3_2020.ti1
CTI1   

DESCRIPTOR "Argyll Calibration Target chart information 1"
ORIGINATOR "Argyll fakeread"
CREATED "Tue Dec 26 01:25:59 2017"
APPROX_WHITE_POINT "95.045471 100.000000 108.905029"
COLOR_REP "RGB"
ACCURATE_EXPECTED_VALUES "true"
WHITE_COLOR_PATCHES "1"
BLACK_COLOR_PATCHES "1"
COMP_GREY_STEPS "21"

NUMBER_OF_FIELDS 7
BEGIN_DATA_FORMAT
SAMPLE_ID RGB_R RGB_G RGB_B XYZ_X XYZ_Y XYZ_Z 
END_DATA_FORMAT

NUMBER_OF_SETS 81
BEGIN_DATA
1 100.0000 100.0000 100.0000 95.04547 100.0000 108.9050 
2 0.00000 0.00000 0.00000 0.00000 0.00000 0.00000 
3 5.000000 5.000000 5.000000 0.00000 0.00000 0.00000 
4 10.00000 10.00000 10.00000 0.00290060 0.00305180 0.00332357 
5 15.00000 15.00000 15.00000 0.0101521 0.0106813 0.0116325 
6 20.00000 20.00000 20.00000 0.0232048 0.0244144 0.0265885 
7 25.00000 25.00000 25.00000 0.0489477 0.0514992 0.0560852 
8 30.00000 30.00000 30.00000 0.0955748 0.100557 0.109512 
9 35.00000 35.00000 35.00000 0.175559 0.184710 0.201159 
10 40.00000 40.00000 40.00000 0.308044 0.324102 0.352963 
11 45.00000 45.00000 45.00000 0.525589 0.552987 0.602231 
12 50.00000 50.00000 50.00000 0.876707 0.922408 1.004549 
13 55.00000 55.00000 55.00000 1.435580 1.510414 1.644917 
14 60.00000 60.00000 60.00000 2.319031 2.439918 2.657193 
15 65.00000 65.00000 65.00000 3.711103 3.904555 4.252257 
16 70.00000 70.00000 70.00000 5.900839 6.208438 6.761301 
17 75.00000 75.00000 75.00000 9.346464 9.833677 10.70937 
18 80.00000 80.00000 80.00000 14.78118 15.55169 16.93657 
19 85.00000 85.00000 85.00000 23.39154 24.61089 26.80250 
20 90.00000 90.00000 90.00000 37.12147 39.05653 42.53453 
21 95.00000 95.00000 95.00000 59.19410 62.27977 67.82581 
22 47.36565 23.56704 0.00000 0.456047 0.213651 0.000261229 
23 37.36939 50.21811 18.51721 0.293729 0.704181 0.0466062 
24 23.85110 14.13185 50.55230 0.194047 0.0751918 1.034585 
25 50.27340 50.65509 18.07212 0.749777 0.917832 0.0468674 
26 38.88443 50.30446 50.75173 0.487777 0.779373 1.081191 
27 47.96089 24.69783 50.54328 0.650094 0.288842 1.034846 
28 30.34998 30.35005 30.35001 0.0993173 0.104495 0.113800 
29 40.39507 27.63885 25.78500 0.235998 0.142727 0.0632514 
30 49.36119 27.77678 20.17040 0.565986 0.279545 0.0285604 
31 57.13385 31.10939 10.64744 1.199519 0.565655 0.00794721 
32 64.00374 36.04019 0.00000 2.295899 1.075591 0.00131512 
33 57.24700 57.24700 57.24700 1.783351 1.876313 2.043399 
34 51.72320 60.98035 45.65750 1.184924 2.137819 0.703798 
35 50.77596 63.65612 36.45614 1.169660 2.609998 0.328038 
36 51.59674 65.61806 30.70927 1.305731 3.095214 0.232951 
37 52.80226 67.10244 29.57797 1.478735 3.545090 0.234632 
38 15.73802 15.73802 16.32454 0.0116024 0.0122072 0.0132943 
39 15.71113 15.65388 22.28447 0.0150026 0.0125608 0.0374933 
40 16.41039 14.91230 30.44177 0.0279635 0.0166192 0.112667 
41 19.77870 14.11233 42.36589 0.0869041 0.0365665 0.445127 
42 36.65493 23.75714 67.45692 0.976900 0.378542 5.208457 
43 65.19300 65.19300 65.19300 3.778412 3.975373 4.329382 
44 65.69187 65.97416 53.43996 3.490499 4.069888 1.496478 
45 66.24633 66.61216 42.47384 3.521341 4.253997 0.576685 
46 66.74089 67.13570 33.20992 3.639048 4.444468 0.291937 
47 67.16641 67.56398 29.20791 3.774634 4.620681 0.235947 
48 60.07500 60.07500 60.07500 2.335722 2.457479 2.676318 
49 55.93959 61.78744 62.07158 1.972477 2.569450 3.229746 
50 53.59588 63.59005 63.99715 1.934567 2.877513 3.869065 
51 53.32749 65.40666 65.86102 2.117768 3.337383 4.603132 
52 54.51631 67.19877 67.66708 2.455635 3.923631 5.443089 
53 35.55705 35.55698 35.55703 0.186724 0.196457 0.213952 
54 40.00027 33.55254 41.39591 0.292771 0.213308 0.404972 
55 45.98977 31.56266 48.19770 0.538211 0.289379 0.819875 
56 53.92324 31.44997 56.54872 1.179650 0.542641 1.864231 
57 64.65344 37.70366 67.44753 3.272799 1.454132 5.209773 
58 25.18655 18.02662 14.08226 0.0375089 0.0261576 0.00868304 
59 48.31494 37.36684 30.86436 0.549980 0.375235 0.126173 
60 24.97622 28.94083 38.43416 0.0911204 0.0886070 0.291205 
61 21.27154 24.63775 13.15188 0.0272997 0.0414230 0.00872882 
62 32.11614 30.83893 44.25447 0.185918 0.140706 0.546941 
63 36.99755 47.99223 43.34595 0.335339 0.599415 0.515399 
64 55.14989 34.62734 5.567860 1.001409 0.521939 0.00649247 
65 21.63937 20.99591 42.53734 0.0959606 0.0528896 0.453254 
66 47.58314 25.91706 21.63750 0.474246 0.231244 0.0345782 
67 19.76404 12.10912 24.14193 0.0233389 0.0128095 0.0486890 
68 42.00430 47.82770 18.99829 0.367252 0.609246 0.0424104 
69 57.24699 42.41355 12.09566 1.256972 0.778553 0.0178585 
70 15.64617 13.19335 35.89118 0.0425313 0.0201092 0.217422 
71 26.12202 36.17238 16.97358 0.0710826 0.159458 0.0215219 
72 42.28611 20.54228 10.62014 0.269576 0.127315 0.00501303 
73 60.18429 51.68770 17.58667 1.742305 1.393368 0.0483009 
74 46.25459 25.54120 36.84440 0.447959 0.216617 0.244129 
75 25.37707 32.77319 42.45147 0.126365 0.135060 0.452147 
76 64.65101 64.73442 64.00351 3.559617 3.786702 3.882117 
77 51.64624 52.01262 52.09535 1.047253 1.117087 1.237025 
78 40.14207 40.55060 40.69358 0.318861 0.340808 0.381362 
79 28.64478 28.67479 28.77618 0.0802330 0.0844189 0.0936475 
80 18.01884 18.08084 18.57113 0.0170010 0.0180981 0.0215308 
81 8.744162 8.794526 10.55725 0.00236183 0.00279940 0.00332326 
END_DATA
