DisplayCAL/ref/verify_video_large.ti1
CTI1   

ORIGINATOR "Argyll targen"
KEYWORD "OFPS_PATCHES"
OFPS_PATCHES "200"
CREATED "Mon Jan 13 22:06:17 2014"
KEYWORD "COMP_GREY_STEPS"
COMP_GREY_STEPS "21"
KEYWORD "BLACK_COLOR_PATCHES"
BLACK_COLOR_PATCHES "1"
KEYWORD "APPROX_WHITE_POINT"
APPROX_WHITE_POINT "95.045684 99.999971 108.903720"
DESCRIPTOR "Argyll Calibration Target chart information 1"
KEYWORD "MULTI_DIM_STEPS"
MULTI_DIM_STEPS "2"
KEYWORD "DARK_REGION_EMPHASIS"
DARK_REGION_EMPHASIS "1.6"
KEYWORD "ACCURATE_EXPECTED_VALUES"
ACCURATE_EXPECTED_VALUES "true"
KEYWORD "WHITE_COLOR_PATCHES"
WHITE_COLOR_PATCHES "1"
KEYWORD "COLOR_REP"
COLOR_REP "RGB"

NUMBER_OF_FIELDS 7
BEGIN_DATA_FORMAT
SAMPLE_ID RGB_R RGB_G RGB_B XYZ_X XYZ_Y XYZ_Z
END_DATA_FORMAT

NUMBER_OF_SETS 335
BEGIN_DATA
1 100.00 100.00 100.00 95.046 100.00 108.90
2 0.0000 0.0000 0.0000 1.0000 1.0000 1.0000
3 5.0000 5.0000 5.0000 1.0560 1.1110 1.2099
4 10.000 10.000 10.000 2.1317 2.2428 2.4425
5 15.000 15.000 15.000 3.5075 3.6903 4.0189
6 20.000 20.000 20.000 5.2684 5.5430 6.0365
7 25.000 25.000 25.000 7.4285 7.8157 8.5116
8 30.000 30.000 30.000 10.002 10.523 11.460
9 35.000 35.000 35.000 13.002 13.680 14.898
10 40.000 40.000 40.000 16.442 17.299 18.839
11 45.000 45.000 45.000 20.328 21.388 23.292
12 50.000 50.000 50.000 24.673 25.959 28.270
13 55.000 55.000 55.000 29.485 31.022 33.784
14 60.000 60.000 60.000 34.771 36.584 39.841
15 65.000 65.000 65.000 40.542 42.655 46.453
16 70.000 70.000 70.000 46.802 49.242 53.626
17 75.000 75.000 75.000 53.560 56.352 61.370
18 80.000 80.000 80.000 60.823 63.994 69.692
19 85.000 85.000 85.000 68.597 72.173 78.599
20 90.000 90.000 90.000 76.889 80.896 88.099
21 95.000 95.000 95.000 85.702 90.170 98.198
22 5.0000 0.0000 0.0000 0.4582 0.2362 0.0215
23 10.000 0.0000 0.0000 0.9249 0.4769 0.0433
24 15.000 0.0000 0.0000 1.5218 0.7847 0.0713
25 20.000 0.0000 0.0000 2.2858 1.1787 0.1071
26 25.000 0.0000 0.0000 3.2231 1.6620 0.1510
27 30.000 0.0000 0.0000 4.3396 2.2377 0.2034
28 35.000 0.0000 0.0000 5.6414 2.9090 0.2644
29 40.000 0.0000 0.0000 7.1338 3.6785 0.3343
30 45.000 0.0000 0.0000 8.8201 4.5480 0.4133
31 50.000 0.0000 0.0000 10.705 5.5199 0.5017
32 55.000 0.0000 0.0000 12.793 6.5966 0.5995
33 60.000 0.0000 0.0000 15.087 7.7793 0.7070
34 65.000 0.0000 0.0000 17.590 9.0703 0.8243
35 70.000 0.0000 0.0000 20.307 10.471 0.9516
36 75.000 0.0000 0.0000 23.239 11.983 1.0890
37 80.000 0.0000 0.0000 26.390 13.608 1.2367
38 85.000 0.0000 0.0000 29.763 15.347 1.3947
39 90.000 0.0000 0.0000 33.361 17.202 1.5633
40 95.000 0.0000 0.0000 37.185 19.174 1.7425
41 0.0000 5.0000 0.0000 0.3973 0.7946 0.1324
42 0.0000 10.000 0.0000 0.8020 1.6040 0.2673
43 0.0000 15.000 0.0000 1.3196 2.6392 0.4398
44 0.0000 20.000 0.0000 1.9821 3.9642 0.6606
45 0.0000 25.000 0.0000 2.7948 5.5895 0.9315
46 0.0000 30.000 0.0000 3.7629 7.5258 1.2542
47 0.0000 35.000 0.0000 4.8918 9.7835 1.6305
48 0.0000 40.000 0.0000 6.1859 12.372 2.0618
49 0.0000 45.000 0.0000 7.6481 15.296 2.5492
50 0.0000 50.000 0.0000 9.2825 18.565 3.0939
51 0.0000 55.000 0.0000 11.093 22.186 3.6974
52 0.0000 60.000 0.0000 13.082 26.163 4.3603
53 0.0000 65.000 0.0000 15.253 30.506 5.0839
54 0.0000 70.000 0.0000 17.608 35.216 5.8690
55 0.0000 75.000 0.0000 20.151 40.301 6.7164
56 0.0000 80.000 0.0000 22.883 45.766 7.6272
57 0.0000 85.000 0.0000 25.808 51.616 8.6020
58 0.0000 90.000 0.0000 28.928 57.855 9.6417
59 0.0000 95.000 0.0000 32.243 64.486 10.747
60 0.0000 0.0000 5.0000 0.2005 0.0802 1.0560
61 0.0000 0.0000 10.000 0.4048 0.1619 2.1318
62 0.0000 0.0000 15.000 0.6660 0.2664 3.5077
63 0.0000 0.0000 20.000 1.0004 0.4001 5.2688
64 0.0000 0.0000 25.000 1.4106 0.5642 7.4290
65 0.0000 0.0000 30.000 1.8993 0.7597 10.002
66 0.0000 0.0000 35.000 2.4690 0.9876 13.003
67 0.0000 0.0000 40.000 3.1222 1.2488 16.443
68 0.0000 0.0000 45.000 3.8602 1.5440 20.330
69 0.0000 0.0000 50.000 4.6851 1.8739 24.674
70 0.0000 0.0000 55.000 5.5990 2.2395 29.487
71 0.0000 0.0000 60.000 6.6028 2.6410 34.774
72 0.0000 0.0000 65.000 7.6986 3.0792 40.545
73 0.0000 0.0000 70.000 8.8874 3.5547 46.806
74 0.0000 0.0000 75.000 10.171 4.0680 53.564
75 0.0000 0.0000 80.000 11.550 4.6197 60.828
76 0.0000 0.0000 85.000 13.026 5.2101 68.602
77 0.0000 0.0000 90.000 14.601 5.8399 76.894
78 0.0000 0.0000 95.000 16.274 6.5093 85.709
79 75.000 75.000 0.0000 43.390 52.284 7.8054
80 0.0000 75.000 75.000 30.322 44.369 60.281
81 75.000 0.0000 75.000 33.410 16.051 54.653
82 44.857 44.857 44.857 20.211 21.264 23.158
83 63.673 38.191 38.191 25.480 21.264 17.839
84 77.882 30.157 30.157 30.740 21.264 12.529
85 89.702 19.413 19.413 35.993 21.264 7.2266
86 100.00 0.0000 0.0000 41.238 21.264 1.9325
87 84.611 84.611 84.611 67.974 71.517 77.885
88 66.425 90.768 66.425 55.794 71.517 52.945
89 49.339 94.865 49.339 47.167 71.517 35.280
90 30.889 97.796 30.889 40.737 71.517 22.113
91 0.0000 100.00 0.0000 35.759 71.517 11.919
92 23.776 23.776 23.776 6.8614 7.2191 7.8619
93 22.893 22.893 33.269 7.5025 7.2191 12.858
94 21.329 21.329 45.163 8.5869 7.2191 21.310
95 17.770 17.770 62.889 10.818 7.2191 38.695
96 0.0000 0.0000 100.00 18.049 7.2191 95.054
97 96.356 96.356 96.356 88.184 92.781 101.04
98 97.606 97.606 78.320 84.396 92.781 71.521
99 98.581 98.581 60.005 81.409 92.781 48.236
100 99.361 99.361 39.013 78.992 92.781 29.401
101 100.00 100.00 0.0000 76.997 92.781 13.851
102 88.791 88.791 88.791 74.835 78.736 85.747
103 76.814 91.734 91.734 69.581 78.736 91.050
104 62.359 94.577 94.577 64.325 78.736 96.356
105 43.001 97.330 97.330 59.068 78.736 101.66
106 0.0000 100.00 100.00 53.807 78.736 106.97
107 52.554 52.554 52.554 27.072 28.483 31.020
108 61.327 48.605 61.327 31.424 28.483 39.931
109 71.488 42.636 71.488 37.351 28.483 52.068
110 83.868 32.173 83.868 45.896 28.483 69.566
111 100.00 0.0000 100.00 59.287 28.483 96.986
112 40.014 25.786 20.317 11.099 9.9635 6.7068
113 75.324 53.324 45.514 37.843 34.593 25.342
114 29.729 42.874 56.966 17.263 18.608 34.043
115 29.370 36.749 19.123 10.451 13.186 6.9022
116 45.878 45.225 65.633 24.698 23.284 44.310
117 30.467 71.586 63.893 30.296 42.064 45.565
118 86.504 43.440 12.117 38.502 30.443 6.5044
119 20.525 29.989 63.105 13.408 11.655 39.664
120 75.217 26.193 32.376 28.543 18.938 13.474
121 30.976 16.581 35.901 8.6732 6.4200 14.309
122 58.214 71.178 18.499 33.326 44.081 11.428
123 89.196 59.446 9.2210 45.989 42.749 7.7700
124 7.7021 18.704 53.282 7.7766 6.0657 28.411
125 20.128 54.049 23.036 14.282 23.155 10.217
126 67.276 12.896 16.166 20.622 12.158 5.1263
127 92.643 75.270 3.0853 55.771 58.867 9.0726
128 72.946 27.032 54.748 30.727 19.906 31.320
129 0.0000 48.676 62.903 14.518 19.761 40.936
130 95.568 95.693 94.577 86.481 91.294 97.612
131 76.096 76.909 76.998 55.793 58.956 64.583
132 59.061 59.970 60.149 34.343 36.341 39.981
133 42.165 42.383 42.534 18.187 19.160 21.010
134 26.405 27.083 27.768 8.3684 8.8404 10.026
135 12.892 13.165 13.693 2.9545 3.1078 3.5418
136 76.553 26.113 0.0000 27.190 18.468 2.1325
137 79.787 34.093 45.206 34.819 24.444 23.288
138 100.00 41.707 48.805 52.384 36.388 27.748
139 100.00 62.158 100.00 73.284 56.476 101.65
140 0.0000 9.0970 16.146 1.4596 1.7414 4.1180
141 9.5810 8.2809 19.304 2.4880 2.1472 5.2603
142 6.5916 5.6661 27.338 2.6838 1.8640 8.7589
143 59.629 49.098 63.092 31.154 28.545 41.975
144 61.087 63.708 66.605 38.357 40.627 48.122
145 76.113 68.043 66.156 48.550 48.848 48.623
146 69.726 26.339 24.899 24.592 17.029 9.3383
147 84.526 45.775 41.486 40.656 32.290 21.560
148 94.191 64.568 60.538 58.325 51.648 42.102
149 100.00 63.984 71.908 65.401 54.604 56.190
150 12.140 0.0000 14.551 1.8004 0.8544 3.4237
151 0.0000 0.0000 15.604 0.7025 0.2810 3.6998
152 15.530 32.053 41.667 9.1604 10.580 19.165
153 18.071 45.124 46.659 13.782 18.039 24.375
154 19.249 83.130 54.230 32.304 52.677 37.046
155 26.082 62.331 33.125 19.766 30.819 16.679
156 46.240 80.225 49.609 36.897 52.647 32.422
157 55.316 89.238 69.232 50.069 67.025 55.896
158 0.0000 39.306 20.509 7.0344 12.407 7.4678
159 0.0000 70.516 35.262 20.363 36.724 19.126
160 0.0000 100.00 41.886 39.149 72.873 29.774
161 59.018 51.977 12.583 25.128 27.706 6.8068
162 85.632 73.980 11.249 50.286 54.994 10.394
163 69.827 53.168 0.0000 30.617 31.238 4.4163
164 69.274 78.644 0.0000 42.022 54.507 8.3064
165 72.908 100.00 56.690 63.672 85.224 44.169
166 0.0000 13.139 41.303 4.4167 3.5435 17.782
167 51.734 16.273 71.687 22.191 12.554 50.056
168 74.463 36.065 81.927 40.175 26.965 66.554
169 78.550 67.811 83.442 54.563 51.254 72.833
170 63.950 40.446 50.693 28.163 23.331 28.215
171 63.963 76.284 67.735 46.225 53.796 51.652
172 76.994 100.00 82.377 72.468 89.030 77.525
173 24.798 0.0000 14.050 3.7926 1.8850 3.3670
174 47.101 11.773 13.930 11.162 7.1247 3.9548
175 85.439 15.130 19.977 32.404 18.576 7.1140
176 72.815 0.0000 0.0000 21.931 11.309 1.0277
177 100.00 33.693 19.911 46.813 30.824 8.6936
178 15.159 35.213 17.388 7.3038 11.009 6.0193
179 19.355 57.124 14.647 14.739 25.212 7.4729
180 17.293 80.452 28.582 26.744 47.935 17.030
181 55.094 85.255 38.731 41.745 59.721 24.782
182 73.560 86.039 61.601 55.755 67.193 46.430
183 43.616 41.742 31.787 17.103 18.486 13.642
184 58.923 51.513 31.035 26.397 27.942 14.542
185 84.019 77.770 33.058 52.963 59.174 20.363
186 100.00 100.00 59.980 83.596 95.420 48.602
187 12.070 0.0000 0.0000 1.1525 0.5943 0.0540
188 8.1071 7.3630 8.1585 1.6522 1.6829 1.9477
189 11.508 25.400 52.390 9.0651 8.3376 27.923
190 18.080 39.254 58.254 14.196 15.478 34.960
191 69.340 49.749 77.658 40.024 33.029 61.362
192 0.0000 10.211 0.0000 0.8208 1.6417 0.2736
193 0.0000 20.042 0.0000 1.9882 3.9762 0.6627
194 0.0000 72.040 0.0000 18.623 37.245 6.2072
195 56.655 100.00 0.0000 49.288 78.493 12.553
196 76.305 100.00 25.614 61.265 84.499 20.767
197 100.00 100.00 32.307 79.149 93.642 25.184
198 39.777 57.160 14.563 19.633 27.758 7.6802
199 39.406 100.00 27.735 44.373 75.766 21.029
200 41.242 100.00 59.600 49.812 78.009 46.605
201 0.0000 16.891 13.464 2.1313 3.3374 3.5630
202 13.209 17.134 8.1096 3.1983 3.9633 2.2965
203 28.219 15.583 7.9632 5.6298 4.9281 2.3285
204 36.759 13.632 0.0000 7.3086 5.4963 0.6759
205 13.628 9.5487 0.0000 2.1040 2.2163 0.3169
206 10.066 17.614 20.152 3.5909 4.1802 5.9205
207 0.0000 30.449 31.622 5.9333 8.5462 12.215
208 21.979 63.421 61.189 24.038 33.196 41.075
209 20.625 84.221 80.404 39.398 56.578 69.995
210 30.520 85.433 100.00 48.586 61.663 103.95
211 0.0000 76.917 63.668 28.574 45.311 46.017
212 0.0000 100.00 73.577 45.554 75.435 63.507
213 48.000 100.00 100.00 63.734 83.854 107.44
214 13.502 26.798 7.4012 4.7478 7.0522 2.6672
215 35.727 74.454 0.0000 25.711 42.742 6.8948
216 42.167 79.986 20.599 31.761 50.211 13.497
217 62.144 78.823 20.099 39.364 53.167 13.470
218 13.991 11.163 43.937 5.9943 4.0137 19.834
219 32.078 8.5696 89.019 19.822 9.5772 75.680
220 52.991 0.0000 100.00 29.978 13.370 95.612
221 73.613 22.480 100.00 42.818 23.503 96.891
222 29.549 21.239 61.492 13.321 9.2882 37.366
223 50.171 33.346 62.965 22.515 17.453 40.142
224 51.623 53.836 77.743 32.931 31.535 61.571
225 60.661 64.779 100.00 48.607 45.469 100.83
226 82.388 68.294 100.00 62.805 55.210 101.96
227 100.00 83.779 100.00 84.363 78.635 105.34
228 0.0000 0.0000 37.970 2.8469 1.1387 14.993
229 0.0000 0.0000 67.043 8.1729 3.2689 43.043
230 0.0000 38.676 69.725 14.646 15.181 48.390
231 18.119 57.437 67.184 22.224 28.382 47.324
232 29.795 57.993 81.990 28.678 31.586 68.148
233 30.694 43.411 74.565 21.730 20.677 55.556
234 34.529 54.270 100.00 34.377 31.695 98.916
235 38.225 27.423 100.00 27.875 17.101 96.442
236 37.300 13.996 46.723 11.643 7.3137 22.471
237 42.745 31.810 46.925 16.355 14.116 23.709
238 54.687 47.286 47.179 25.238 24.957 25.551
239 62.000 62.235 48.313 34.489 38.100 28.585
240 47.548 26.031 14.495 13.373 11.248 4.8027
241 82.208 40.425 22.354 35.339 27.442 9.6409
242 89.221 51.259 78.626 53.668 40.813 63.557
243 90.706 80.845 85.777 70.515 69.507 79.233
244 22.964 7.3780 8.8810 3.7625 2.7693 2.2027
245 44.884 51.505 0.0000 18.587 24.144 3.6806
246 44.546 56.337 49.996 24.950 29.552 28.945
247 51.507 68.817 72.499 37.864 43.707 56.329
248 54.987 85.375 80.099 50.401 63.294 70.254
249 32.396 18.473 30.308 8.6362 6.8476 10.995
250 47.991 29.547 33.126 15.838 13.353 13.516
251 58.784 39.326 31.959 22.624 20.330 13.807
252 79.880 58.713 31.879 40.968 39.514 16.496
253 100.00 59.770 39.676 57.302 48.468 22.467
254 59.760 17.766 7.8907 16.956 11.182 2.9242
255 89.492 17.389 6.7501 34.873 20.352 3.5103
256 100.00 45.174 0.0000 48.940 36.668 4.4996
257 100.00 68.999 0.0000 58.360 55.508 7.6393
258 48.006 31.193 0.0000 13.947 13.155 1.8044
259 63.587 37.705 12.876 22.979 20.055 5.5243
260 87.019 51.004 12.661 41.356 35.560 7.4901
261 97.949 80.452 55.537 68.390 68.953 39.598
262 100.00 81.007 70.394 73.680 71.771 57.072
263 31.409 24.947 20.076 8.4789 8.3900 6.4460
264 36.020 46.722 24.195 15.461 19.976 10.062
265 38.938 71.042 58.308 31.176 42.252 39.290
266 41.087 100.00 81.951 55.356 80.221 76.068
267 0.0000 69.739 78.983 28.742 39.465 65.136
268 0.0000 73.337 100.00 37.333 45.787 101.48
269 42.057 74.043 100.00 45.502 50.542 101.97
270 35.461 14.293 19.209 7.9515 5.8284 5.6466
271 44.958 10.067 31.914 11.721 6.9992 11.782
272 56.936 26.050 49.843 21.299 14.874 26.166
273 78.422 34.880 59.028 36.635 25.369 36.518
274 76.079 56.860 47.423 39.961 37.647 27.434
275 80.577 58.786 67.575 47.650 42.287 49.156
276 84.981 86.723 79.496 68.017 73.625 70.419
277 100.00 100.00 82.374 89.236 97.676 78.306
278 27.152 26.757 30.322 8.7320 8.9057 11.395
279 30.069 32.281 51.934 13.642 12.773 28.104
280 18.136 17.305 33.532 5.8811 5.1521 12.706
281 16.992 15.690 79.796 14.700 8.3325 61.074
282 17.580 33.812 84.917 19.505 15.395 70.094
283 0.0000 46.892 61.673 15.206 19.276 39.400
284 3.4863 54.830 86.160 24.730 27.574 74.171
285 44.072 77.245 85.819 43.124 52.398 77.440
286 0.0000 20.043 33.872 4.3217 4.9098 12.951
287 0.0000 20.060 67.493 10.270 7.2933 44.268
288 0.0000 29.300 100.00 21.666 14.455 96.258
289 0.0000 52.264 100.00 28.129 27.379 98.412
290 45.312 0.0000 18.916 9.8535 4.9743 5.2720
291 68.501 0.0000 20.224 20.487 10.446 6.2689
292 100.00 0.0000 27.275 42.862 21.913 10.481
293 100.00 76.695 35.235 64.792 64.375 22.106
294 21.070 19.161 0.0000 4.3319 4.9951 0.7359
295 21.663 37.614 0.0000 8.1255 12.424 1.9699
296 19.541 91.230 11.258 32.397 60.773 12.454
297 0.0000 44.727 0.0000 7.5634 15.127 2.5209
298 0.0000 52.035 45.558 13.946 21.575 24.125
299 37.491 53.229 63.168 24.078 27.056 42.148
300 62.637 67.106 80.707 44.355 45.591 68.070
301 72.376 84.847 88.385 61.470 68.239 83.746
302 72.046 85.597 100.00 65.699 70.636 104.78
303 75.176 100.00 100.00 77.153 90.774 108.06
304 27.901 38.752 34.862 12.148 14.659 15.045
305 39.142 41.663 48.916 18.016 18.645 26.233
306 65.105 45.216 100.00 43.408 31.747 98.451
307 72.245 0.0000 46.821 25.747 12.796 22.871
308 100.00 0.0000 48.555 45.676 23.039 25.305
309 60.842 15.178 30.659 18.804 11.459 11.547
310 85.977 14.203 34.789 34.119 19.133 14.704
311 85.041 19.056 49.815 36.290 20.914 26.517
312 100.00 37.480 70.256 55.702 35.870 50.908
313 24.910 8.4713 26.206 5.3975 3.6041 8.3862
314 26.898 50.520 37.383 15.858 21.902 17.912
315 12.589 28.387 20.550 5.6887 7.9090 6.6870
316 6.6565 57.545 38.199 15.570 25.630 19.209
317 49.940 64.711 41.532 29.142 37.087 23.126
318 74.755 84.325 44.043 52.204 64.194 29.099
319 28.856 30.946 15.539 8.7311 10.306 5.1905
320 61.205 64.526 26.587 32.267 38.781 13.947
321 80.445 76.169 55.545 53.157 57.584 38.214
322 26.077 0.0000 0.0000 3.4478 1.7779 0.1616
323 46.835 0.0000 0.0000 9.4885 4.8927 0.4446
324 45.975 0.0000 42.271 12.618 6.1080 18.582
325 63.629 12.008 59.385 24.350 13.281 35.219
326 100.00 0.0000 72.636 50.791 25.085 52.239
327 16.974 10.388 15.069 3.3106 2.8721 3.8929
328 42.645 36.094 12.916 13.711 14.667 4.9836
329 43.966 36.212 81.956 25.761 19.586 65.934
330 21.817 0.0000 35.294 5.1111 2.3457 13.316
331 20.219 4.5843 53.326 7.9701 4.0393 28.053
332 35.068 0.0000 69.435 14.409 6.4181 46.339
333 67.706 0.0000 76.542 29.619 14.049 56.642
334 86.835 21.082 75.494 43.505 24.425 56.430
335 100.00 35.869 100.00 64.392 38.693 98.686
END_DATA
CTI1   

ORIGINATOR "Argyll targen"
KEYWORD "DENSITY_EXTREME_VALUES"
DENSITY_EXTREME_VALUES "8"
CREATED "January 13, 2014"
DESCRIPTOR "Argyll Calibration Target chart information 1"

KEYWORD "INDEX"
NUMBER_OF_FIELDS 7
BEGIN_DATA_FORMAT
INDEX RGB_R RGB_G RGB_B XYZ_X XYZ_Y XYZ_Z
END_DATA_FORMAT

NUMBER_OF_SETS 8
BEGIN_DATA
0 100.0000 100.0000 100.0000 95.04570 100.0000 108.9040
1 0.000000 41.07990 100.0000 24.53540 20.19270 97.21470
2 100.0000 0.000000 73.78220 51.08780 25.20380 53.80440
3 0.000000 0.000000 50.83590 4.831720 1.932570 25.44630
4 100.0000 60.58940 0.000000 54.56690 47.92100 6.374960
5 0.000000 28.22230 0.000000 3.400840 6.801620 1.133520
6 76.48680 0.000000 0.000000 24.15290 12.45430 1.131840
7 1.784250 1.568810 1.248170 0.338157 0.353794 0.312873
END_DATA
CTI1   

ORIGINATOR "Argyll targen"
CREATED "January 13, 2014"
DESCRIPTOR "Argyll Calibration Target chart information 1"
KEYWORD "DEVICE_COMBINATION_VALUES"
DEVICE_COMBINATION_VALUES "9"

KEYWORD "INDEX"
NUMBER_OF_FIELDS 7
BEGIN_DATA_FORMAT
INDEX RGB_R RGB_G RGB_B XYZ_X XYZ_Y XYZ_Z
END_DATA_FORMAT

NUMBER_OF_SETS 9
BEGIN_DATA
0 100.000 100.000 100.000 95.0457 100.000 108.904
1 0.00000 100.000 100.000 53.8072 78.7357 106.971
2 100.000 0.00000 100.000 59.2869 28.4832 96.9851
3 0.00000 0.00000 100.000 18.0485 7.21893 95.0526
4 100.000 100.000 0.00000 76.9972 92.7810 13.8511
5 0.00000 100.000 0.00000 35.7587 71.5167 11.9186
6 100.000 0.00000 0.00000 41.2385 21.2643 1.93250
7 0.00000 0.00000 0.00000 0.00000 0.00000 0.00000
8 50.0000 50.0000 50.0000 24.6726 25.9586 28.2699
END_DATA