DisplayCAL/ref/verify_video_extended_hlg_p3_2020.ti1
CTI1   

DESCRIPTOR "Argyll Calibration Target chart information 1"
ORIGINATOR "Argyll fakeread"
CREATED "Tue Dec 26 03:06:17 2017"
APPROX_WHITE_POINT "95.045471 100.000000 108.905029"
COLOR_REP "RGB"
ACCURATE_EXPECTED_VALUES "true"
WHITE_COLOR_PATCHES "1"
BLACK_COLOR_PATCHES "1"
COMP_GREY_STEPS "21"

NUMBER_OF_FIELDS 7
BEGIN_DATA_FORMAT
SAMPLE_ID RGB_R RGB_G RGB_B XYZ_X XYZ_Y XYZ_Z 
END_DATA_FORMAT

NUMBER_OF_SETS 81
BEGIN_DATA
1 100.00 100.00 100.00 95.046 100.00 108.90
2 0.0000 0.0000 0.0000 1.0000 1.0000 1.0000
3 5.0000 5.0000 5.0000 1.0560 1.1110 1.2099
4 10.000 10.000 10.000 2.1317 2.2428 2.4425
5 15.000 15.000 15.000 3.5075 3.6903 4.0189
6 20.000 20.000 20.000 5.2684 5.5430 6.0365
7 25.000 25.000 25.000 7.4285 7.8157 8.5116
8 30.000 30.000 30.000 10.002 10.523 11.460
9 35.000 35.000 35.000 13.002 13.680 14.898
10 40.000 40.000 40.000 16.442 17.299 18.839
11 45.000 45.000 45.000 20.328 21.388 23.292
12 50.000 50.000 50.000 24.673 25.959 28.270
13 55.000 55.000 55.000 29.485 31.022 33.784
14 60.000 60.000 60.000 34.771 36.584 39.841
15 65.000 65.000 65.000 40.542 42.655 46.453
16 70.000 70.000 70.000 46.802 49.242 53.626
17 75.000 75.000 75.000 53.560 56.352 61.370
18 80.000 80.000 80.000 60.823 63.994 69.692
19 85.000 85.000 85.000 68.597 72.173 78.599
20 90.000 90.000 90.000 76.889 80.896 88.099
21 95.000 95.000 95.000 85.702 90.170 98.198
22 68.10344 18.13956 0.347659 6.827409 3.197971 0.0198968 
23 44.06267 74.04603 12.37307 5.627853 13.49608 0.894779 
24 18.65244 8.331777 74.31737 2.324516 0.902235 12.39342 
25 74.12669 74.85020 12.11503 15.12269 18.50980 0.947631 
26 47.94437 74.18262 75.03881 9.520637 15.21027 21.10260 
27 69.27912 19.90312 74.47854 10.29913 4.575160 16.39262 
28 44.85769 44.85618 44.85673 3.714482 3.907611 4.256424 
29 58.91066 39.81693 38.14036 5.501205 4.162955 3.115252 
30 71.91090 35.37149 29.99956 9.597362 5.530739 2.035504 
31 83.39769 32.74119 19.00594 17.89326 8.845482 0.917995 
32 93.65630 35.27255 0.163435 33.60143 15.74121 0.0978782 
33 84.61118 84.61148 84.61037 35.16468 36.99460 40.29056 
34 76.02191 90.12211 67.42931 25.32647 41.57007 18.07256 
35 73.55377 94.06182 53.00604 24.72091 50.00685 10.72081 
36 73.11155 96.93503 38.05901 25.96177 58.51931 6.857894 
37 72.93569 98.72163 22.83907 27.70782 66.43356 4.400376 
38 23.77673 23.77482 23.77630 0.808262 0.851474 0.927522 
39 23.44451 22.96627 33.10623 0.921639 0.854851 1.772956 
40 22.85556 21.64598 44.75573 1.116073 0.865695 3.229040 
41 22.22485 18.62486 62.36534 1.667388 0.948501 6.977826 
42 35.64991 15.35459 98.91533 11.44502 4.432404 61.01776 
43 96.35659 96.35610 96.35617 74.91186 78.81218 85.83241 
44 97.06087 97.47946 78.92293 69.90745 80.61831 35.59450 
45 97.79504 98.36568 62.27969 70.40491 84.15043 17.22069 
46 98.45489 99.08413 44.97370 72.41321 87.83165 9.646820 
47 99.00641 99.67195 23.58495 74.43393 91.11826 4.659070 
48 88.79061 88.79062 88.79096 45.91673 48.30787 52.61201 
49 82.52992 91.31859 91.75254 39.90547 50.30970 62.06111 
50 78.46185 93.96017 94.60604 39.17815 55.87568 73.65456 
51 76.99177 96.62262 97.36510 42.13824 64.35328 87.57076 
52 76.64247 98.73231 99.43493 46.86422 74.87916 103.8813 
53 52.55388 52.55444 52.55354 5.461378 5.744634 6.256880 
54 58.91994 49.46251 61.11685 7.010876 5.955340 9.076155 
55 67.47282 45.31602 71.15002 10.41000 6.857064 14.93285 
56 78.91838 40.06712 83.42631 19.28578 9.916008 29.70747 
57 94.44792 39.15413 99.07527 50.69805 22.52391 80.69534 
58 36.32536 26.47507 20.40535 1.651956 1.382143 0.752286 
59 71.11551 54.95868 45.59421 11.00454 8.706663 5.085028 
60 35.03264 42.53777 56.77702 3.027034 3.295222 6.748991 
61 30.97977 36.38712 19.63900 1.512160 2.043382 0.776565 
62 47.06970 45.48995 65.37271 5.063287 4.533864 10.53818 
63 49.99836 70.82567 64.11567 7.797745 12.49233 12.05065 
64 80.84777 48.93690 12.98201 16.43804 10.13991 0.557872 
65 26.70961 30.11974 62.71194 2.255759 1.811169 7.928767 
66 69.09970 31.49411 32.13248 8.139119 4.556122 2.236705 
67 28.36296 17.61199 35.57783 1.131347 0.728714 1.982358 
68 61.64525 70.65876 21.41634 8.623239 12.90846 1.577800 
69 84.16936 62.18537 11.86772 21.41070 15.22274 0.652939 
70 15.91257 18.89842 52.73050 0.997062 0.690028 4.333865 
71 32.14080 53.06391 24.06692 2.310088 4.413804 1.374254 
72 60.28033 19.57174 15.95320 4.579637 2.304572 0.498144 
73 88.69819 76.28667 12.12303 31.12389 26.89027 1.054181 
74 67.20694 31.82735 54.28045 8.133519 4.540379 6.359961 
75 27.80962 47.83324 62.73157 3.026868 3.907669 9.096795 
76 95.55413 95.67921 94.59024 70.55829 74.95125 77.46798 
77 76.33382 76.87469 76.99472 21.26370 22.60862 24.94036 
78 59.33213 59.93048 60.14232 7.894405 8.387710 9.282781 
79 42.23255 42.37422 42.53007 3.228634 3.402727 3.738801 
80 26.64022 27.04584 27.75130 1.090206 1.154610 1.325668 
81 12.99910 13.13460 13.69049 0.193792 0.205986 0.240813 
END_DATA
