DisplayCAL/ref/verify_video_extended_smpte2084_100_p3_2020.ti1
CTI1   

DESCRIPTOR "Argyll Calibration Target chart information 1"
ORIGINATOR "Argyll fakeread"
CREATED "Tue Dec 26 00:37:39 2017"
APPROX_WHITE_POINT "95.045471 100.000000 108.905029"
COLOR_REP "RGB"
ACCURATE_EXPECTED_VALUES "true"
WHITE_COLOR_PATCHES "1"
BLACK_COLOR_PATCHES "1"
COMP_GREY_STEPS "21"

NUMBER_OF_FIELDS 7
BEGIN_DATA_FORMAT
SAMPLE_ID RGB_R RGB_G RGB_B XYZ_X XYZ_Y XYZ_Z 
END_DATA_FORMAT

NUMBER_OF_SETS 81
BEGIN_DATA
1 100.0000 100.0000 100.00000 95.04547 100.0000 108.9050 
2 0.00000 0.00000 0.00000 0.00000 0.00000 0.00000 
3 5.000000 5.000000 5.000000 0.00000 0.00000 0.00000 
4 10.00000 10.00000 10.00000 0.00290060 0.00305180 0.00332357 
5 15.00000 15.00000 15.00000 0.0101521 0.0106813 0.0116325 
6 20.00000 20.00000 20.00000 0.0232048 0.0244144 0.0265885 
7 25.00000 25.00000 25.00000 0.0489477 0.0514992 0.0560852 
8 30.00000 30.00000 30.00000 0.0955748 0.100557 0.109512 
9 35.00000 35.00000 35.00000 0.175559 0.184710 0.201159 
10 40.00000 40.00000 40.00000 0.308044 0.324102 0.352963 
11 45.00000 45.00000 45.00000 0.525589 0.552987 0.602231 
12 50.00000 50.00000 50.00000 0.876707 0.922408 1.004549 
13 55.00000 55.00000 55.00000 1.435580 1.510414 1.644917 
14 60.00000 60.00000 60.00000 2.319031 2.439918 2.657193 
15 65.00000 65.00000 65.00000 3.711103 3.904555 4.252257 
16 70.00000 70.00000 70.00000 5.900839 6.208438 6.761301 
17 75.00000 75.00000 75.00000 9.346464 9.833677 10.70937 
18 80.00000 80.00000 80.00000 14.78118 15.55169 16.93657 
19 85.00000 85.00000 85.00000 23.39154 24.61089 26.80250 
20 90.00000 90.00000 90.00000 37.12147 39.05653 42.53453 
21 95.00000 95.00000 95.00000 59.19410 62.27977 67.82581 
22 35.13613 15.65858 0.00000 0.120987 0.0566807 0.0000693029 
23 26.59533 37.68250 12.05258 0.0779252 0.186816 0.0123644 
24 15.70799 8.746568 37.95198 0.0514799 0.0199481 0.274471 
25 37.73003 38.03378 12.03823 0.198913 0.243497 0.0124337 
26 27.83605 37.75471 38.11319 0.129405 0.206764 0.286836 
27 35.65875 16.38949 37.94482 0.172467 0.0766287 0.274541 
28 22.79100 22.79100 22.79100 0.0350276 0.0368535 0.0401353 
29 30.08609 20.58264 19.39789 0.0725038 0.0462430 0.0241302 
30 36.66782 19.75976 14.93975 0.147225 0.0748976 0.0117110 
31 42.35510 20.61997 8.765823 0.271275 0.128781 0.00347730 
32 47.43822 23.58561 0.00000 0.459259 0.215155 0.000263068 
33 42.98899 42.98902 42.98900 0.425420 0.447597 0.487455 
34 38.41887 45.74559 34.21675 0.287891 0.486787 0.194934 
35 36.78490 47.73750 26.68477 0.261616 0.560859 0.0901874 
36 36.77748 49.18259 20.97715 0.271966 0.637275 0.0539614 
37 37.42400 50.28465 18.52577 0.295798 0.709140 0.0469344 
38 12.08000 12.08000 12.08000 0.00518976 0.00546029 0.00594653 
39 12.04959 12.02848 16.41159 0.00613997 0.00527096 0.0145240 
40 12.11928 12.04186 22.83465 0.0109108 0.00711962 0.0399602 
41 14.13963 10.62567 31.80689 0.0273151 0.0125122 0.133492 
42 24.06661 14.13566 50.62560 0.195414 0.0757213 1.041871 
43 48.95600 48.95599 48.95600 0.789108 0.830242 0.904176 
44 49.29405 49.53618 40.10919 0.730252 0.842000 0.372701 
45 49.67909 50.00439 31.54720 0.722872 0.867464 0.154979 
46 50.05003 50.39673 23.56543 0.735896 0.896904 0.0707907 
47 50.34474 50.72911 18.08030 0.755057 0.924295 0.0471975 
48 45.11299 45.11301 45.11301 0.532295 0.560043 0.609915 
49 41.82906 46.36721 46.61292 0.455155 0.575686 0.711480 
50 39.48987 47.71460 48.05991 0.429294 0.621732 0.825592 
51 38.50942 49.04453 49.45864 0.443673 0.692285 0.950822 
52 38.93439 50.37600 50.81578 0.491212 0.784861 1.088805 
53 26.68621 26.78397 26.68622 0.0623629 0.0656138 0.0714567 
54 29.93622 25.19982 31.07850 0.0904045 0.0689314 0.122803 
55 34.32745 23.32582 36.18194 0.149725 0.0846855 0.225012 
56 40.11426 21.98899 42.44174 0.285176 0.133952 0.448638 
57 48.02867 24.72037 50.61652 0.654673 0.290877 1.042134 
58 18.98041 13.15211 10.55972 0.0143254 0.0101656 0.00347449 
59 36.11311 27.90269 23.28822 0.151475 0.109654 0.0446389 
60 18.53795 21.67410 28.78203 0.0314058 0.0316173 0.0922616 
61 15.73721 18.53779 10.57734 0.0111255 0.0164817 0.00411321 
62 24.08205 23.04564 33.21473 0.0594177 0.0472638 0.159415 
63 26.81790 35.97854 32.56701 0.0951805 0.165326 0.151754 
64 40.97841 25.16396 8.712197 0.237878 0.130571 0.00329572 
65 14.94784 15.68517 31.92325 0.0299044 0.0180514 0.135623 
66 35.39136 18.48551 16.40103 0.127505 0.0638697 0.0147362 
67 14.90443 8.737587 18.06386 0.00963548 0.00509488 0.0191520 
68 31.40208 35.85806 13.15206 0.106713 0.170052 0.0130847 
69 42.67841 31.59277 5.569820 0.293789 0.196816 0.00501894 
70 10.60504 10.58496 26.99456 0.0143017 0.00735613 0.0715815 
71 18.96480 27.05281 12.10570 0.0235096 0.0518601 0.00813606 
72 31.41242 14.12744 5.562816 0.0776044 0.0372028 0.00170541 
73 45.00026 38.77530 10.65197 0.393910 0.337291 0.0127455 
74 34.38574 18.04049 27.62643 0.124454 0.0614609 0.0792048 
75 18.06271 24.63935 31.87181 0.0399260 0.0454058 0.135825 
76 48.54918 48.61248 48.06340 0.751790 0.798066 0.827846 
77 38.79814 39.05713 39.12057 0.272828 0.290732 0.321345 
78 30.11676 30.45469 30.55863 0.0987564 0.105240 0.117301 
79 21.60348 21.60319 21.61086 0.0290300 0.0305273 0.0333637 
80 14.07766 14.07652 14.10742 0.00734836 0.00766704 0.00882534 
81 8.699902 5.571847 5.571847 0.00145030 0.00152590 0.00166178 
END_DATA
