DisplayCAL/ref/verify_video_extended_smpte2084_1000_p3_2020.ti1
CTI1   

DESCRIPTOR "Argyll Calibration Target chart information 1"
ORIGINATOR "Argyll fakeread"
CREATED "Tue Dec 26 01:26:10 2017"
APPROX_WHITE_POINT "95.045471 100.000000 108.905029"
COLOR_REP "RGB"
ACCURATE_EXPECTED_VALUES "true"
WHITE_COLOR_PATCHES "1"
BLACK_COLOR_PATCHES "1"
COMP_GREY_STEPS "21"

NUMBER_OF_FIELDS 7
BEGIN_DATA_FORMAT
SAMPLE_ID RGB_R RGB_G RGB_B XYZ_X XYZ_Y XYZ_Z 
END_DATA_FORMAT

NUMBER_OF_SETS 81
BEGIN_DATA
1 100.0000 100.0000 100.0000 95.04547 100.0000 108.9050 
2 0.00000 0.00000 0.00000 0.00000 0.00000 0.00000 
3 5.000000 5.000000 5.000000 0.00000 0.00000 0.00000 
4 10.00000 10.00000 10.00000 0.00290060 0.00305180 0.00332357 
5 15.00000 15.00000 15.00000 0.0101521 0.0106813 0.0116325 
6 20.00000 20.00000 20.00000 0.0232048 0.0244144 0.0265885 
7 25.00000 25.00000 25.00000 0.0489477 0.0514992 0.0560852 
8 30.00000 30.00000 30.00000 0.0955748 0.100557 0.109512 
9 35.00000 35.00000 35.00000 0.175559 0.184710 0.201159 
10 40.00000 40.00000 40.00000 0.308044 0.324102 0.352963 
11 45.00000 45.00000 45.00000 0.525589 0.552987 0.602231 
12 50.00000 50.00000 50.00000 0.876707 0.922408 1.004549 
13 55.00000 55.00000 55.00000 1.435580 1.510414 1.644917 
14 60.00000 60.00000 60.00000 2.319031 2.439918 2.657193 
15 65.00000 65.00000 65.00000 3.711103 3.904555 4.252257 
16 70.00000 70.00000 70.00000 5.900839 6.208438 6.761301 
17 75.00000 75.00000 75.00000 9.346464 9.833677 10.70937 
18 80.00000 80.00000 80.00000 14.78118 15.55169 16.93657 
19 85.00000 85.00000 85.00000 23.39154 24.61089 26.80250 
20 90.00000 90.00000 90.00000 37.12147 39.05653 42.53453 
21 95.00000 95.00000 95.00000 59.19410 62.27977 67.82581 
22 52.89448 27.48111 0.00000 0.793435 0.371711 0.000454488 
23 42.41914 55.85932 21.95775 0.511033 1.225140 0.0810859 
24 27.90315 16.97831 56.20297 0.337605 0.130819 1.799980 
25 55.92091 56.30090 21.66814 1.304468 1.596851 0.0815404 
26 43.99669 55.95039 56.39556 0.848638 1.355960 1.881066 
27 53.51092 28.81925 56.19356 1.131040 0.502531 1.800435 
28 33.72499 33.72499 33.72501 0.150841 0.158704 0.172837 
29 45.01768 30.86136 28.67710 0.383472 0.226827 0.0927912 
30 55.09372 31.67086 22.27135 0.994232 0.486097 0.0404324 
31 63.80019 36.23826 12.05029 2.254975 1.061498 0.0112574 
32 71.48207 42.28840 0.00000 4.592919 2.151707 0.00263087 
33 63.61300 63.61300 63.61300 3.260249 3.430199 3.735659 
34 57.80865 67.78528 50.81551 2.161775 4.009413 1.203894 
35 57.30475 70.78356 41.04940 2.228457 5.042111 0.573985 
36 58.54005 72.96776 35.82712 2.566503 6.102155 0.444452 
37 59.98738 74.62218 35.30748 2.958193 7.091912 0.469378 
38 17.59531 17.59531 17.59531 0.0159533 0.0167849 0.0182796 
39 17.99259 17.51753 24.97039 0.0216244 0.0180185 0.0545862 
40 18.51405 16.40711 33.81403 0.0410383 0.0236134 0.170235 
41 22.99606 16.41145 47.11983 0.142765 0.0601401 0.730817 
42 42.94663 28.74717 74.98308 1.954278 0.757268 10.41946 
43 72.44300 72.44300 72.44300 7.389612 7.774818 8.467168 
44 73.01641 73.31412 59.41909 6.829247 8.001256 2.685933 
45 73.65064 74.02839 47.48346 6.955542 8.422997 1.011422 
46 74.20941 74.60826 38.14304 7.242280 8.850582 0.547060 
47 74.68754 75.08988 34.92780 7.551112 9.243619 0.472009 
48 66.75500 66.75500 66.75500 4.370335 4.598151 5.007618 
49 62.28682 68.67103 68.97407 3.676792 4.853494 6.145819 
50 60.08648 70.69141 71.11424 3.686024 5.540982 7.486350 
51 60.22437 72.71936 73.18410 4.146730 6.556248 9.055290 
52 61.76238 74.72047 75.19239 4.912471 7.849180 10.88884 
53 39.51200 39.51198 39.51200 0.292113 0.307340 0.334709 
54 44.47209 37.33233 45.98469 0.471568 0.337051 0.657080 
55 51.22152 35.24982 53.56244 0.913065 0.480544 1.398520 
56 60.13970 35.99856 62.85270 2.144149 0.979109 3.393736 
57 72.14297 44.05949 74.97365 6.547197 2.908975 10.42209 
58 28.08608 20.18073 15.64899 0.0553377 0.0382308 0.0121814 
59 53.81617 41.58255 34.31872 0.941546 0.625066 0.190787 
60 27.89459 32.14322 42.71083 0.141275 0.134748 0.464746 
61 23.63438 27.48490 14.93656 0.0391619 0.0605523 0.0130312 
62 35.80109 34.35191 49.19561 0.297145 0.219269 0.907559 
63 41.67051 53.36290 48.18804 0.563613 1.020123 0.851780 
64 61.53933 39.12176 8.750788 1.841046 0.941765 0.0107346 
65 24.49115 23.33862 47.26661 0.154760 0.0818253 0.743737 
66 53.11907 29.55678 24.11958 0.821602 0.397217 0.0508185 
67 21.95718 14.10257 26.81982 0.0333532 0.0180424 0.0704342 
68 46.77337 53.16371 21.70088 0.611620 1.032165 0.0694222 
69 63.82195 47.36124 14.08240 2.331167 1.398220 0.0280163 
70 18.03009 14.91873 39.87308 0.0666503 0.0304191 0.339944 
71 29.42471 40.17829 19.37136 0.110849 0.250292 0.0322375 
72 47.22629 23.81239 12.06457 0.451011 0.212936 0.00675944 
73 67.01193 57.50397 20.98676 3.282243 2.542424 0.0842320 
74 51.59148 29.10798 40.96854 0.762463 0.366176 0.385110 
75 28.73119 36.41337 47.18215 0.202773 0.210454 0.741681 
76 71.84215 71.93421 71.12183 6.922337 7.372209 7.514028 
77 57.39589 57.79748 57.88829 1.834863 1.959150 2.172084 
78 44.60578 45.06252 45.22006 0.514739 0.550784 0.616919 
79 31.75325 31.85921 31.97606 0.119513 0.126201 0.139730 
80 20.16938 20.23137 20.62391 0.0242525 0.0257276 0.0298397 
81 8.797654 8.797654 10.55718 0.00290060 0.00305180 0.00332357 
END_DATA
