DisplayCAL/ref/verify_xxxl.ti1
CTI1   

ORIGINATOR "Argyll targen"
KEYWORD "OFPS_PATCHES"
OFPS_PATCHES "700"
CREATED "Thu May 21 22:45:49 2015"
KEYWORD "COMP_GREY_STEPS"
COMP_GREY_STEPS "41"
KEYWORD "BLACK_COLOR_PATCHES"
BLACK_COLOR_PATCHES "1"
KEYWORD "APPROX_WHITE_POINT"
APPROX_WHITE_POINT "95.106486 100.000000 108.844025"
DESCRIPTOR "Argyll Calibration Target chart information 1"
KEYWORD "MULTI_DIM_STEPS"
MULTI_DIM_STEPS "2"
KEYWORD "WHITE_COLOR_PATCHES"
WHITE_COLOR_PATCHES "1"
KEYWORD "SINGLE_DIM_STEPS"
SINGLE_DIM_STEPS "21"
KEYWORD "COLOR_REP"
COLOR_REP "RGB"

NUMBER_OF_FIELDS 7
BEGIN_DATA_FORMAT
SAMPLE_ID RGB_R RGB_G RGB_B XYZ_X XYZ_Y XYZ_Z
END_DATA_FORMAT

NUMBER_OF_SETS 989
BEGIN_DATA
1 100.00 100.00 100.00 95.106 100.00 108.84
2 0.0000 0.0000 0.0000 1.0000 1.0000 1.0000
3 2.5000 2.5000 2.5000 1.1821 1.1916 1.2087
4 5.0000 5.0000 5.0000 1.3704 1.3897 1.4245
5 7.5000 7.5000 7.5000 1.6184 1.6506 1.7087
6 10.000 10.000 10.000 1.9432 1.9923 2.0809
7 12.500 12.500 12.500 2.3504 2.4206 2.5476
8 15.000 15.000 15.000 2.8451 2.9411 3.1145
9 17.500 17.500 17.500 3.4320 3.5585 3.7870
10 20.000 20.000 20.000 4.1154 4.2774 4.5701
11 22.500 22.500 22.500 4.8994 5.1021 5.4686
12 25.000 25.000 25.000 5.7878 6.0367 6.4867
13 27.500 27.500 27.500 6.7843 7.0850 7.6286
14 30.000 30.000 30.000 7.8923 8.2507 8.8984
15 32.500 32.500 32.500 9.1151 9.5371 10.300
16 35.000 35.000 35.000 10.456 10.948 11.836
17 37.500 37.500 37.500 11.918 12.486 13.512
18 40.000 40.000 40.000 13.504 14.154 15.329
19 42.500 42.500 42.500 15.216 15.956 17.292
20 45.000 45.000 45.000 17.059 17.894 19.403
21 47.500 47.500 47.500 19.033 19.971 21.666
22 50.000 50.000 50.000 21.143 22.190 24.083
23 52.500 52.500 52.500 23.389 24.554 26.658
24 55.000 55.000 55.000 25.776 27.064 29.392
25 57.500 57.500 57.500 28.304 29.724 32.290
26 60.000 60.000 60.000 30.977 32.536 35.353
27 62.500 62.500 62.500 33.797 35.502 38.585
28 65.000 65.000 65.000 36.766 38.626 41.987
29 67.500 67.500 67.500 39.886 41.908 45.562
30 70.000 70.000 70.000 43.159 45.351 49.313
31 72.500 72.500 72.500 46.587 48.958 53.242
32 75.000 75.000 75.000 50.173 52.730 57.351
33 77.500 77.500 77.500 53.918 56.669 61.643
34 80.000 80.000 80.000 57.824 60.779 66.119
35 82.500 82.500 82.500 61.894 65.060 70.783
36 85.000 85.000 85.000 66.128 69.515 75.636
37 87.500 87.500 87.500 70.530 74.146 80.680
38 90.000 90.000 90.000 75.101 78.954 85.918
39 92.500 92.500 92.500 79.842 83.942 91.351
40 95.000 95.000 95.000 84.755 89.111 96.982
41 97.500 97.500 97.500 89.843 94.463 102.81
42 5.0000 0.0000 0.0000 1.1607 1.0829 1.0075
43 10.000 0.0000 0.0000 1.4092 1.2110 1.0192
44 15.000 0.0000 0.0000 1.8005 1.4128 1.0375
45 20.000 0.0000 0.0000 2.3517 1.6969 1.0633
46 25.000 0.0000 0.0000 3.0773 2.0711 1.0973
47 30.000 0.0000 0.0000 3.9904 2.5418 1.1401
48 35.000 0.0000 0.0000 5.1027 3.1154 1.1922
49 40.000 0.0000 0.0000 6.4250 3.7972 1.2542
50 45.000 0.0000 0.0000 7.9675 4.5924 1.3265
51 50.000 0.0000 0.0000 9.7393 5.5060 1.4095
52 55.000 0.0000 0.0000 11.749 6.5425 1.5037
53 60.000 0.0000 0.0000 14.006 7.7061 1.6095
54 65.000 0.0000 0.0000 16.518 9.0010 1.7271
55 70.000 0.0000 0.0000 19.291 10.431 1.8571
56 75.000 0.0000 0.0000 22.335 12.000 1.9997
57 80.000 0.0000 0.0000 25.654 13.712 2.1553
58 85.000 0.0000 0.0000 29.257 15.570 2.3241
59 90.000 0.0000 0.0000 33.150 17.577 2.5065
60 95.000 0.0000 0.0000 37.339 19.737 2.7028
61 100.00 0.0000 0.0000 41.830 22.052 2.9132
62 0.0000 5.0000 0.0000 1.1394 1.2787 1.0465
63 0.0000 10.000 0.0000 1.3549 1.7096 1.1183
64 0.0000 15.000 0.0000 1.6942 2.3882 1.2314
65 0.0000 20.000 0.0000 2.1721 3.3438 1.3907
66 0.0000 25.000 0.0000 2.8013 4.6021 1.6004
67 0.0000 30.000 0.0000 3.5930 6.1854 1.8644
68 0.0000 35.000 0.0000 4.5576 8.1141 2.1859
69 0.0000 40.000 0.0000 5.7042 10.407 2.5681
70 0.0000 45.000 0.0000 7.0417 13.082 3.0139
71 0.0000 50.000 0.0000 8.5782 16.154 3.5261
72 0.0000 55.000 0.0000 10.321 19.640 4.1071
73 0.0000 60.000 0.0000 12.278 23.553 4.7594
74 0.0000 65.000 0.0000 14.456 27.908 5.4854
75 0.0000 70.000 0.0000 16.861 32.718 6.2871
76 0.0000 75.000 0.0000 19.500 37.995 7.1667
77 0.0000 80.000 0.0000 22.379 43.751 8.1263
78 0.0000 85.000 0.0000 25.503 49.999 9.1677
79 0.0000 90.000 0.0000 28.878 56.749 10.293
80 0.0000 95.000 0.0000 32.511 64.013 11.504
81 0.0000 100.00 0.0000 36.405 71.801 12.802
82 0.0000 0.0000 5.0000 1.0703 1.0281 1.3705
83 0.0000 0.0000 10.000 1.1791 1.0716 1.9434
84 0.0000 0.0000 15.000 1.3504 1.1401 2.8456
85 0.0000 0.0000 20.000 1.5916 1.2366 4.1161
86 0.0000 0.0000 25.000 1.9092 1.3636 5.7889
87 0.0000 0.0000 30.000 2.3089 1.5235 7.8939
88 0.0000 0.0000 35.000 2.7957 1.7182 10.458
89 0.0000 0.0000 40.000 3.3745 1.9497 13.507
90 0.0000 0.0000 45.000 4.0496 2.2197 17.063
91 0.0000 0.0000 50.000 4.8252 2.5298 21.147
92 0.0000 0.0000 55.000 5.7050 2.8817 25.782
93 0.0000 0.0000 60.000 6.6928 3.2768 30.984
94 0.0000 0.0000 65.000 7.7920 3.7164 36.774
95 0.0000 0.0000 70.000 9.0060 4.2019 43.169
96 0.0000 0.0000 75.000 10.338 4.7346 50.184
97 0.0000 0.0000 80.000 11.791 5.3157 57.838
98 0.0000 0.0000 85.000 13.368 5.9464 66.144
99 0.0000 0.0000 90.000 15.072 6.6279 75.118
100 0.0000 0.0000 95.000 16.905 7.3611 84.775
101 0.0000 0.0000 100.00 18.871 8.1473 95.129
102 0.0000 5.0000 5.0000 1.2097 1.3068 1.4169
103 0.0000 10.000 10.000 1.5340 1.7813 2.0617
104 0.0000 15.000 15.000 2.0446 2.5283 3.0769
105 0.0000 20.000 20.000 2.7637 3.5804 4.5068
106 0.0000 25.000 25.000 3.7105 4.9657 6.3893
107 0.0000 30.000 30.000 4.9019 6.7088 8.7583
108 0.0000 35.000 35.000 6.3533 8.8323 11.644
109 0.0000 40.000 40.000 8.0787 11.357 15.075
110 0.0000 45.000 45.000 10.091 14.301 19.077
111 0.0000 50.000 50.000 12.403 17.684 23.674
112 0.0000 55.000 55.000 15.026 21.522 28.889
113 0.0000 60.000 60.000 17.971 25.830 34.744
114 0.0000 65.000 65.000 21.248 30.625 41.260
115 0.0000 70.000 70.000 24.867 35.920 48.456
116 0.0000 75.000 75.000 28.838 41.729 56.351
117 0.0000 80.000 80.000 33.170 48.067 64.964
118 0.0000 85.000 85.000 37.871 54.945 74.312
119 0.0000 90.000 90.000 42.950 62.377 84.411
120 0.0000 95.000 95.000 48.416 70.374 95.279
121 0.0000 100.00 100.00 54.276 78.948 106.93
122 5.0000 0.0000 5.0000 1.2310 1.1110 1.3780
123 10.000 0.0000 10.000 1.5884 1.2826 1.9626
124 15.000 0.0000 15.000 2.1509 1.5529 2.8831
125 20.000 0.0000 20.000 2.9433 1.9335 4.1795
126 25.000 0.0000 25.000 3.9865 2.4347 5.8863
127 30.000 0.0000 30.000 5.2992 3.0653 8.0340
128 35.000 0.0000 35.000 6.8984 3.8335 10.650
129 40.000 0.0000 40.000 8.7995 4.7468 13.761
130 45.000 0.0000 45.000 11.017 5.8121 17.389
131 50.000 0.0000 50.000 13.564 7.0358 21.557
132 55.000 0.0000 55.000 16.454 8.4242 26.285
133 60.000 0.0000 60.000 19.699 9.9829 31.594
134 65.000 0.0000 65.000 23.310 11.717 37.501
135 70.000 0.0000 70.000 27.297 13.633 44.026
136 75.000 0.0000 75.000 31.673 15.735 51.184
137 80.000 0.0000 80.000 36.445 18.028 58.993
138 85.000 0.0000 85.000 41.625 20.516 67.468
139 90.000 0.0000 90.000 47.222 23.205 76.625
140 95.000 0.0000 95.000 53.244 26.098 86.478
141 100.00 0.0000 100.00 59.701 29.199 97.042
142 5.0000 5.0000 0.0000 1.3001 1.3615 1.0540
143 10.000 10.000 0.0000 1.7641 1.9206 1.1375
144 15.000 15.000 0.0000 2.4947 2.8009 1.2689
145 20.000 20.000 0.0000 3.5238 4.0408 1.4540
146 25.000 25.000 0.0000 4.8786 5.6731 1.6978
147 30.000 30.000 0.0000 6.5834 7.7272 2.0045
148 35.000 35.000 0.0000 8.6602 10.229 2.3781
149 40.000 40.000 0.0000 11.129 13.204 2.8223
150 45.000 45.000 0.0000 14.009 16.674 3.3404
151 50.000 50.000 0.0000 17.318 20.660 3.9356
152 55.000 55.000 0.0000 21.071 25.182 4.6108
153 60.000 60.000 0.0000 25.285 30.259 5.3689
154 65.000 65.000 0.0000 29.974 35.909 6.2125
155 70.000 70.000 0.0000 35.153 42.149 7.1442
156 75.000 75.000 0.0000 40.835 48.995 8.1664
157 80.000 80.000 0.0000 47.033 56.463 9.2815
158 85.000 85.000 0.0000 53.760 64.569 10.492
159 90.000 90.000 0.0000 61.029 73.326 11.799
160 95.000 95.000 0.0000 68.850 82.749 13.206
161 100.00 100.00 0.0000 77.235 92.853 14.715
162 100.00 5.0000 5.0000 42.040 22.359 3.3302
163 100.00 10.000 10.000 42.364 22.833 3.9750
164 100.00 15.000 15.000 42.875 23.580 4.9902
165 100.00 20.000 20.000 43.594 24.633 6.4200
166 100.00 25.000 25.000 44.541 26.018 8.3026
167 100.00 30.000 30.000 45.732 27.761 10.671
168 100.00 35.000 35.000 47.183 29.884 13.557
169 100.00 40.000 40.000 48.909 32.409 16.988
170 100.00 45.000 45.000 50.922 35.354 20.990
171 100.00 50.000 50.000 53.233 38.736 25.587
172 100.00 55.000 55.000 55.856 42.574 30.802
173 100.00 60.000 60.000 58.801 46.882 36.657
174 100.00 65.000 65.000 62.078 51.677 43.173
175 100.00 70.000 70.000 65.697 56.972 50.369
176 100.00 75.000 75.000 69.668 62.782 58.264
177 100.00 80.000 80.000 74.000 69.119 66.877
178 100.00 85.000 85.000 78.701 75.998 76.225
179 100.00 90.000 90.000 83.781 83.429 86.324
180 100.00 95.000 95.000 89.246 91.426 97.192
181 5.0000 100.00 5.0000 36.636 71.912 13.180
182 10.000 100.00 10.000 36.994 72.083 13.764
183 15.000 100.00 15.000 37.556 72.353 14.685
184 20.000 100.00 20.000 38.349 72.734 15.981
185 25.000 100.00 25.000 39.392 73.235 17.688
186 30.000 100.00 30.000 40.704 73.866 19.836
187 35.000 100.00 35.000 42.304 74.634 22.452
188 40.000 100.00 40.000 44.205 75.547 25.563
189 45.000 100.00 45.000 46.422 76.613 29.191
190 50.000 100.00 50.000 48.970 77.836 33.359
191 55.000 100.00 55.000 51.860 79.225 38.087
192 60.000 100.00 60.000 55.104 80.783 43.396
193 65.000 100.00 65.000 58.715 82.518 49.303
194 70.000 100.00 70.000 62.703 84.434 55.828
195 75.000 100.00 75.000 67.078 86.535 62.986
196 80.000 100.00 80.000 71.851 88.828 70.795
197 85.000 100.00 85.000 77.031 91.317 79.270
198 90.000 100.00 90.000 82.627 94.005 88.427
199 95.000 100.00 95.000 88.650 96.898 98.280
200 5.0000 5.0000 100.00 19.171 8.5088 95.183
201 10.000 10.000 100.00 19.635 9.0679 95.266
202 15.000 15.000 100.00 20.366 9.9482 95.398
203 20.000 20.000 100.00 21.395 11.188 95.583
204 25.000 25.000 100.00 22.750 12.820 95.827
205 30.000 30.000 100.00 24.455 14.875 96.133
206 35.000 35.000 100.00 26.531 17.377 96.507
207 40.000 40.000 100.00 29.000 20.352 96.951
208 45.000 45.000 100.00 31.880 23.822 97.469
209 50.000 50.000 100.00 35.189 27.808 98.065
210 55.000 55.000 100.00 38.942 32.330 98.740
211 60.000 60.000 100.00 43.156 37.407 99.498
212 65.000 65.000 100.00 47.845 43.057 100.34
213 70.000 70.000 100.00 53.024 49.296 101.27
214 75.000 75.000 100.00 58.706 56.142 102.30
215 80.000 80.000 100.00 64.904 63.610 103.41
216 85.000 85.000 100.00 71.631 71.716 104.62
217 90.000 90.000 100.00 78.900 80.473 105.93
218 95.000 95.000 100.00 86.721 89.897 107.34
219 5.0000 100.00 100.00 54.437 79.031 106.94
220 10.000 100.00 100.00 54.686 79.159 106.95
221 15.000 100.00 100.00 55.077 79.361 106.97
222 20.000 100.00 100.00 55.628 79.645 106.99
223 25.000 100.00 100.00 56.354 80.019 107.03
224 30.000 100.00 100.00 57.267 80.490 107.07
225 35.000 100.00 100.00 58.379 81.063 107.12
226 40.000 100.00 100.00 59.701 81.745 107.19
227 45.000 100.00 100.00 61.244 82.540 107.26
228 50.000 100.00 100.00 63.016 83.454 107.34
229 55.000 100.00 100.00 65.026 84.490 107.43
230 60.000 100.00 100.00 67.283 85.654 107.54
231 65.000 100.00 100.00 69.794 86.949 107.66
232 70.000 100.00 100.00 72.568 88.379 107.79
233 75.000 100.00 100.00 75.611 89.948 107.93
234 80.000 100.00 100.00 78.931 91.660 108.09
235 85.000 100.00 100.00 82.534 93.517 108.25
236 90.000 100.00 100.00 86.426 95.525 108.44
237 95.000 100.00 100.00 90.615 97.684 108.63
238 100.00 5.0000 100.00 59.841 29.478 97.089
239 100.00 10.000 100.00 60.056 29.909 97.160
240 100.00 15.000 100.00 60.395 30.588 97.274
241 100.00 20.000 100.00 60.873 31.543 97.433
242 100.00 25.000 100.00 61.503 32.802 97.643
243 100.00 30.000 100.00 62.294 34.385 97.907
244 100.00 35.000 100.00 63.259 36.314 98.228
245 100.00 40.000 100.00 64.406 38.607 98.610
246 100.00 45.000 100.00 65.743 41.281 99.056
247 100.00 50.000 100.00 67.279 44.354 99.568
248 100.00 55.000 100.00 69.023 47.839 100.15
249 100.00 60.000 100.00 70.979 51.753 100.80
250 100.00 65.000 100.00 73.157 56.108 101.53
251 100.00 70.000 100.00 75.562 60.917 102.33
252 100.00 75.000 100.00 78.201 66.194 103.21
253 100.00 80.000 100.00 81.080 71.951 104.17
254 100.00 85.000 100.00 84.204 78.198 105.21
255 100.00 90.000 100.00 87.580 84.949 106.34
256 100.00 95.000 100.00 91.212 92.212 107.55
257 100.00 100.00 5.0000 77.306 92.881 15.086
258 100.00 100.00 10.000 77.414 92.924 15.659
259 100.00 100.00 15.000 77.586 92.993 16.561
260 100.00 100.00 20.000 77.827 93.089 17.831
261 100.00 100.00 25.000 78.145 93.216 19.504
262 100.00 100.00 30.000 78.544 93.376 21.609
263 100.00 100.00 35.000 79.031 93.571 24.173
264 100.00 100.00 40.000 79.610 93.802 27.222
265 100.00 100.00 45.000 80.285 94.072 30.778
266 100.00 100.00 50.000 81.061 94.383 34.863
267 100.00 100.00 55.000 81.940 94.734 39.497
268 100.00 100.00 60.000 82.928 95.129 44.700
269 100.00 100.00 65.000 84.027 95.569 50.489
270 100.00 100.00 70.000 85.241 96.055 56.884
271 100.00 100.00 75.000 86.573 96.587 63.899
272 100.00 100.00 80.000 88.026 97.168 71.553
273 100.00 100.00 85.000 89.603 97.799 79.859
274 100.00 100.00 90.000 91.307 98.481 88.833
275 100.00 100.00 95.000 93.141 99.214 98.490
276 66.667 100.00 100.00 70.689 87.410 107.70
277 100.00 66.667 100.00 73.933 57.660 101.79
278 100.00 100.00 66.667 84.419 95.726 52.553
279 66.667 33.333 33.333 22.253 16.543 11.392
280 33.333 66.667 33.333 20.565 32.022 14.469
281 33.333 33.333 66.667 15.109 12.217 40.084
282 33.333 66.667 66.667 26.125 34.246 43.756
283 66.667 33.333 66.667 27.813 18.767 40.679
284 66.667 66.667 33.333 33.268 38.572 15.064
285 100.00 0.0000 66.667 49.014 24.925 40.751
286 66.667 100.00 0.0000 52.818 80.263 13.571
287 0.0000 66.667 100.00 33.103 36.608 99.873
288 0.0000 100.00 66.667 43.589 74.674 50.640
289 66.667 0.0000 100.00 35.284 16.610 95.898
290 100.00 66.667 0.0000 56.062 50.512 7.6573
291 100.00 48.141 0.0000 48.813 36.017 5.2410
292 100.00 53.916 14.414 51.082 40.031 7.6098
293 100.00 57.120 28.339 53.121 42.765 12.433
294 100.00 64.991 39.460 57.589 49.875 19.551
295 93.317 12.024 25.821 37.341 20.333 7.8982
296 77.435 20.167 49.900 28.916 16.720 22.531
297 90.117 31.388 77.899 46.254 27.377 57.002
298 100.00 33.719 85.968 57.812 33.713 70.841
299 18.306 85.274 0.0000 26.828 50.947 9.2809
300 75.666 87.585 51.008 52.971 66.243 31.795
301 33.810 42.787 0.0000 10.245 13.819 2.9875
302 64.834 43.097 0.0000 21.940 19.974 3.5596
303 83.629 52.359 0.0000 36.616 31.792 5.0680
304 100.00 65.150 0.0000 55.355 49.098 7.4216
305 100.00 71.088 14.364 58.570 55.008 10.096
306 81.291 36.997 0.0000 30.551 22.163 3.5287
307 82.963 50.086 12.947 35.633 30.114 6.2218
308 0.0000 14.825 85.349 14.163 7.3523 66.976
309 22.965 13.406 100.00 21.203 10.198 95.402
310 100.00 16.512 100.00 60.525 30.846 97.317
311 100.00 31.457 100.00 62.557 34.910 97.994
312 55.486 32.029 55.627 19.744 14.504 27.903
313 68.080 34.463 66.580 28.804 19.620 40.683
314 42.562 10.457 40.102 9.9550 5.9058 13.991
315 79.391 72.259 44.211 45.196 48.714 23.277
316 47.313 62.953 26.669 22.328 30.485 10.985
317 46.834 62.648 83.743 32.954 34.501 68.484
318 51.036 100.00 85.650 58.123 81.543 79.502
319 69.958 100.00 100.00 72.543 88.366 107.79
320 84.400 100.00 100.00 82.086 93.287 108.23
321 64.990 28.991 0.0000 18.932 13.837 2.5334
322 67.493 56.857 0.0000 27.890 29.740 5.1314
323 67.889 59.720 19.684 29.825 32.362 8.5459
324 74.029 65.035 56.134 40.114 40.592 32.373
325 21.534 77.660 21.652 23.244 42.074 11.363
326 21.585 91.283 57.179 36.470 61.418 37.647
327 68.974 100.00 85.597 66.671 85.952 79.811
328 85.750 100.00 85.343 77.709 91.653 79.890
329 0.0000 61.674 14.779 13.324 25.098 6.7924
330 44.797 94.761 13.308 39.517 67.326 13.268
331 72.644 100.00 13.509 56.564 82.161 15.272
332 100.00 100.00 14.731 77.575 92.989 16.503
333 100.00 100.00 30.676 78.605 93.400 21.928
334 25.657 45.379 31.042 10.741 14.989 10.542
335 27.564 79.318 55.558 29.303 46.161 33.443
336 39.443 82.324 67.794 36.523 52.291 48.118
337 0.0000 16.224 100.00 19.669 9.7428 95.395
338 13.772 25.610 100.00 21.450 12.280 95.791
339 46.343 41.132 100.00 31.282 21.952 97.140
340 0.0000 73.567 71.802 27.192 39.822 51.531
341 0.0000 85.080 83.587 37.465 54.866 71.914
342 0.0000 87.701 100.00 45.166 60.730 103.89
343 16.443 100.00 100.00 55.219 79.434 106.97
344 0.0000 86.883 47.027 30.096 53.823 27.235
345 0.0000 100.00 57.196 41.531 73.850 39.797
346 0.0000 100.00 71.747 44.863 75.183 57.350
347 18.581 100.00 72.659 46.283 75.887 58.679
348 37.392 100.00 75.322 50.542 77.999 62.681
349 68.878 0.0000 100.00 36.517 17.245 95.956
350 85.340 0.0000 100.00 47.384 22.849 96.465
351 32.921 100.00 61.321 45.993 76.053 44.428
352 49.325 100.00 66.385 52.008 79.022 50.683
353 13.697 100.00 27.275 38.169 72.585 18.525
354 27.254 100.00 30.579 40.231 73.616 20.084
355 42.062 100.00 30.694 43.810 75.460 20.307
356 56.296 100.00 36.753 49.703 78.427 23.802
357 15.901 51.591 0.0000 9.9975 17.675 3.7449
358 18.536 69.075 0.0000 17.572 32.398 6.1879
359 17.268 72.947 32.683 20.976 36.925 15.056
360 35.835 76.726 79.627 35.454 46.420 63.935
361 58.791 79.743 89.382 48.517 55.398 81.630
362 49.162 62.268 71.884 30.158 33.215 50.212
363 70.982 62.868 89.615 46.304 41.298 79.454
364 100.00 76.266 89.713 75.006 66.046 82.899
365 100.00 84.097 100.00 83.621 77.033 105.02
366 46.552 15.105 29.306 10.444 6.7677 8.1600
367 49.567 26.336 36.591 13.543 10.202 12.442
368 88.904 30.957 45.786 38.201 23.917 20.056
369 100.00 51.488 87.979 63.273 43.546 76.014
370 28.458 0.0000 26.625 4.7178 2.7978 6.5503
371 32.974 81.844 0.0000 27.129 47.867 8.6706
372 34.092 100.00 0.0000 40.291 73.804 12.984
373 51.441 100.00 0.0000 45.699 76.592 13.237
374 55.190 100.00 16.413 47.647 77.549 15.475
375 0.0000 28.580 85.818 15.989 10.756 68.350
376 0.0000 34.078 100.00 22.237 14.879 96.251
377 0.0000 48.529 100.00 25.976 22.355 97.497
378 0.0000 63.271 100.00 31.548 33.498 99.355
379 44.725 87.072 100.00 51.619 63.428 104.08
380 0.0000 100.00 14.386 36.731 71.931 14.518
381 0.0000 100.00 29.035 37.630 72.290 19.254
382 0.0000 43.280 14.736 6.8991 12.253 4.6421
383 0.0000 42.949 40.478 8.9042 12.911 15.647
384 0.0000 42.513 83.713 18.302 16.482 65.727
385 0.0000 56.739 83.835 22.967 25.747 67.476
386 0.0000 72.086 86.344 30.747 39.987 74.135
387 0.0000 100.00 86.077 49.129 76.889 79.822
388 31.962 100.00 87.553 53.030 78.843 82.603
389 14.538 100.00 85.795 49.793 77.243 79.362
390 42.197 18.855 0.0000 8.1248 6.2315 1.6346
391 56.008 33.657 11.590 15.692 13.418 3.8104
392 74.440 38.372 33.206 27.901 21.081 11.904
393 52.217 36.286 68.013 21.945 16.622 42.282
394 59.917 52.705 100.00 40.333 31.821 98.568
395 29.257 0.0000 57.761 9.0792 4.5599 28.716
396 37.305 0.0000 69.671 13.608 6.5844 42.949
397 47.983 20.157 75.676 19.713 11.312 51.953
398 49.028 47.495 78.784 26.586 23.053 58.571
399 74.005 51.616 79.638 40.508 32.184 60.938
400 49.505 52.259 0.0000 17.893 22.087 4.1807
401 55.323 53.071 17.634 20.980 24.046 6.8514
402 30.562 57.103 0.0000 14.223 22.834 4.5182
403 32.234 65.054 7.2295 18.054 29.787 6.2439
404 39.240 66.038 37.583 22.229 32.388 16.861
405 52.376 70.898 66.033 34.016 41.427 43.937
406 55.515 77.008 100.00 49.468 53.052 102.19
407 0.0000 27.967 35.406 5.0900 6.2365 11.438
408 0.0000 58.824 42.188 14.456 23.657 18.598
409 0.0000 73.755 41.700 21.414 37.674 20.598
410 0.0000 100.00 42.881 39.157 72.901 27.294
411 15.343 100.00 43.678 40.100 73.374 27.913
412 19.512 44.445 20.644 8.8022 13.682 6.3301
413 68.872 55.466 32.146 29.644 29.685 12.928
414 61.647 11.163 8.6398 15.371 9.0195 2.5444
415 63.461 17.192 54.052 21.133 12.171 25.845
416 68.351 31.786 54.400 25.858 17.615 26.981
417 13.675 0.0000 18.288 2.1827 1.5519 3.6693
418 0.0000 75.062 100.00 37.405 45.210 101.31
419 14.074 79.623 100.00 40.741 50.817 102.21
420 25.389 88.240 100.00 47.674 62.567 104.12
421 35.871 100.00 100.00 58.594 81.174 107.13
422 53.561 100.00 100.00 64.422 84.179 107.41
423 58.831 0.0000 13.857 13.761 7.5445 3.1918
424 74.999 0.0000 14.682 22.671 12.135 3.7772
425 87.705 0.0000 20.129 31.926 16.876 5.5751
426 100.00 0.0000 28.575 43.017 22.527 9.1616
427 100.00 14.660 35.570 44.354 24.128 12.916
428 100.00 22.229 48.449 46.837 26.347 22.213
429 48.534 85.472 0.0000 34.006 54.840 9.6543
430 68.861 100.00 0.0000 54.041 80.894 13.628
431 69.014 100.00 26.967 55.185 81.361 19.196
432 74.110 100.00 39.498 59.490 83.436 25.953
433 20.945 28.017 84.479 16.932 11.156 66.069
434 40.531 38.702 85.338 23.446 17.643 68.453
435 85.700 0.0000 71.197 38.099 19.167 46.140
436 100.00 0.0000 71.972 50.347 25.459 47.774
437 100.00 0.0000 57.812 47.077 24.151 30.550
438 100.00 19.298 67.818 50.388 27.228 42.581
439 100.00 32.071 71.895 53.298 31.392 48.657
440 100.00 45.870 72.745 56.847 38.128 50.953
441 100.00 77.208 75.289 70.990 65.296 59.103
442 30.299 100.00 46.708 42.759 74.695 30.342
443 63.592 100.00 71.665 59.626 82.797 57.929
444 86.871 0.0000 53.479 35.106 18.073 25.703
445 92.985 8.8506 83.192 47.693 24.150 64.784
446 70.111 0.0000 29.024 20.580 10.954 8.3079
447 72.398 0.0000 44.197 23.651 12.340 17.380
448 82.564 0.0000 85.407 39.968 19.646 68.090
449 100.00 49.218 100.00 67.026 43.846 99.484
450 0.0000 69.160 27.454 17.535 32.315 11.913
451 20.322 87.165 67.824 35.790 56.562 49.021
452 0.0000 26.887 16.703 3.5048 5.3299 3.9286
453 0.0000 36.671 26.886 5.9702 9.2591 7.8375
454 0.0000 53.130 27.743 10.762 18.734 9.7698
455 25.667 56.695 29.853 14.444 22.564 11.248
456 37.699 72.006 17.698 23.152 37.436 9.3380
457 48.494 80.480 17.439 31.308 48.731 11.023
458 77.930 85.901 38.332 51.509 64.032 21.888
459 86.661 100.00 42.824 68.667 88.118 28.637
460 39.598 68.647 0.0000 21.498 34.109 6.3114
461 60.299 76.465 12.395 33.720 46.512 9.3876
462 62.767 79.552 31.400 37.911 51.196 16.275
463 20.031 42.923 100.00 25.689 19.770 97.013
464 34.116 53.199 100.00 31.431 27.489 98.201
465 49.187 62.233 100.00 39.529 36.940 99.599
466 68.291 71.570 100.00 52.849 50.399 101.50
467 84.813 0.0000 35.127 30.927 16.221 11.847
468 100.00 0.0000 43.415 44.655 23.182 17.793
469 100.00 12.750 56.245 47.296 25.078 29.112
470 48.958 0.0000 58.721 14.780 7.4771 29.990
471 51.278 0.0000 100.00 28.101 12.906 95.561
472 63.354 16.079 100.00 34.319 17.277 96.078
473 82.178 14.279 100.00 45.697 22.924 96.569
474 31.161 43.959 46.287 13.217 15.454 20.130
475 34.727 43.845 59.544 16.350 16.750 32.580
476 100.00 51.898 60.136 55.766 40.768 35.786
477 86.438 69.512 0.0000 45.964 47.360 7.5807
478 100.00 74.851 29.494 61.513 59.388 15.713
479 100.00 100.00 46.213 80.464 94.144 31.719
480 100.00 100.00 59.157 82.754 95.060 43.782
481 27.352 13.512 0.0000 4.0620 3.4386 1.3094
482 37.821 19.962 11.433 7.2116 5.9104 2.7818
483 47.440 22.886 50.729 14.266 9.6332 22.659
484 69.509 24.434 85.978 33.420 18.804 69.264
485 85.853 40.885 100.00 52.699 32.901 98.126
486 78.929 45.066 91.299 45.517 31.267 80.703
487 83.566 61.522 91.884 54.859 44.751 83.923
488 85.462 72.099 100.00 64.416 56.771 102.12
489 9.7402 22.528 50.629 6.7935 5.7150 22.209
490 22.529 38.697 52.909 11.408 12.377 25.317
491 39.840 52.914 53.623 19.399 22.688 27.557
492 56.242 16.560 0.0000 13.115 8.4748 1.8048
493 100.00 33.982 0.0000 45.177 28.745 4.0288
494 100.00 38.707 13.049 46.496 30.941 5.8283
495 100.00 42.626 28.430 48.387 33.285 10.892
496 100.00 81.231 48.982 67.614 67.759 29.560
497 100.00 86.891 62.739 73.861 76.056 44.578
498 53.780 0.0000 26.071 12.225 6.6731 6.6822
