DisplayCAL/ref/verify_video.ti1
CTI1   

ORIGINATOR "Argyll targen"
CREATED "Fri Oct 11 21:11:25 2013"
KEYWORD "COMP_GREY_STEPS"
COMP_GREY_STEPS "11"
KEYWORD "BLACK_COLOR_PATCHES"
BLACK_COLOR_PATCHES "1"
KEYWORD "APPROX_WHITE_POINT"
APPROX_WHITE_POINT "95.045684 99.999971 108.903720"
DESCRIPTOR "Argyll Calibration Target chart information 1"
KEYWORD "MULTI_DIM_STEPS"
MULTI_DIM_STEPS "2"
KEYWORD "ACCURATE_EXPECTED_VALUES"
ACCURATE_EXPECTED_VALUES "true"
KEYWORD "WHITE_COLOR_PATCHES"
WHITE_COLOR_PATCHES "1"
KEYWORD "COLOR_REP"
COLOR_REP "RGB"

NUMBER_OF_FIELDS 7
BEGIN_DATA_FORMAT
SAMPLE_ID RGB_R RGB_G RGB_B XYZ_X XYZ_Y XYZ_Z
END_DATA_FORMAT

NUMBER_OF_SETS 47
BEGIN_DATA
1 100.00 100.00 100.00 95.046 100.00 108.90
2 0.0000 0.0000 0.0000 1.0000 1.0000 1.0000
3 10.000 10.000 10.000 2.1317 2.2428 2.4425
4 20.000 20.000 20.000 5.2684 5.5430 6.0365
5 30.000 30.000 30.000 10.002 10.523 11.460
6 40.000 40.000 40.000 16.442 17.299 18.839
7 50.000 50.000 50.000 24.673 25.959 28.270
8 60.000 60.000 60.000 34.771 36.584 39.841
9 70.000 70.000 70.000 46.802 49.242 53.626
10 80.000 80.000 80.000 60.823 63.994 69.692
11 90.000 90.000 90.000 76.889 80.896 88.099
12 75.000 0.0000 0.0000 23.239 11.983 1.0890
13 0.0000 75.000 0.0000 20.151 40.301 6.7164
14 0.0000 0.0000 75.000 10.171 4.0680 53.564
15 75.000 75.000 0.0000 43.390 52.284 7.8054
16 0.0000 75.000 75.000 30.322 44.369 60.281
17 75.000 0.0000 75.000 33.410 16.051 54.653
18 44.857 44.857 44.857 20.211 21.264 23.158
19 63.673 38.191 38.191 25.480 21.264 17.839
20 77.882 30.157 30.157 30.740 21.264 12.529
21 89.702 19.413 19.413 35.993 21.264 7.2266
22 100.00 0.0000 0.0000 41.238 21.264 1.9325
23 84.611 84.611 84.611 67.974 71.517 77.885
24 66.425 90.768 66.425 55.794 71.517 52.945
25 49.339 94.865 49.339 47.167 71.517 35.280
26 30.889 97.796 30.889 40.737 71.517 22.113
27 0.0000 100.00 0.0000 35.759 71.517 11.919
28 23.776 23.776 23.776 6.8614 7.2191 7.8619
29 22.893 22.893 33.269 7.5025 7.2191 12.858
30 21.329 21.329 45.163 8.5869 7.2191 21.310
31 17.770 17.770 62.889 10.818 7.2191 38.695
32 0.0000 0.0000 100.00 18.049 7.2191 95.054
33 96.356 96.356 96.356 88.184 92.781 101.04
34 97.606 97.606 78.320 84.396 92.781 71.521
35 98.581 98.581 60.005 81.409 92.781 48.236
36 99.361 99.361 39.013 78.992 92.781 29.401
37 100.00 100.00 0.0000 76.997 92.781 13.851
38 88.791 88.791 88.791 74.835 78.736 85.747
39 76.814 91.734 91.734 69.581 78.736 91.050
40 62.359 94.577 94.577 64.325 78.736 96.356
41 43.001 97.330 97.330 59.068 78.736 101.66
42 0.0000 100.00 100.00 53.807 78.736 106.97
43 52.554 52.554 52.554 27.072 28.483 31.020
44 61.327 48.605 61.327 31.424 28.483 39.931
45 71.488 42.636 71.488 37.351 28.483 52.068
46 83.868 32.173 83.868 45.896 28.483 69.566
47 100.00 0.0000 100.00 59.287 28.483 96.986
END_DATA
CTI1   

ORIGINATOR "Argyll targen"
KEYWORD "DENSITY_EXTREME_VALUES"
DENSITY_EXTREME_VALUES "8"
CREATED "October 11, 2013"
DESCRIPTOR "Argyll Calibration Target chart information 1"

KEYWORD "INDEX"
NUMBER_OF_FIELDS 7
BEGIN_DATA_FORMAT
INDEX RGB_R RGB_G RGB_B XYZ_X XYZ_Y XYZ_Z
END_DATA_FORMAT

NUMBER_OF_SETS 8
BEGIN_DATA
0 100.0000 100.0000 100.0000 95.04570 100.0000 108.9040
1 0.000000 41.07990 100.0000 24.53540 20.19270 97.21470
2 100.0000 0.000000 73.78220 51.08780 25.20380 53.80440
3 0.000000 0.000000 50.83590 4.831720 1.932570 25.44630
4 100.0000 60.58940 0.000000 54.56690 47.92100 6.374960
5 0.000000 28.22230 0.000000 3.400840 6.801620 1.133520
6 76.48680 0.000000 0.000000 24.15290 12.45430 1.131840
7 1.784250 1.568810 1.248170 0.338157 0.353794 0.312873
END_DATA
CTI1   

ORIGINATOR "Argyll targen"
CREATED "January 13, 2014"
DESCRIPTOR "Argyll Calibration Target chart information 1"
KEYWORD "DEVICE_COMBINATION_VALUES"
DEVICE_COMBINATION_VALUES "9"

KEYWORD "INDEX"
NUMBER_OF_FIELDS 7
BEGIN_DATA_FORMAT
INDEX RGB_R RGB_G RGB_B XYZ_X XYZ_Y XYZ_Z
END_DATA_FORMAT

NUMBER_OF_SETS 9
BEGIN_DATA
0 100.000 100.000 100.000 95.0457 100.000 108.904
1 0.00000 100.000 100.000 53.8072 78.7357 106.971
2 100.000 0.00000 100.000 59.2869 28.4832 96.9851
3 0.00000 0.00000 100.000 18.0485 7.21893 95.0526
4 100.000 100.000 0.00000 76.9972 92.7810 13.8511
5 0.00000 100.000 0.00000 35.7587 71.5167 11.9186
6 100.000 0.00000 0.00000 41.2385 21.2643 1.93250
7 0.00000 0.00000 0.00000 0.00000 0.00000 0.00000
8 50.0000 50.0000 50.0000 24.6726 25.9586 28.2699
END_DATA