DisplayCAL/ref/verify_video_extended.ti1
CTI1   

ORIGINATOR "Argyll targen"
CREATED "Fri Oct 11 21:11:25 2013"
KEYWORD "COMP_GREY_STEPS"
COMP_GREY_STEPS "21"
KEYWORD "BLACK_COLOR_PATCHES"
BLACK_COLOR_PATCHES "1"
KEYWORD "APPROX_WHITE_POINT"
APPROX_WHITE_POINT "95.045684 99.999971 108.903720"
DESCRIPTOR "Argyll Calibration Target chart information 1"
KEYWORD "MULTI_DIM_STEPS"
MULTI_DIM_STEPS "2"
KEYWORD "ACCURATE_EXPECTED_VALUES"
ACCURATE_EXPECTED_VALUES "true"
KEYWORD "WHITE_COLOR_PATCHES"
WHITE_COLOR_PATCHES "1"
KEYWORD "COLOR_REP"
COLOR_REP "RGB"

NUMBER_OF_FIELDS 7
BEGIN_DATA_FORMAT
SAMPLE_ID RGB_R RGB_G RGB_B XYZ_X XYZ_Y XYZ_Z
END_DATA_FORMAT

NUMBER_OF_SETS 89
BEGIN_DATA
1 100.00 100.00 100.00 95.046 100.00 108.90
2 0.0000 0.0000 0.0000 1.0000 1.0000 1.0000
3 1.0000 1.0000 1.0000 0.2109 0.2219 0.2417
4 2.0000 2.0000 2.0000 0.4227 0.4447 0.4843
5 3.0000 3.0000 3.0000 0.6333 0.6663 0.7256
6 4.0000 4.0000 4.0000 0.8452 0.8893 0.9685
7 5.0000 5.0000 5.0000 1.0560 1.1110 1.2099
8 10.000 10.000 10.000 2.1317 2.2428 2.4425
9 15.000 15.000 15.000 3.5075 3.6903 4.0189
10 20.000 20.000 20.000 5.2684 5.5430 6.0365
11 25.000 25.000 25.000 7.4285 7.8157 8.5116
12 30.000 30.000 30.000 10.002 10.523 11.460
13 35.000 35.000 35.000 13.002 13.680 14.898
14 40.000 40.000 40.000 16.442 17.299 18.839
15 45.000 45.000 45.000 20.328 21.388 23.292
16 50.000 50.000 50.000 24.673 25.959 28.270
17 55.000 55.000 55.000 29.485 31.022 33.784
18 60.000 60.000 60.000 34.771 36.584 39.841
19 65.000 65.000 65.000 40.542 42.655 46.453
20 70.000 70.000 70.000 46.802 49.242 53.626
21 75.000 75.000 75.000 53.560 56.352 61.370
22 80.000 80.000 80.000 60.823 63.994 69.692
23 85.000 85.000 85.000 68.597 72.173 78.599
24 90.000 90.000 90.000 76.889 80.896 88.099
25 95.000 95.000 95.000 85.702 90.170 98.198
26 96.000 96.000 96.000 87.529 92.091 100.29
27 97.000 97.000 97.000 89.376 94.035 102.41
28 98.000 98.000 98.000 91.245 96.001 104.55
29 99.000 99.000 99.000 93.135 97.990 106.71
30 75.000 0.0000 0.0000 23.239 11.983 1.0890
31 0.0000 75.000 0.0000 20.151 40.301 6.7164
32 0.0000 0.0000 75.000 10.171 4.0680 53.564
33 75.000 75.000 0.0000 43.390 52.284 7.8054
34 0.0000 75.000 75.000 30.322 44.369 60.281
35 75.000 0.0000 75.000 33.410 16.051 54.653
36 44.857 44.857 44.857 20.211 21.264 23.158
37 63.673 38.191 38.191 25.480 21.264 17.839
38 77.882 30.157 30.157 30.740 21.264 12.529
39 89.702 19.413 19.413 35.993 21.264 7.2266
40 100.00 0.0000 0.0000 41.238 21.264 1.9325
41 84.611 84.611 84.611 67.974 71.517 77.885
42 66.425 90.768 66.425 55.794 71.517 52.945
43 49.339 94.865 49.339 47.167 71.517 35.280
44 30.889 97.796 30.889 40.737 71.517 22.113
45 0.0000 100.00 0.0000 35.759 71.517 11.919
46 23.776 23.776 23.776 6.8614 7.2191 7.8619
47 22.893 22.893 33.269 7.5025 7.2191 12.858
48 21.329 21.329 45.163 8.5869 7.2191 21.310
49 17.770 17.770 62.889 10.818 7.2191 38.695
50 0.0000 0.0000 100.00 18.049 7.2191 95.054
51 96.356 96.356 96.356 88.184 92.781 101.04
52 97.606 97.606 78.320 84.396 92.781 71.521
53 98.581 98.581 60.005 81.409 92.781 48.236
54 99.361 99.361 39.013 78.992 92.781 29.401
55 100.00 100.00 0.0000 76.997 92.781 13.851
56 88.791 88.791 88.791 74.835 78.736 85.747
57 76.814 91.734 91.734 69.581 78.736 91.050
58 62.359 94.577 94.577 64.325 78.736 96.356
59 43.001 97.330 97.330 59.068 78.736 101.66
60 0.0000 100.00 100.00 53.807 78.736 106.97
61 52.554 52.554 52.554 27.072 28.483 31.020
62 61.327 48.605 61.327 31.424 28.483 39.931
63 71.488 42.636 71.488 37.351 28.483 52.068
64 83.868 32.173 83.868 45.896 28.483 69.566
65 100.00 0.0000 100.00 59.287 28.483 96.986
66 40.014 25.786 20.317 11.099 9.9635 6.7068
67 75.324 53.324 45.514 37.843 34.593 25.342
68 29.729 42.874 56.966 17.263 18.608 34.043
69 29.370 36.749 19.123 10.451 13.186 6.9022
70 45.878 45.225 65.633 24.698 23.284 44.310
71 30.467 71.586 63.893 30.296 42.064 45.565
72 86.504 43.440 12.117 38.502 30.443 6.5044
73 20.525 29.989 63.105 13.408 11.655 39.664
74 75.217 26.193 32.376 28.543 18.938 13.474
75 30.976 16.581 35.901 8.6732 6.4200 14.309
76 58.214 71.178 18.499 33.326 44.081 11.428
77 89.196 59.446 9.2210 45.989 42.749 7.7700
78 7.7021 18.704 53.282 7.7766 6.0657 28.411
79 20.128 54.049 23.036 14.282 23.155 10.217
80 67.276 12.896 16.166 20.622 12.158 5.1263
81 92.643 75.270 3.0853 55.771 58.867 9.0726
82 72.946 27.032 54.748 30.727 19.906 31.320
83 0.0000 48.676 62.903 14.518 19.761 40.936
84 95.568 95.693 94.577 86.481 91.294 97.612
85 76.096 76.909 76.998 55.793 58.956 64.583
86 59.061 59.970 60.149 34.343 36.341 39.981
87 42.165 42.383 42.534 18.187 19.160 21.010
88 26.405 27.083 27.768 8.3684 8.8404 10.026
89 12.892 13.165 13.693 2.9545 3.1078 3.5418
END_DATA
CTI1   

ORIGINATOR "Argyll targen"
KEYWORD "DENSITY_EXTREME_VALUES"
DENSITY_EXTREME_VALUES "8"
CREATED "October 11, 2013"
DESCRIPTOR "Argyll Calibration Target chart information 1"

KEYWORD "INDEX"
NUMBER_OF_FIELDS 7
BEGIN_DATA_FORMAT
INDEX RGB_R RGB_G RGB_B XYZ_X XYZ_Y XYZ_Z
END_DATA_FORMAT

NUMBER_OF_SETS 8
BEGIN_DATA
0 100.0000 100.0000 100.0000 95.04570 100.0000 108.9040
1 0.000000 41.07990 100.0000 24.53540 20.19270 97.21470
2 100.0000 0.000000 73.78220 51.08780 25.20380 53.80440
3 0.000000 0.000000 50.83590 4.831720 1.932570 25.44630
4 100.0000 60.58940 0.000000 54.56690 47.92100 6.374960
5 0.000000 28.22230 0.000000 3.400840 6.801620 1.133520
6 76.48680 0.000000 0.000000 24.15290 12.45430 1.131840
7 1.784250 1.568810 1.248170 0.338157 0.353794 0.312873
END_DATA
CTI1   

ORIGINATOR "Argyll targen"
CREATED "January 13, 2014"
DESCRIPTOR "Argyll Calibration Target chart information 1"
KEYWORD "DEVICE_COMBINATION_VALUES"
DEVICE_COMBINATION_VALUES "9"

KEYWORD "INDEX"
NUMBER_OF_FIELDS 7
BEGIN_DATA_FORMAT
INDEX RGB_R RGB_G RGB_B XYZ_X XYZ_Y XYZ_Z
END_DATA_FORMAT

NUMBER_OF_SETS 9
BEGIN_DATA
0 100.000 100.000 100.000 95.0457 100.000 108.904
1 0.00000 100.000 100.000 53.8072 78.7357 106.971
2 100.000 0.00000 100.000 59.2869 28.4832 96.9851
3 0.00000 0.00000 100.000 18.0485 7.21893 95.0526
4 100.000 100.000 0.00000 76.9972 92.7810 13.8511
5 0.00000 100.000 0.00000 35.7587 71.5167 11.9186
6 100.000 0.00000 0.00000 41.2385 21.2643 1.93250
7 0.00000 0.00000 0.00000 0.00000 0.00000 0.00000
8 50.0000 50.0000 50.0000 24.6726 25.9586 28.2699
END_DATA