DisplayCAL/ref/verify_video_xxl.ti1
CTI1   

ORIGINATOR "Argyll targen"
KEYWORD "OFPS_PATCHES"
OFPS_PATCHES "450"
CREATED "Thu May 21 22:26:56 2015"
KEYWORD "COMP_GREY_STEPS"
COMP_GREY_STEPS "41"
KEYWORD "BLACK_COLOR_PATCHES"
BLACK_COLOR_PATCHES "1"
KEYWORD "APPROX_WHITE_POINT"
APPROX_WHITE_POINT "95.045471 100.000000 108.905029"
DESCRIPTOR "Argyll Calibration Target chart information 1"
KEYWORD "MULTI_DIM_STEPS"
MULTI_DIM_STEPS "2"
KEYWORD "ACCURATE_EXPECTED_VALUES"
ACCURATE_EXPECTED_VALUES "true"
KEYWORD "WHITE_COLOR_PATCHES"
WHITE_COLOR_PATCHES "1"
KEYWORD "SINGLE_DIM_STEPS"
SINGLE_DIM_STEPS "24"
KEYWORD "COLOR_REP"
COLOR_REP "RGB"

NUMBER_OF_FIELDS 7
BEGIN_DATA_FORMAT
SAMPLE_ID RGB_R RGB_G RGB_B XYZ_X XYZ_Y XYZ_Z
END_DATA_FORMAT

NUMBER_OF_SETS 755
BEGIN_DATA
1 100.00 100.00 100.00 95.046 100.00 108.91
2 0.0000 0.0000 0.0000 1.0000 1.0000 1.0000
3 2.5000 2.5000 2.5000 1.1821 1.1916 1.2087
4 5.0000 5.0000 5.0000 1.0560 1.1110 1.2099
5 7.5000 7.5000 7.5000 1.5839 1.6665 1.8149
6 10.000 10.000 10.000 2.1317 2.2428 2.4425
7 12.500 12.500 12.500 2.7726 2.9171 3.1769
8 15.000 15.000 15.000 3.5075 3.6903 4.0189
9 17.500 17.500 17.500 4.3387 4.5649 4.9714
10 20.000 20.000 20.000 5.2684 5.5430 6.0366
11 22.500 22.500 22.500 6.2973 6.6256 7.2156
12 25.000 25.000 25.000 7.4284 7.8157 8.5117
13 27.500 27.500 27.500 8.6627 9.1143 9.9259
14 30.000 30.000 30.000 10.002 10.523 11.460
15 32.500 32.500 32.500 11.449 12.046 13.118
16 35.000 35.000 35.000 13.002 13.680 14.898
17 37.500 37.500 37.500 14.666 15.431 16.805
18 40.000 40.000 40.000 16.442 17.299 18.839
19 42.500 42.500 42.500 18.328 19.283 21.000
20 45.000 45.000 45.000 20.328 21.388 23.293
21 47.500 47.500 47.500 22.443 23.613 25.715
22 50.000 50.000 50.000 24.672 25.959 28.270
23 52.500 52.500 52.500 27.020 28.429 30.960
24 55.000 55.000 55.000 29.485 31.022 33.784
25 57.500 57.500 57.500 32.068 33.739 36.744
26 60.000 60.000 60.000 34.771 36.584 39.842
27 62.500 62.500 62.500 37.595 39.555 43.077
28 65.000 65.000 65.000 40.542 42.655 46.453
29 67.500 67.500 67.500 43.610 45.883 49.969
30 70.000 70.000 70.000 46.802 49.242 53.627
31 72.500 72.500 72.500 50.119 52.731 57.427
32 75.000 75.000 75.000 53.560 56.352 61.370
33 77.500 77.500 77.500 57.129 60.107 65.459
34 80.000 80.000 80.000 60.823 63.994 69.693
35 82.500 82.500 82.500 64.646 68.016 74.073
36 85.000 85.000 85.000 68.597 72.173 78.600
37 87.500 87.500 87.500 72.677 76.466 83.275
38 90.000 90.000 90.000 76.888 80.897 88.100
39 92.500 92.500 92.500 81.230 85.464 93.074
40 95.000 95.000 95.000 85.702 90.170 98.199
41 97.500 97.500 97.500 89.843 94.463 102.81
42 5.0000 0.0000 0.0000 0.4582 0.2362 0.0215
43 10.000 0.0000 0.0000 0.9249 0.4769 0.0433
44 15.000 0.0000 0.0000 1.5218 0.7847 0.0713
45 20.000 0.0000 0.0000 2.2858 1.1787 0.1071
46 25.000 0.0000 0.0000 3.2231 1.6620 0.1510
47 30.000 0.0000 0.0000 4.3396 2.2377 0.2034
48 35.000 0.0000 0.0000 5.6414 2.9090 0.2644
49 40.000 0.0000 0.0000 7.1338 3.6785 0.3343
50 45.000 0.0000 0.0000 8.8201 4.5480 0.4133
51 50.000 0.0000 0.0000 10.705 5.5199 0.5017
52 55.000 0.0000 0.0000 12.793 6.5966 0.5995
53 60.000 0.0000 0.0000 15.087 7.7793 0.7070
54 65.000 0.0000 0.0000 17.590 9.0703 0.8243
55 70.000 0.0000 0.0000 20.307 10.471 0.9516
56 75.000 0.0000 0.0000 23.239 11.983 1.0890
57 80.000 0.0000 0.0000 26.390 13.608 1.2367
58 85.000 0.0000 0.0000 29.763 15.347 1.3947
59 90.000 0.0000 0.0000 33.361 17.202 1.5633
60 95.000 0.0000 0.0000 37.185 19.174 1.7425
61 0.0000 5.0000 0.0000 0.3973 0.7946 0.1324
62 0.0000 10.000 0.0000 0.8020 1.6040 0.2673
63 0.0000 15.000 0.0000 1.3196 2.6392 0.4398
64 0.0000 20.000 0.0000 1.9821 3.9642 0.6606
65 0.0000 25.000 0.0000 2.7948 5.5895 0.9315
66 0.0000 30.000 0.0000 3.7629 7.5258 1.2542
67 0.0000 35.000 0.0000 4.8918 9.7835 1.6305
68 0.0000 40.000 0.0000 6.1859 12.372 2.0618
69 0.0000 45.000 0.0000 7.6481 15.296 2.5492
70 0.0000 50.000 0.0000 9.2825 18.565 3.0939
71 0.0000 55.000 0.0000 11.093 22.186 3.6974
72 0.0000 60.000 0.0000 13.082 26.163 4.3603
73 0.0000 65.000 0.0000 15.253 30.506 5.0839
74 0.0000 70.000 0.0000 17.608 35.216 5.8690
75 0.0000 75.000 0.0000 20.151 40.301 6.7164
76 0.0000 80.000 0.0000 22.883 45.766 7.6272
77 0.0000 85.000 0.0000 25.808 51.616 8.6020
78 0.0000 90.000 0.0000 28.928 57.855 9.6417
79 0.0000 95.000 0.0000 32.243 64.486 10.747
80 0.0000 0.0000 5.0000 0.2005 0.0802 1.0560
81 0.0000 0.0000 10.000 0.4048 0.1619 2.1318
82 0.0000 0.0000 15.000 0.6660 0.2664 3.5077
83 0.0000 0.0000 20.000 1.0004 0.4001 5.2688
84 0.0000 0.0000 25.000 1.4106 0.5642 7.4290
85 0.0000 0.0000 30.000 1.8993 0.7597 10.002
86 0.0000 0.0000 35.000 2.4690 0.9876 13.003
87 0.0000 0.0000 40.000 3.1222 1.2488 16.443
88 0.0000 0.0000 45.000 3.8602 1.5440 20.330
89 0.0000 0.0000 50.000 4.6851 1.8739 24.674
90 0.0000 0.0000 55.000 5.5990 2.2395 29.487
91 0.0000 0.0000 60.000 6.6028 2.6410 34.774
92 0.0000 0.0000 65.000 7.6986 3.0792 40.545
93 0.0000 0.0000 70.000 8.8874 3.5547 46.806
94 0.0000 0.0000 75.000 10.171 4.0680 53.564
95 0.0000 0.0000 80.000 11.550 4.6197 60.828
96 0.0000 0.0000 85.000 13.026 5.2101 68.602
97 0.0000 0.0000 90.000 14.601 5.8399 76.894
98 0.0000 0.0000 95.000 16.274 6.5093 85.709
99 5.0000 5.0000 0.0000 0.8554 1.0308 0.1539
100 10.000 10.000 0.0000 1.7269 2.0809 0.3106
101 15.000 15.000 0.0000 2.8414 3.4239 0.5111
102 20.000 20.000 0.0000 4.2679 5.1429 0.7678
103 25.000 25.000 0.0000 6.0179 7.2515 1.0826
104 30.000 30.000 0.0000 8.1025 9.7634 1.4576
105 35.000 35.000 0.0000 10.533 12.693 1.8948
106 40.000 40.000 0.0000 13.320 16.050 2.3961
107 45.000 45.000 0.0000 16.468 19.844 2.9625
108 50.000 50.000 0.0000 19.987 24.085 3.5956
109 55.000 55.000 0.0000 23.886 28.782 4.2969
110 60.000 60.000 0.0000 28.169 33.943 5.0673
111 65.000 65.000 0.0000 32.843 39.576 5.9082
112 70.000 70.000 0.0000 37.915 45.687 6.8206
113 75.000 75.000 0.0000 43.390 52.284 7.8054
114 80.000 80.000 0.0000 49.273 59.374 8.8639
115 85.000 85.000 0.0000 55.571 66.963 9.9967
116 90.000 90.000 0.0000 62.288 75.057 11.205
117 95.000 95.000 0.0000 69.428 83.660 12.489
118 0.0000 5.0000 5.0000 0.5978 0.8748 1.1885
119 0.0000 10.000 10.000 1.2068 1.7659 2.3991
120 0.0000 15.000 15.000 1.9857 2.9056 3.9476
121 0.0000 20.000 20.000 2.9825 4.3643 5.9294
122 0.0000 25.000 25.000 4.2054 6.1537 8.3605
123 0.0000 30.000 30.000 5.6622 8.2854 11.257
124 0.0000 35.000 35.000 7.3608 10.771 14.634
125 0.0000 40.000 40.000 9.3080 13.620 18.505
126 0.0000 45.000 45.000 11.508 16.840 22.879
127 0.0000 50.000 50.000 13.968 20.439 27.768
128 0.0000 55.000 55.000 16.692 24.425 33.184
129 0.0000 60.000 60.000 19.685 28.805 39.134
130 0.0000 65.000 65.000 22.951 33.585 45.629
131 0.0000 70.000 70.000 26.496 38.771 52.675
132 0.0000 75.000 75.000 30.322 44.369 60.281
133 0.0000 80.000 80.000 34.433 50.386 68.455
134 0.0000 85.000 85.000 38.834 56.826 77.204
135 0.0000 90.000 90.000 43.528 63.694 86.536
136 0.0000 95.000 95.000 48.518 70.996 96.456
137 5.0000 0.0000 5.0000 0.6587 0.3165 1.0775
138 10.000 0.0000 10.000 1.3297 0.6388 2.1751
139 15.000 0.0000 15.000 2.1879 1.0511 3.5791
140 20.000 0.0000 20.000 3.2863 1.5788 5.3759
141 25.000 0.0000 25.000 4.6337 2.2262 7.5800
142 30.000 0.0000 30.000 6.2388 2.9973 10.206
143 35.000 0.0000 35.000 8.1105 3.8965 13.268
144 40.000 0.0000 40.000 10.256 4.9273 16.777
145 45.000 0.0000 45.000 12.680 6.0920 20.743
146 50.000 0.0000 50.000 15.390 7.3939 25.176
147 55.000 0.0000 55.000 18.392 8.8360 30.087
148 60.000 0.0000 60.000 21.689 10.420 35.481
149 65.000 0.0000 65.000 25.289 12.149 41.369
150 70.000 0.0000 70.000 29.194 14.026 47.757
151 75.000 0.0000 75.000 33.410 16.051 54.653
152 80.000 0.0000 80.000 37.940 18.227 62.065
153 85.000 0.0000 85.000 42.789 20.557 69.997
154 90.000 0.0000 90.000 47.961 23.042 78.457
155 95.000 0.0000 95.000 53.459 25.683 87.451
156 44.857 44.857 44.857 20.211 21.264 23.158
157 49.219 43.604 43.604 21.265 21.264 22.093
158 53.218 42.313 42.313 22.319 21.264 21.029
159 56.927 40.985 40.985 23.373 21.264 19.966
160 60.400 39.612 39.612 24.426 21.264 18.902
161 63.673 38.191 38.191 25.480 21.264 17.839
162 66.777 36.718 36.718 26.532 21.264 16.776
163 69.733 35.187 35.187 27.585 21.264 15.714
164 72.560 33.587 33.587 28.637 21.264 14.652
165 75.272 31.916 31.916 29.689 21.264 13.590
166 77.882 30.157 30.157 30.740 21.264 12.529
167 80.400 28.299 28.299 31.792 21.264 11.468
168 82.834 26.325 26.325 32.843 21.264 10.407
169 85.192 24.210 24.210 33.893 21.264 9.3465
170 87.479 21.922 21.922 34.943 21.264 8.2864
171 89.702 19.413 19.413 35.993 21.264 7.2266
172 91.865 16.610 16.610 37.043 21.264 6.1671
173 93.974 13.391 13.391 38.092 21.264 5.1080
174 96.029 9.5046 9.5046 39.141 21.264 4.0491
175 98.038 4.7686 4.7686 40.190 21.264 2.9906
176 100.00 0.0000 0.0000 41.238 21.264 1.9325
177 84.611 84.611 84.611 67.974 71.517 77.885
178 80.792 86.081 80.792 65.152 71.517 72.108
179 77.080 87.414 77.080 62.546 71.517 66.771
180 73.459 88.630 73.459 60.130 71.517 61.824
181 69.912 89.744 69.912 57.885 71.517 57.228
182 66.425 90.768 66.425 55.794 71.517 52.945
183 62.982 91.714 62.982 53.841 71.517 48.945
184 59.568 92.589 59.568 52.012 71.517 45.202
185 56.168 93.402 56.168 50.297 71.517 41.690
186 52.765 94.159 52.765 48.685 71.517 38.389
187 49.339 94.865 49.339 47.167 71.517 35.280
188 45.870 95.526 45.870 45.735 71.517 32.348
189 42.329 96.147 42.329 44.382 71.517 29.578
190 38.686 96.730 38.686 43.102 71.517 26.956
191 34.894 97.278 34.894 41.889 71.517 24.471
192 30.889 97.796 30.889 40.737 71.517 22.113
193 26.578 98.286 26.578 39.642 71.517 19.871
194 21.795 98.748 21.795 38.601 71.517 17.739
195 16.225 99.188 16.225 37.609 71.517 15.707
196 9.0236 99.604 9.0236 36.662 71.517 13.769
197 0.0000 100.00 0.0000 35.759 71.517 11.919
198 23.776 23.776 23.776 6.8614 7.2191 7.8619
199 23.631 23.631 25.568 6.9677 7.2191 8.6908
200 23.474 23.474 27.403 7.0836 7.2191 9.5936
201 23.299 23.299 29.290 7.2102 7.2191 10.580
202 23.108 23.108 31.241 7.3492 7.2191 11.664
203 22.893 22.893 33.269 7.5025 7.2191 12.858
204 22.655 22.655 35.388 7.6724 7.2191 14.183
205 22.385 22.385 37.615 7.8617 7.2191 15.658
206 22.082 22.082 39.971 8.0741 7.2191 17.313
207 21.732 21.732 42.478 8.3139 7.2191 19.182
208 21.329 21.329 45.163 8.5869 7.2191 21.310
209 20.860 20.860 48.063 8.9004 7.2191 23.754
210 20.303 20.303 51.219 9.2643 7.2191 26.590
211 19.633 19.633 54.689 9.6917 7.2191 29.921
212 18.811 18.811 58.546 10.201 7.2191 33.889
213 17.770 17.770 62.889 10.818 7.2191 38.695
214 16.416 16.416 67.856 11.580 7.2191 44.638
215 14.568 14.568 73.644 12.547 7.2191 52.174
216 11.851 11.851 80.553 13.813 7.2191 62.043
217 7.2766 7.2766 89.063 15.543 7.2191 75.526
218 0.0000 0.0000 100.00 18.049 7.2191 95.054
219 96.356 96.356 96.356 88.184 92.781 101.04
220 96.634 96.634 92.704 87.347 92.781 94.523
221 96.897 96.897 89.083 86.553 92.781 88.333
222 97.146 97.146 85.486 85.799 92.781 82.451
223 97.382 97.382 81.902 85.080 92.781 76.854
224 97.606 97.606 78.320 84.396 92.781 71.521
225 97.821 97.821 74.729 83.743 92.781 66.434
226 98.024 98.024 71.117 83.120 92.781 61.577
227 98.218 98.218 67.471 82.525 92.781 56.934
228 98.404 98.404 63.772 81.955 92.781 52.491
229 98.581 98.581 60.005 81.409 92.781 48.236
230 98.750 98.750 56.143 80.885 92.781 44.157
231 98.912 98.912 52.159 80.383 92.781 40.244
232 99.068 99.068 48.015 79.901 92.781 36.486
233 99.218 99.218 43.657 79.438 92.781 32.874
234 99.361 99.361 39.013 78.992 92.781 29.401
235 99.499 99.499 33.964 78.563 92.781 26.058
236 99.631 99.631 28.317 78.150 92.781 22.838
237 99.759 99.759 21.682 77.752 92.781 19.734
238 99.881 99.881 13.036 77.367 92.781 16.740
239 100.00 100.00 0.0000 76.997 92.781 13.851
240 88.791 88.791 88.791 74.835 78.736 85.747
241 86.540 89.387 89.387 73.784 78.736 86.808
242 84.224 89.980 89.980 72.734 78.736 87.868
243 81.835 90.569 90.569 71.683 78.736 88.929
244 79.368 91.153 91.153 70.632 78.736 89.990
245 76.814 91.734 91.734 69.581 78.736 91.050
246 74.166 92.310 92.310 68.530 78.736 92.111
247 71.410 92.882 92.882 67.479 78.736 93.172
248 68.534 93.451 93.451 66.428 78.736 94.233
249 65.524 94.016 94.016 65.377 78.736 95.294
250 62.359 94.577 94.577 64.325 78.736 96.356
251 59.014 95.134 95.134 63.274 78.736 97.417
252 55.458 95.689 95.689 62.223 78.736 98.478
253 51.647 96.239 96.239 61.171 78.736 99.540
254 47.524 96.786 96.786 60.119 78.736 100.60
255 43.001 97.330 97.330 59.068 78.736 101.66
256 37.948 97.870 97.870 58.016 78.736 102.72
257 32.139 98.408 98.408 56.964 78.736 103.79
258 25.128 98.941 98.941 55.912 78.736 104.85
259 15.742 99.472 99.472 54.860 78.736 105.91
260 0.0000 100.00 100.00 53.807 78.736 106.97
261 52.554 52.554 52.554 27.072 28.483 31.020
262 54.225 51.873 54.225 27.847 28.483 32.607
263 55.934 51.144 55.934 28.666 28.483 34.284
264 57.685 50.361 57.685 29.532 28.483 36.058
265 59.481 49.517 59.481 30.450 28.483 37.937
266 61.327 48.605 61.327 31.424 28.483 39.931
267 63.228 47.616 63.228 32.460 28.483 42.052
268 65.188 46.541 65.188 33.563 28.483 44.311
269 67.213 45.362 67.213 34.740 28.483 46.722
270 69.311 44.068 69.311 36.000 28.483 49.302
271 71.488 42.636 71.488 37.351 28.483 52.068
272 73.751 41.042 73.751 38.803 28.483 55.042
273 76.110 39.251 76.110 40.369 28.483 58.248
274 78.574 37.220 78.574 42.062 28.483 61.715
275 81.156 34.890 81.156 43.898 28.483 65.474
276 83.868 32.173 83.868 45.896 28.483 69.566
277 86.724 28.935 86.724 48.079 28.483 74.036
278 89.743 24.953 89.743 50.474 28.483 78.940
279 92.945 19.798 92.945 53.112 28.483 84.343
280 96.355 12.357 96.355 56.034 28.483 90.325
281 100.00 0.0000 100.00 59.287 28.483 96.986
282 40.014 25.786 20.317 11.099 9.9635 6.7068
283 75.324 53.324 45.514 37.843 34.593 25.342
284 29.729 42.874 56.966 17.263 18.608 34.043
285 29.370 36.749 19.123 10.451 13.186 6.9022
286 45.878 45.225 65.633 24.698 23.284 44.310
287 30.467 71.586 63.893 30.296 42.064 45.565
288 86.504 43.440 12.117 38.502 30.443 6.5044
289 20.525 29.989 63.105 13.408 11.655 39.664
290 75.217 26.193 32.376 28.543 18.938 13.474
291 30.976 16.581 35.901 8.6732 6.4200 14.309
292 58.214 71.178 18.499 33.326 44.081 11.428
293 89.196 59.446 9.2210 45.989 42.749 7.7700
294 7.7021 18.704 53.282 7.7766 6.0657 28.411
295 20.128 54.049 23.036 14.282 23.155 10.217
296 67.276 12.896 16.166 20.622 12.158 5.1263
297 92.643 75.270 3.0853 55.771 58.867 9.0726
298 72.946 27.032 54.748 30.727 19.906 31.320
299 0.0000 48.676 62.903 14.518 19.761 40.936
300 95.568 95.693 94.577 86.481 91.294 97.612
301 76.096 76.909 76.998 55.793 58.956 64.583
302 59.061 59.970 60.149 34.343 36.341 39.981
303 42.165 42.383 42.534 18.187 19.160 21.010
304 26.405 27.083 27.768 8.3684 8.8404 10.026
305 12.892 13.165 13.693 2.9545 3.1078 3.5418
306 0.0000 28.442 13.021 3.9984 7.1102 4.0663
307 21.288 32.757 18.901 7.7964 10.393 6.4204
308 37.020 60.041 29.668 21.184 30.151 14.476
309 37.439 70.906 44.459 28.176 40.892 26.203
310 42.397 74.204 62.342 34.755 46.391 44.365
311 44.276 85.730 75.825 45.207 61.074 63.880
312 100.00 26.691 0.0000 44.343 27.473 2.9673
313 100.00 46.682 0.0000 49.417 37.621 4.6586
314 39.635 100.00 100.00 60.825 82.355 107.30
315 0.0000 49.754 41.255 12.497 19.715 20.442
316 48.250 55.179 45.792 25.168 29.083 25.177
317 69.704 78.906 56.446 48.289 57.275 39.333
318 76.448 65.557 0.0000 39.635 43.453 6.2991
319 79.827 100.00 0.0000 62.036 85.067 13.150
320 0.0000 15.814 100.00 19.466 10.054 95.526
321 0.0000 59.258 100.00 30.824 32.769 99.312
322 0.0000 71.948 100.00 36.624 44.371 101.25
323 31.739 76.815 100.00 43.941 51.921 102.32
324 60.341 0.0000 38.193 18.127 9.0143 15.864
325 61.500 0.0000 53.692 21.166 10.295 28.924
326 69.228 20.526 55.686 27.664 16.660 31.801
327 0.0000 78.628 43.034 25.674 45.653 26.119
328 0.0000 100.00 48.069 40.115 73.259 34.861
329 100.00 100.00 71.914 86.364 96.528 63.185
330 35.559 24.093 0.0000 8.4351 8.2620 1.1503
331 40.155 38.281 22.044 14.064 15.611 8.3465
332 31.009 34.628 73.687 19.214 15.900 53.556
333 32.524 64.230 100.00 37.928 39.596 100.25
334 0.0000 85.208 100.00 43.982 59.086 103.70
335 30.901 89.425 100.00 51.168 66.688 104.79
336 0.0000 24.956 27.272 4.4097 6.2227 9.4758
337 0.0000 33.997 26.830 6.2330 9.9375 9.8735
338 34.145 8.4317 9.2401 6.4453 4.2726 2.4311
339 0.0000 9.4810 12.874 1.3024 1.7308 3.1286
340 0.0000 17.043 77.317 12.370 7.4638 57.391
341 31.453 20.989 100.00 24.878 13.903 95.984
342 33.398 39.044 100.00 29.178 21.753 97.272
343 37.430 53.139 100.00 34.789 31.286 98.817
344 78.361 70.574 100.00 61.271 56.062 102.20
345 25.657 15.531 16.076 5.4740 4.7908 4.4722
346 28.646 15.404 37.333 8.1506 5.9134 15.198
347 71.233 36.795 51.970 31.381 23.521 29.278
348 73.350 61.782 57.119 42.094 41.545 37.322
349 82.209 75.274 56.716 54.081 57.326 39.317
350 50.102 0.0000 10.812 11.188 5.7180 2.8335
351 74.076 0.0000 15.403 23.371 11.971 4.6987
352 100.00 0.0000 47.535 45.506 22.971 24.407
353 100.00 25.380 67.303 52.336 30.283 46.254
354 39.378 0.0000 40.904 10.187 4.8768 17.437
355 38.608 0.0000 100.00 24.747 10.673 95.368
356 56.572 18.552 100.00 33.314 17.725 96.277
357 59.151 39.839 100.00 38.872 27.072 97.789
358 59.869 58.177 100.00 45.408 39.637 99.869
359 20.250 0.0000 31.488 4.3888 2.0247 10.961
360 78.431 0.0000 34.198 27.750 14.035 13.683
361 100.00 29.816 36.725 47.648 29.788 17.315
362 100.00 53.172 41.724 55.016 43.431 23.135
363 100.00 50.548 54.355 56.187 42.399 33.929
364 100.00 64.567 71.331 65.516 55.067 55.508
365 100.00 72.759 86.947 73.853 64.690 80.031
366 37.882 8.0964 20.418 8.1518 5.0366 5.9515
367 48.711 34.224 34.638 17.331 15.642 14.819
368 66.446 33.046 29.610 24.643 19.070 12.124
369 86.610 33.037 35.148 37.813 25.785 16.023
370 30.875 32.225 0.0000 8.7996 10.839 1.6285
371 28.915 44.547 0.0000 11.591 17.122 2.6940
372 29.869 78.671 0.0000 26.447 46.498 7.5810
373 0.0000 66.859 59.038 22.509 34.775 39.088
374 0.0000 75.001 81.901 32.251 45.142 70.440
375 0.0000 100.00 83.355 48.288 76.528 77.907
376 52.190 100.00 83.549 59.941 82.530 78.756
377 100.00 0.0000 18.269 42.115 21.615 6.5471
378 100.00 0.0000 32.608 43.425 22.139 13.447
379 0.0000 45.934 22.133 9.1060 16.346 8.7866
380 0.0000 61.962 40.005 17.034 29.072 21.083
381 29.060 63.263 48.824 23.077 32.871 28.630
382 32.097 100.00 0.0000 40.622 74.024 12.147
383 57.943 100.00 0.0000 49.877 78.796 12.581
384 78.597 100.00 28.943 63.032 85.373 22.537
385 0.0000 62.103 21.556 15.092 28.393 10.554
386 76.838 67.857 74.814 51.068 49.766 59.971
387 23.947 25.832 33.889 8.2908 8.3763 13.422
388 46.910 25.744 36.536 15.107 11.829 15.435
389 46.708 40.162 48.761 20.145 19.119 26.075
390 55.445 86.906 100.00 58.011 67.864 104.65
391 64.769 100.00 100.00 71.277 87.744 107.79
392 0.0000 34.129 100.00 22.732 16.586 96.615
393 0.0000 48.139 100.00 26.702 24.526 97.938
394 0.0000 9.2141 23.557 2.0174 1.9802 7.0073
395 0.0000 18.654 29.490 3.6349 4.3164 10.317
396 0.0000 20.186 45.165 5.8954 5.5731 21.136
397 34.108 35.469 45.955 14.413 14.399 23.045
398 0.0000 80.089 24.911 24.336 46.428 15.031
399 0.0000 100.00 28.192 37.472 72.202 20.943
400 0.0000 100.00 66.275 43.752 74.714 54.014
401 33.786 100.00 66.805 49.184 77.500 54.916
402 86.693 100.00 81.975 78.835 92.327 77.207
403 100.00 100.00 88.320 91.057 98.405 87.901
404 0.0000 15.658 58.804 7.7529 5.3386 33.933
405 0.0000 45.538 63.880 15.261 18.609 41.814
406 0.0000 49.510 80.111 20.696 22.861 64.034
407 40.918 73.870 85.690 40.226 48.244 76.584
408 58.854 73.711 100.00 52.068 53.672 102.23
409 0.0000 31.239 46.446 8.1172 9.6908 22.881
410 0.0000 56.680 61.785 18.724 26.274 40.691
411 0.0000 81.749 61.010 30.701 50.495 43.862
412 0.0000 84.779 78.785 36.881 55.831 67.574
413 77.608 90.415 100.00 72.099 78.425 105.95
414 86.376 100.00 100.00 84.537 94.581 108.41
415 40.341 13.322 0.0000 8.3726 5.9949 0.7161
416 75.564 34.028 13.406 28.818 21.710 5.6867
417 60.428 20.728 0.0000 17.384 12.068 1.4137
418 78.357 37.529 0.0000 30.856 24.112 3.0287
419 82.851 83.503 0.0000 53.198 64.409 9.6291
420 100.00 85.650 25.005 68.853 74.234 18.098
421 100.00 100.00 29.266 78.820 93.510 23.450
422 100.00 100.00 51.373 81.924 94.752 39.800
423 11.793 0.0000 7.7835 1.4326 0.7026 1.6969
424 29.510 0.0000 76.765 14.869 6.4355 56.269
425 73.619 0.0000 100.00 40.455 18.773 96.104
426 78.469 27.970 100.00 46.801 27.018 97.361
427 100.00 49.349 100.00 68.347 46.603 100.01
428 100.00 64.397 0.0000 56.220 51.226 6.9260
429 100.00 81.362 0.0000 64.899 68.586 9.8190
430 20.749 91.132 20.999 33.152 60.997 15.668
431 38.645 100.00 48.763 46.942 76.766 35.791
432 62.914 100.00 66.364 60.292 83.240 54.896
433 72.878 100.00 87.208 71.435 88.328 85.149
434 34.813 26.810 81.530 20.708 13.933 64.458
435 69.983 49.634 85.250 42.556 34.021 73.009
436 100.00 71.120 100.00 77.448 64.806 103.04
437 12.240 7.4538 0.0000 1.7646 1.7891 0.2524
438 20.669 17.623 0.0000 4.0496 4.5355 0.6621
439 89.047 51.903 29.077 44.411 37.462 14.343
440 100.00 71.548 63.174 66.901 60.929 46.437
441 100.00 83.945 86.363 79.859 76.991 81.136
442 100.00 87.456 100.00 86.602 83.114 106.09
443 0.0000 14.814 10.551 1.7279 2.7676 2.6981
444 0.0000 34.574 81.361 16.731 14.355 64.490
445 50.533 0.0000 63.983 18.386 8.6167 39.843
446 77.518 0.0000 75.881 35.205 16.950 55.969
447 100.00 0.0000 79.652 52.689 25.844 62.240
448 100.00 31.832 83.794 58.057 34.644 70.000
449 100.00 43.925 67.583 56.859 39.223 48.090
450 100.00 54.733 83.710 64.866 48.301 72.145
451 9.5598 0.0000 13.972 1.4868 0.6965 3.2360
452 22.554 0.0000 18.849 3.6591 1.7808 4.9564
453 39.938 0.0000 26.379 8.6514 4.2832 8.4302
454 48.233 22.482 58.009 18.574 12.374 33.870
455 78.166 35.910 77.157 41.078 27.530 59.523
456 79.483 0.0000 54.089 31.479 15.604 29.796
457 100.00 0.0000 63.049 48.498 24.168 40.167
458 100.00 28.329 100.00 62.709 35.327 98.127
459 21.972 38.963 30.056 10.443 13.927 12.125
460 32.304 41.282 57.879 17.627 18.090 34.885
461 37.802 55.154 69.863 26.459 29.172 50.647
462 53.505 68.383 77.752 39.891 44.282 63.677
463 33.239 20.544 12.941 7.7740 7.0068 3.8251
464 50.702 25.054 22.007 14.946 11.736 7.5365
465 100.00 23.591 20.408 44.820 26.777 8.2128
466 100.00 55.748 21.974 53.770 44.483 11.798
467 43.834 62.508 0.0000 22.557 32.631 5.1097
468 62.565 79.255 39.160 41.815 54.559 24.087
469 61.365 100.00 38.650 54.446 80.813 28.128
470 81.172 100.00 58.256 69.162 88.019 46.067
471 36.301 54.212 15.166 17.483 24.962 7.4410
472 65.122 57.594 32.997 31.987 34.199 16.611
473 100.00 69.013 43.832 62.047 56.993 27.023
474 100.00 83.039 61.748 72.852 73.329 46.881
475 46.129 42.433 0.0000 16.104 18.510 2.7243
476 65.016 47.714 24.116 27.444 26.634 10.680
477 71.632 74.460 43.013 44.663 52.108 26.348
478 12.591 52.863 21.120 12.597 21.655 9.2062
479 24.730 79.118 72.413 35.051 50.206 57.617
480 41.401 82.308 83.726 44.437 57.386 74.999
481 51.448 92.813 89.472 56.487 73.129 86.781
482 22.561 19.617 10.870 5.1147 5.4447 3.1151
483 49.479 26.665 10.121 14.009 11.777 3.6857
484 51.047 38.500 12.224 17.418 17.502 5.1457
485 60.924 65.284 84.165 43.687 43.881 73.124
486 72.760 75.203 88.713 56.342 57.481 82.489
487 5.5798 14.511 14.423 2.4063 3.0421 3.7749
488 10.667 21.724 25.991 4.7411 5.6036 8.7001
489 17.010 52.246 39.738 14.968 22.314 19.694
490 39.081 83.259 43.929 35.307 54.542 28.035
491 22.854 76.675 16.992 24.634 43.849 11.309
492 39.980 100.00 26.282 44.415 75.803 20.302
493 13.508 26.004 78.723 15.492 11.112 59.980
494 20.835 39.633 90.220 23.187 19.291 79.413
495 17.576 50.508 91.567 26.467 25.938 82.843
496 14.524 39.327 76.592 18.059 16.994 57.891
