DisplayCAL/ref/verify_xxl.ti1
CTI1   

ORIGINATOR "Argyll targen"
KEYWORD "OFPS_PATCHES"
OFPS_PATCHES "450"
CREATED "Thu May 21 22:44:38 2015"
KEYWORD "COMP_GREY_STEPS"
COMP_GREY_STEPS "41"
KEYWORD "BLACK_COLOR_PATCHES"
BLACK_COLOR_PATCHES "1"
KEYWORD "APPROX_WHITE_POINT"
APPROX_WHITE_POINT "95.106486 100.000000 108.844025"
DESCRIPTOR "Argyll Calibration Target chart information 1"
KEYWORD "MULTI_DIM_STEPS"
MULTI_DIM_STEPS "2"
KEYWORD "WHITE_COLOR_PATCHES"
WHITE_COLOR_PATCHES "1"
KEYWORD "SINGLE_DIM_STEPS"
SINGLE_DIM_STEPS "21"
KEYWORD "COLOR_REP"
COLOR_REP "RGB"

NUMBER_OF_FIELDS 7
BEGIN_DATA_FORMAT
SAMPLE_ID RGB_R RGB_G RGB_B XYZ_X XYZ_Y XYZ_Z
END_DATA_FORMAT

NUMBER_OF_SETS 739
BEGIN_DATA
1 100.00 100.00 100.00 95.106 100.00 108.84
2 0.0000 0.0000 0.0000 1.0000 1.0000 1.0000
3 2.5000 2.5000 2.5000 1.1821 1.1916 1.2087
4 5.0000 5.0000 5.0000 1.3704 1.3897 1.4245
5 7.5000 7.5000 7.5000 1.6184 1.6506 1.7087
6 10.000 10.000 10.000 1.9432 1.9923 2.0809
7 12.500 12.500 12.500 2.3504 2.4206 2.5476
8 15.000 15.000 15.000 2.8451 2.9411 3.1145
9 17.500 17.500 17.500 3.4320 3.5585 3.7870
10 20.000 20.000 20.000 4.1154 4.2774 4.5701
11 22.500 22.500 22.500 4.8994 5.1021 5.4686
12 25.000 25.000 25.000 5.7878 6.0367 6.4867
13 27.500 27.500 27.500 6.7843 7.0850 7.6286
14 30.000 30.000 30.000 7.8923 8.2507 8.8984
15 32.500 32.500 32.500 9.1151 9.5371 10.300
16 35.000 35.000 35.000 10.456 10.948 11.836
17 37.500 37.500 37.500 11.918 12.486 13.512
18 40.000 40.000 40.000 13.504 14.154 15.329
19 42.500 42.500 42.500 15.216 15.956 17.292
20 45.000 45.000 45.000 17.059 17.894 19.403
21 47.500 47.500 47.500 19.033 19.971 21.666
22 50.000 50.000 50.000 21.143 22.190 24.083
23 52.500 52.500 52.500 23.389 24.554 26.658
24 55.000 55.000 55.000 25.776 27.064 29.392
25 57.500 57.500 57.500 28.304 29.724 32.290
26 60.000 60.000 60.000 30.977 32.536 35.353
27 62.500 62.500 62.500 33.797 35.502 38.585
28 65.000 65.000 65.000 36.766 38.626 41.987
29 67.500 67.500 67.500 39.886 41.908 45.562
30 70.000 70.000 70.000 43.159 45.351 49.313
31 72.500 72.500 72.500 46.587 48.958 53.242
32 75.000 75.000 75.000 50.173 52.730 57.351
33 77.500 77.500 77.500 53.918 56.669 61.643
34 80.000 80.000 80.000 57.824 60.779 66.119
35 82.500 82.500 82.500 61.894 65.060 70.783
36 85.000 85.000 85.000 66.128 69.515 75.636
37 87.500 87.500 87.500 70.530 74.146 80.680
38 90.000 90.000 90.000 75.101 78.954 85.918
39 92.500 92.500 92.500 79.842 83.942 91.351
40 95.000 95.000 95.000 84.755 89.111 96.982
41 97.500 97.500 97.500 89.843 94.463 102.81
42 5.0000 0.0000 0.0000 1.1607 1.0829 1.0075
43 10.000 0.0000 0.0000 1.4092 1.2110 1.0192
44 15.000 0.0000 0.0000 1.8005 1.4128 1.0375
45 20.000 0.0000 0.0000 2.3517 1.6969 1.0633
46 25.000 0.0000 0.0000 3.0773 2.0711 1.0973
47 30.000 0.0000 0.0000 3.9904 2.5418 1.1401
48 35.000 0.0000 0.0000 5.1027 3.1154 1.1922
49 40.000 0.0000 0.0000 6.4250 3.7972 1.2542
50 45.000 0.0000 0.0000 7.9675 4.5924 1.3265
51 50.000 0.0000 0.0000 9.7393 5.5060 1.4095
52 55.000 0.0000 0.0000 11.749 6.5425 1.5037
53 60.000 0.0000 0.0000 14.006 7.7061 1.6095
54 65.000 0.0000 0.0000 16.518 9.0010 1.7271
55 70.000 0.0000 0.0000 19.291 10.431 1.8571
56 75.000 0.0000 0.0000 22.335 12.000 1.9997
57 80.000 0.0000 0.0000 25.654 13.712 2.1553
58 85.000 0.0000 0.0000 29.257 15.570 2.3241
59 90.000 0.0000 0.0000 33.150 17.577 2.5065
60 95.000 0.0000 0.0000 37.339 19.737 2.7028
61 100.00 0.0000 0.0000 41.830 22.052 2.9132
62 0.0000 5.0000 0.0000 1.1394 1.2787 1.0465
63 0.0000 10.000 0.0000 1.3549 1.7096 1.1183
64 0.0000 15.000 0.0000 1.6942 2.3882 1.2314
65 0.0000 20.000 0.0000 2.1721 3.3438 1.3907
66 0.0000 25.000 0.0000 2.8013 4.6021 1.6004
67 0.0000 30.000 0.0000 3.5930 6.1854 1.8644
68 0.0000 35.000 0.0000 4.5576 8.1141 2.1859
69 0.0000 40.000 0.0000 5.7042 10.407 2.5681
70 0.0000 45.000 0.0000 7.0417 13.082 3.0139
71 0.0000 50.000 0.0000 8.5782 16.154 3.5261
72 0.0000 55.000 0.0000 10.321 19.640 4.1071
73 0.0000 60.000 0.0000 12.278 23.553 4.7594
74 0.0000 65.000 0.0000 14.456 27.908 5.4854
75 0.0000 70.000 0.0000 16.861 32.718 6.2871
76 0.0000 75.000 0.0000 19.500 37.995 7.1667
77 0.0000 80.000 0.0000 22.379 43.751 8.1263
78 0.0000 85.000 0.0000 25.503 49.999 9.1677
79 0.0000 90.000 0.0000 28.878 56.749 10.293
80 0.0000 95.000 0.0000 32.511 64.013 11.504
81 0.0000 100.00 0.0000 36.405 71.801 12.802
82 0.0000 0.0000 5.0000 1.0703 1.0281 1.3705
83 0.0000 0.0000 10.000 1.1791 1.0716 1.9434
84 0.0000 0.0000 15.000 1.3504 1.1401 2.8456
85 0.0000 0.0000 20.000 1.5916 1.2366 4.1161
86 0.0000 0.0000 25.000 1.9092 1.3636 5.7889
87 0.0000 0.0000 30.000 2.3089 1.5235 7.8939
88 0.0000 0.0000 35.000 2.7957 1.7182 10.458
89 0.0000 0.0000 40.000 3.3745 1.9497 13.507
90 0.0000 0.0000 45.000 4.0496 2.2197 17.063
91 0.0000 0.0000 50.000 4.8252 2.5298 21.147
92 0.0000 0.0000 55.000 5.7050 2.8817 25.782
93 0.0000 0.0000 60.000 6.6928 3.2768 30.984
94 0.0000 0.0000 65.000 7.7920 3.7164 36.774
95 0.0000 0.0000 70.000 9.0060 4.2019 43.169
96 0.0000 0.0000 75.000 10.338 4.7346 50.184
97 0.0000 0.0000 80.000 11.791 5.3157 57.838
98 0.0000 0.0000 85.000 13.368 5.9464 66.144
99 0.0000 0.0000 90.000 15.072 6.6279 75.118
100 0.0000 0.0000 95.000 16.905 7.3611 84.775
101 0.0000 0.0000 100.00 18.871 8.1473 95.129
102 0.0000 5.0000 5.0000 1.2097 1.3068 1.4169
103 0.0000 10.000 10.000 1.5340 1.7813 2.0617
104 0.0000 15.000 15.000 2.0446 2.5283 3.0769
105 0.0000 20.000 20.000 2.7637 3.5804 4.5068
106 0.0000 25.000 25.000 3.7105 4.9657 6.3893
107 0.0000 30.000 30.000 4.9019 6.7088 8.7583
108 0.0000 35.000 35.000 6.3533 8.8323 11.644
109 0.0000 40.000 40.000 8.0787 11.357 15.075
110 0.0000 45.000 45.000 10.091 14.301 19.077
111 0.0000 50.000 50.000 12.403 17.684 23.674
112 0.0000 55.000 55.000 15.026 21.522 28.889
113 0.0000 60.000 60.000 17.971 25.830 34.744
114 0.0000 65.000 65.000 21.248 30.625 41.260
115 0.0000 70.000 70.000 24.867 35.920 48.456
116 0.0000 75.000 75.000 28.838 41.729 56.351
117 0.0000 80.000 80.000 33.170 48.067 64.964
118 0.0000 85.000 85.000 37.871 54.945 74.312
119 0.0000 90.000 90.000 42.950 62.377 84.411
120 0.0000 95.000 95.000 48.416 70.374 95.279
121 0.0000 100.00 100.00 54.276 78.948 106.93
122 5.0000 0.0000 5.0000 1.2310 1.1110 1.3780
123 10.000 0.0000 10.000 1.5884 1.2826 1.9626
124 15.000 0.0000 15.000 2.1509 1.5529 2.8831
125 20.000 0.0000 20.000 2.9433 1.9335 4.1795
126 25.000 0.0000 25.000 3.9865 2.4347 5.8863
127 30.000 0.0000 30.000 5.2992 3.0653 8.0340
128 35.000 0.0000 35.000 6.8984 3.8335 10.650
129 40.000 0.0000 40.000 8.7995 4.7468 13.761
130 45.000 0.0000 45.000 11.017 5.8121 17.389
131 50.000 0.0000 50.000 13.564 7.0358 21.557
132 55.000 0.0000 55.000 16.454 8.4242 26.285
133 60.000 0.0000 60.000 19.699 9.9829 31.594
134 65.000 0.0000 65.000 23.310 11.717 37.501
135 70.000 0.0000 70.000 27.297 13.633 44.026
136 75.000 0.0000 75.000 31.673 15.735 51.184
137 80.000 0.0000 80.000 36.445 18.028 58.993
138 85.000 0.0000 85.000 41.625 20.516 67.468
139 90.000 0.0000 90.000 47.222 23.205 76.625
140 95.000 0.0000 95.000 53.244 26.098 86.478
141 100.00 0.0000 100.00 59.701 29.199 97.042
142 5.0000 5.0000 0.0000 1.3001 1.3615 1.0540
143 10.000 10.000 0.0000 1.7641 1.9206 1.1375
144 15.000 15.000 0.0000 2.4947 2.8009 1.2689
145 20.000 20.000 0.0000 3.5238 4.0408 1.4540
146 25.000 25.000 0.0000 4.8786 5.6731 1.6978
147 30.000 30.000 0.0000 6.5834 7.7272 2.0045
148 35.000 35.000 0.0000 8.6602 10.229 2.3781
149 40.000 40.000 0.0000 11.129 13.204 2.8223
150 45.000 45.000 0.0000 14.009 16.674 3.3404
151 50.000 50.000 0.0000 17.318 20.660 3.9356
152 55.000 55.000 0.0000 21.071 25.182 4.6108
153 60.000 60.000 0.0000 25.285 30.259 5.3689
154 65.000 65.000 0.0000 29.974 35.909 6.2125
155 70.000 70.000 0.0000 35.153 42.149 7.1442
156 75.000 75.000 0.0000 40.835 48.995 8.1664
157 80.000 80.000 0.0000 47.033 56.463 9.2815
158 85.000 85.000 0.0000 53.760 64.569 10.492
159 90.000 90.000 0.0000 61.029 73.326 11.799
160 95.000 95.000 0.0000 68.850 82.749 13.206
161 100.00 100.00 0.0000 77.235 92.853 14.715
162 100.00 5.0000 5.0000 42.040 22.359 3.3302
163 100.00 10.000 10.000 42.364 22.833 3.9750
164 100.00 15.000 15.000 42.875 23.580 4.9902
165 100.00 20.000 20.000 43.594 24.633 6.4200
166 100.00 25.000 25.000 44.541 26.018 8.3026
167 100.00 30.000 30.000 45.732 27.761 10.671
168 100.00 35.000 35.000 47.183 29.884 13.557
169 100.00 40.000 40.000 48.909 32.409 16.988
170 100.00 45.000 45.000 50.922 35.354 20.990
171 100.00 50.000 50.000 53.233 38.736 25.587
172 100.00 55.000 55.000 55.856 42.574 30.802
173 100.00 60.000 60.000 58.801 46.882 36.657
174 100.00 65.000 65.000 62.078 51.677 43.173
175 100.00 70.000 70.000 65.697 56.972 50.369
176 100.00 75.000 75.000 69.668 62.782 58.264
177 100.00 80.000 80.000 74.000 69.119 66.877
178 100.00 85.000 85.000 78.701 75.998 76.225
179 100.00 90.000 90.000 83.781 83.429 86.324
180 100.00 95.000 95.000 89.246 91.426 97.192
181 5.0000 100.00 5.0000 36.636 71.912 13.180
182 10.000 100.00 10.000 36.994 72.083 13.764
183 15.000 100.00 15.000 37.556 72.353 14.685
184 20.000 100.00 20.000 38.349 72.734 15.981
185 25.000 100.00 25.000 39.392 73.235 17.688
186 30.000 100.00 30.000 40.704 73.866 19.836
187 35.000 100.00 35.000 42.304 74.634 22.452
188 40.000 100.00 40.000 44.205 75.547 25.563
189 45.000 100.00 45.000 46.422 76.613 29.191
190 50.000 100.00 50.000 48.970 77.836 33.359
191 55.000 100.00 55.000 51.860 79.225 38.087
192 60.000 100.00 60.000 55.104 80.783 43.396
193 65.000 100.00 65.000 58.715 82.518 49.303
194 70.000 100.00 70.000 62.703 84.434 55.828
195 75.000 100.00 75.000 67.078 86.535 62.986
196 80.000 100.00 80.000 71.851 88.828 70.795
197 85.000 100.00 85.000 77.031 91.317 79.270
198 90.000 100.00 90.000 82.627 94.005 88.427
199 95.000 100.00 95.000 88.650 96.898 98.280
200 5.0000 5.0000 100.00 19.171 8.5088 95.183
201 10.000 10.000 100.00 19.635 9.0679 95.266
202 15.000 15.000 100.00 20.366 9.9482 95.398
203 20.000 20.000 100.00 21.395 11.188 95.583
204 25.000 25.000 100.00 22.750 12.820 95.827
205 30.000 30.000 100.00 24.455 14.875 96.133
206 35.000 35.000 100.00 26.531 17.377 96.507
207 40.000 40.000 100.00 29.000 20.352 96.951
208 45.000 45.000 100.00 31.880 23.822 97.469
209 50.000 50.000 100.00 35.189 27.808 98.065
210 55.000 55.000 100.00 38.942 32.330 98.740
211 60.000 60.000 100.00 43.156 37.407 99.498
212 65.000 65.000 100.00 47.845 43.057 100.34
213 70.000 70.000 100.00 53.024 49.296 101.27
214 75.000 75.000 100.00 58.706 56.142 102.30
215 80.000 80.000 100.00 64.904 63.610 103.41
216 85.000 85.000 100.00 71.631 71.716 104.62
217 90.000 90.000 100.00 78.900 80.473 105.93
218 95.000 95.000 100.00 86.721 89.897 107.34
219 5.0000 100.00 100.00 54.437 79.031 106.94
220 10.000 100.00 100.00 54.686 79.159 106.95
221 15.000 100.00 100.00 55.077 79.361 106.97
222 20.000 100.00 100.00 55.628 79.645 106.99
223 25.000 100.00 100.00 56.354 80.019 107.03
224 30.000 100.00 100.00 57.267 80.490 107.07
225 35.000 100.00 100.00 58.379 81.063 107.12
226 40.000 100.00 100.00 59.701 81.745 107.19
227 45.000 100.00 100.00 61.244 82.540 107.26
228 50.000 100.00 100.00 63.016 83.454 107.34
229 55.000 100.00 100.00 65.026 84.490 107.43
230 60.000 100.00 100.00 67.283 85.654 107.54
231 65.000 100.00 100.00 69.794 86.949 107.66
232 70.000 100.00 100.00 72.568 88.379 107.79
233 75.000 100.00 100.00 75.611 89.948 107.93
234 80.000 100.00 100.00 78.931 91.660 108.09
235 85.000 100.00 100.00 82.534 93.517 108.25
236 90.000 100.00 100.00 86.426 95.525 108.44
237 95.000 100.00 100.00 90.615 97.684 108.63
238 100.00 5.0000 100.00 59.841 29.478 97.089
239 100.00 10.000 100.00 60.056 29.909 97.160
240 100.00 15.000 100.00 60.395 30.588 97.274
241 100.00 20.000 100.00 60.873 31.543 97.433
242 100.00 25.000 100.00 61.503 32.802 97.643
243 100.00 30.000 100.00 62.294 34.385 97.907
244 100.00 35.000 100.00 63.259 36.314 98.228
245 100.00 40.000 100.00 64.406 38.607 98.610
246 100.00 45.000 100.00 65.743 41.281 99.056
247 100.00 50.000 100.00 67.279 44.354 99.568
248 100.00 55.000 100.00 69.023 47.839 100.15
249 100.00 60.000 100.00 70.979 51.753 100.80
250 100.00 65.000 100.00 73.157 56.108 101.53
251 100.00 70.000 100.00 75.562 60.917 102.33
252 100.00 75.000 100.00 78.201 66.194 103.21
253 100.00 80.000 100.00 81.080 71.951 104.17
254 100.00 85.000 100.00 84.204 78.198 105.21
255 100.00 90.000 100.00 87.580 84.949 106.34
256 100.00 95.000 100.00 91.212 92.212 107.55
257 100.00 100.00 5.0000 77.306 92.881 15.086
258 100.00 100.00 10.000 77.414 92.924 15.659
259 100.00 100.00 15.000 77.586 92.993 16.561
260 100.00 100.00 20.000 77.827 93.089 17.831
261 100.00 100.00 25.000 78.145 93.216 19.504
262 100.00 100.00 30.000 78.544 93.376 21.609
263 100.00 100.00 35.000 79.031 93.571 24.173
264 100.00 100.00 40.000 79.610 93.802 27.222
265 100.00 100.00 45.000 80.285 94.072 30.778
266 100.00 100.00 50.000 81.061 94.383 34.863
267 100.00 100.00 55.000 81.940 94.734 39.497
268 100.00 100.00 60.000 82.928 95.129 44.700
269 100.00 100.00 65.000 84.027 95.569 50.489
270 100.00 100.00 70.000 85.241 96.055 56.884
271 100.00 100.00 75.000 86.573 96.587 63.899
272 100.00 100.00 80.000 88.026 97.168 71.553
273 100.00 100.00 85.000 89.603 97.799 79.859
274 100.00 100.00 90.000 91.307 98.481 88.833
275 100.00 100.00 95.000 93.141 99.214 98.490
276 66.667 100.00 100.00 70.689 87.410 107.70
277 100.00 66.667 100.00 73.933 57.660 101.79
278 100.00 100.00 66.667 84.419 95.726 52.553
279 66.667 33.333 33.333 22.253 16.543 11.392
280 33.333 66.667 33.333 20.565 32.022 14.469
281 33.333 33.333 66.667 15.109 12.217 40.084
282 33.333 66.667 66.667 26.125 34.246 43.756
283 66.667 33.333 66.667 27.813 18.767 40.679
284 66.667 66.667 33.333 33.268 38.572 15.064
285 100.00 0.0000 66.667 49.014 24.925 40.751
286 66.667 100.00 0.0000 52.818 80.263 13.571
287 0.0000 66.667 100.00 33.103 36.608 99.873
288 0.0000 100.00 66.667 43.589 74.674 50.640
289 66.667 0.0000 100.00 35.284 16.610 95.898
290 100.00 66.667 0.0000 56.062 50.512 7.6573
291 71.927 27.545 62.631 28.872 17.887 35.596
292 81.256 29.242 77.744 39.115 23.136 56.322
293 65.537 0.0000 58.719 22.232 11.319 30.337
294 100.00 36.146 69.745 53.575 32.835 46.009
295 100.00 83.472 0.0000 65.352 69.090 10.754
296 100.00 100.00 26.420 78.249 93.258 20.057
297 44.429 52.005 10.173 16.216 21.071 5.0373
298 48.892 73.471 74.768 36.268 44.332 56.125
299 0.0000 82.897 62.543 30.397 49.806 41.575
300 0.0000 100.00 81.898 47.780 76.350 72.715
301 20.572 100.00 81.979 49.231 77.095 72.915
302 57.329 100.00 0.0000 48.175 77.869 13.353
303 88.378 100.00 13.132 67.539 87.821 15.715
304 36.215 20.711 100.00 24.527 12.922 95.753
305 12.372 60.785 89.151 26.955 30.013 77.442
306 20.764 67.568 100.00 34.984 38.216 100.08
307 0.0000 35.899 46.609 8.0379 9.8139 19.568
308 11.768 47.710 54.033 12.906 16.780 27.149
309 0.0000 39.279 31.752 6.9967 10.641 10.248
310 0.0000 68.739 32.801 17.803 32.090 14.350
311 0.0000 100.00 63.495 42.854 74.380 46.770
312 17.727 100.00 63.184 43.865 74.909 46.455
313 20.236 0.0000 32.943 3.9665 2.3462 9.4106
314 33.235 14.229 77.682 15.422 8.2071 54.593
315 58.657 30.280 100.00 33.889 19.812 96.590
316 69.123 69.605 100.00 52.319 48.639 101.18
317 0.0000 18.646 33.766 3.6955 3.7230 10.124
318 0.0000 18.614 51.743 6.1448 4.6974 23.041
319 18.000 0.0000 53.861 6.6062 3.3706 24.729
320 47.181 0.0000 61.455 14.713 7.3762 32.970
321 75.352 14.620 66.829 30.445 16.332 40.274
322 100.00 16.941 66.757 49.898 26.659 41.152
323 100.00 31.352 0.0000 44.666 27.724 3.8587
324 100.00 40.280 29.357 47.857 32.100 11.103
325 100.00 40.176 14.601 46.913 31.681 6.2564
326 100.00 50.006 48.059 52.922 38.615 23.938
327 100.00 71.781 67.791 66.060 58.577 47.773
328 20.380 0.0000 100.00 20.272 8.8694 95.195
329 38.603 0.0000 100.00 23.905 10.743 95.365
330 60.916 0.0000 100.00 32.318 15.081 95.759
331 76.837 14.619 100.00 42.056 21.087 96.406
332 81.302 29.527 100.00 46.947 26.350 97.164
333 0.0000 83.924 41.043 27.317 49.615 22.143
334 0.0000 100.00 44.831 39.430 73.010 28.735
335 18.291 100.00 100.00 55.421 79.538 106.98
336 33.455 52.752 32.406 14.780 20.560 12.081
337 33.794 81.765 100.00 45.140 55.015 102.79
338 66.122 85.684 100.00 59.938 66.350 104.20
339 0.0000 21.077 18.238 2.7927 3.7877 4.0557
340 0.0000 53.411 39.802 12.094 19.426 16.292
341 0.0000 68.092 51.663 20.022 32.470 27.599
342 0.0000 68.789 100.00 34.128 38.657 100.22
343 48.069 72.420 100.00 44.007 46.499 101.21
344 76.288 53.989 72.713 40.829 33.814 50.919
345 100.00 53.343 80.717 61.560 43.893 63.809
346 84.376 100.00 67.961 71.694 89.128 53.591
347 87.493 100.00 85.570 79.123 92.373 80.347
348 70.884 41.794 22.934 25.740 21.328 7.6488
349 78.052 51.937 40.910 35.047 30.479 17.951
350 58.520 64.092 29.412 27.613 33.935 12.548
351 61.175 100.00 38.802 52.206 79.690 25.169
352 68.101 100.00 60.478 59.405 82.989 44.120
353 16.411 55.292 0.0000 11.369 20.341 4.1872
354 17.348 78.049 0.0000 22.265 41.983 7.7909
355 37.822 100.00 67.650 48.648 77.255 52.114
356 61.053 100.00 73.564 58.862 82.345 60.541
357 0.0000 16.300 100.00 19.676 9.7562 95.397
358 100.00 33.075 100.00 62.867 35.529 98.097
359 100.00 50.547 100.00 67.460 44.715 99.628
360 100.00 67.590 100.00 74.374 58.541 101.93
361 100.00 48.663 0.0000 48.978 36.345 5.2957
362 100.00 65.469 0.0000 55.502 49.392 7.4706
363 65.887 81.272 0.0000 39.141 53.539 9.1327
364 86.288 88.807 0.0000 57.282 70.164 11.386
365 100.00 89.424 16.062 69.703 77.156 14.156
366 0.0000 100.00 23.003 37.178 72.110 16.872
367 16.766 100.00 39.801 39.731 73.243 25.224
368 82.067 100.00 100.00 80.386 92.410 108.15
369 100.00 0.0000 39.691 44.166 22.986 15.217
370 100.00 15.019 49.641 46.292 24.950 22.981
371 76.691 100.00 0.0000 58.831 83.364 13.853
372 77.483 100.00 29.160 60.589 84.127 20.386
373 18.050 20.660 100.00 21.234 11.215 95.597
374 25.646 36.356 100.00 24.906 16.973 96.515
375 45.015 41.797 100.00 31.006 22.066 97.177
376 26.799 0.0000 67.342 10.730 5.1670 39.805
377 48.480 9.6228 74.916 18.825 9.6098 50.556
378 65.766 31.351 75.228 29.163 18.643 52.211
379 67.220 65.742 0.0000 31.515 37.212 6.3828
380 67.158 65.606 19.237 31.967 37.288 9.2573
381 26.232 13.691 49.379 7.6000 4.8516 20.915
382 33.187 25.415 70.465 14.661 9.8655 44.587
383 61.992 47.188 75.928 31.264 25.421 54.440
384 76.558 18.887 0.0000 24.392 14.624 2.3978
385 83.175 34.691 0.0000 31.402 21.859 3.4252
386 50.418 10.702 26.695 11.328 6.7912 7.0011
387 53.933 52.447 37.260 21.751 23.936 15.059
388 65.715 87.175 37.583 44.921 61.903 21.363
389 89.798 100.00 37.658 70.484 89.130 25.318
390 100.00 100.00 52.231 81.440 94.534 36.861
391 0.0000 80.621 19.850 23.337 44.734 11.323
392 23.819 82.914 23.591 26.870 48.631 13.087
393 23.728 60.198 26.549 15.260 25.094 10.268
394 30.954 68.276 42.379 21.876 33.724 20.285
395 0.0000 24.373 85.798 15.345 9.4787 68.102
396 0.0000 34.965 100.00 22.421 15.246 96.312
397 0.0000 52.979 100.00 27.462 25.328 97.993
398 77.646 0.0000 37.419 26.121 13.714 12.951
399 82.785 0.0000 56.233 32.564 16.703 28.259
400 82.061 0.0000 78.615 37.482 18.610 56.877
401 100.00 16.465 100.00 60.520 30.838 97.315
402 81.865 0.0000 21.005 27.614 14.647 5.6356
403 100.00 0.0000 20.492 42.450 22.300 6.1755
404 100.00 34.431 54.084 49.805 30.743 27.951
405 57.936 0.0000 39.370 15.340 8.1284 13.659
406 74.351 12.408 40.865 24.910 13.786 15.233
407 70.873 9.7543 52.387 24.377 13.070 24.285
408 100.00 0.0000 61.950 47.938 24.495 35.084
409 100.00 0.0000 82.245 53.314 26.645 63.398
410 100.00 17.334 83.498 54.611 28.602 65.793
411 19.330 100.00 0.0000 37.673 72.454 12.861
412 32.011 100.00 21.012 40.468 73.820 16.383
413 39.235 100.00 35.996 43.517 75.248 23.072
414 100.00 16.770 0.0000 42.677 23.746 3.1955
415 100.00 19.902 15.963 43.383 24.531 5.3609
416 50.583 62.381 0.0000 22.248 30.192 5.5157
417 0.0000 41.117 17.439 6.4450 11.154 5.0792
418 32.981 74.850 18.578 23.562 39.906 10.024
419 45.773 75.255 44.723 29.877 43.206 23.404
420 65.919 75.099 52.518 39.817 48.059 30.346
421 23.265 74.137 33.794 22.503 38.649 15.890
422 36.725 89.253 77.294 42.882 62.041 62.947
423 43.692 100.00 84.002 54.991 79.990 76.541
424 8.2093 60.327 58.503 18.104 26.135 33.185
425 0.0000 66.316 68.863 22.787 32.217 46.350
426 0.0000 80.983 81.857 34.336 49.485 68.170
427 33.282 83.921 0.0000 28.505 50.514 9.1091
428 38.064 100.00 0.0000 41.293 74.320 13.031
429 49.168 100.00 20.093 45.430 76.385 16.340
430 63.860 0.0000 80.566 26.886 13.079 59.444
431 81.526 0.0000 100.00 44.595 21.410 96.334
432 83.465 62.057 100.00 58.139 46.421 100.45
433 19.815 0.0000 81.975 13.727 6.2438 61.102
434 42.564 0.0000 81.821 18.539 8.7302 61.077
435 17.193 29.067 0.0000 4.4542 6.3911 1.8587
436 25.928 43.368 0.0000 8.8158 13.316 2.9658
437 90.854 51.646 9.6674 42.144 34.258 6.1443
438 100.00 60.091 36.058 55.056 45.445 16.747
439 100.00 71.543 50.151 62.330 56.888 28.742
440 68.781 25.059 21.248 21.064 13.954 5.9224
441 74.981 36.847 50.875 30.253 21.500 24.238
442 78.603 50.746 87.267 45.648 34.116 73.848
443 0.0000 33.651 64.856 11.039 10.262 37.693
444 31.889 48.070 72.178 19.919 20.095 48.626
445 36.553 58.333 100.00 33.963 31.663 98.873
446 0.0000 43.268 79.785 17.282 16.401 59.347
447 0.0000 85.382 100.00 43.623 57.644 103.38
448 17.663 84.823 100.00 44.332 57.470 103.31
449 38.400 100.00 100.00 59.255 81.515 107.16
450 59.624 100.00 100.00 67.104 85.562 107.53
451 42.298 0.0000 23.879 7.9370 4.4806 5.6633
452 44.066 26.185 38.714 11.853 9.2686 13.646
453 57.369 57.849 100.00 41.068 35.041 99.151
454 100.00 84.326 100.00 83.769 77.328 105.06
455 90.126 8.5464 18.913 34.065 18.402 5.4114
456 100.00 28.625 37.587 46.272 27.602 14.673
457 24.830 15.732 0.0000 3.8048 3.5669 1.3478
458 38.973 24.723 0.0000 7.8981 7.1722 1.8281
459 60.231 30.532 0.0000 16.804 13.137 2.5104
460 65.547 47.113 0.0000 23.475 22.482 3.9629
461 90.818 66.934 32.163 49.682 47.236 15.269
462 100.00 78.216 31.122 63.564 63.258 17.116
463 100.00 88.877 42.432 71.619 77.317 26.118
464 83.193 72.320 0.0000 44.979 48.989 7.9470
465 84.145 75.522 24.804 48.306 53.173 13.273
466 51.449 75.728 27.220 30.277 44.026 13.405
467 59.037 75.407 40.486 34.713 45.891 20.660
468 58.558 75.600 83.071 43.907 49.714 69.717
469 45.891 20.792 67.044 16.802 10.178 40.075
470 51.435 33.136 70.366 21.568 15.383 45.155
471 19.253 12.555 71.775 11.236 6.0580 45.817
472 24.844 11.177 91.805 18.194 8.7903 78.763
473 11.453 6.4725 63.117 8.0630 4.1889 34.611
474 19.845 23.804 66.014 10.997 7.7701 38.630
475 44.260 10.316 54.323 12.677 7.0439 25.561
476 50.249 28.952 56.375 17.213 12.366 28.373
477 78.544 31.830 15.508 27.956 19.197 5.0410
478 91.347 31.694 25.619 38.103 24.324 8.5503
479 54.932 12.168 13.684 12.505 7.6186 3.2382
480 57.565 13.237 38.221 15.593 9.1050 13.108
481 68.741 24.506 48.861 23.940 14.977 21.570
482 80.818 37.771 88.031 43.780 27.698 74.075
483 85.716 44.757 100.00 53.640 34.938 98.469
484 60.695 10.928 71.878 23.240 12.090 46.491
485 37.227 0.0000 44.371 8.6242 4.5888 16.805
486 37.346 0.2415 65.405 12.589 6.1887 37.492
487 89.650 8.3102 65.652 40.081 20.746 39.156
488 92.524 25.951 73.356 46.053 26.079 50.058
489 56.503 7.5768 50.985 16.628 8.9464 22.629
490 59.286 18.838 60.496 20.514 11.946 32.476
491 67.862 39.939 88.113 36.176 24.544 74.015
492 80.314 70.551 89.096 55.767 51.602 79.991
493 91.733 75.076 94.012 68.643 61.598 90.566
494 98.780 8.1407 10.941 41.173 22.077 4.0343
495 91.001 31.438 6.8178 36.921 23.742 4.0390
496 100.00 58.721 19.714 53.163 43.793 9.5318
497 53.985 22.985 80.188 23.698 13.717 59.131
498 68.258 57.895 91.314 43.264 36.586 81.877
