misc/ti3/low_contrast.ti3
CTI3   

DESCRIPTOR "Argyll Calibration Target chart information 3"
ORIGINATOR "Argyll dispread"
CREATED "Sat Mar 14 19:00:55 2009"
KEYWORD "DEVICE_CLASS"
DEVICE_CLASS "DISPLAY"
KEYWORD "APPROX_WHITE_POINT"
APPROX_WHITE_POINT "95.106486 100.000000 108.844025"
KEYWORD "COLOR_REP"
COLOR_REP "RGB_XYZ"
KEYWORD "COMP_GREY_STEPS"
COMP_GREY_STEPS "9"
KEYWORD "SINGLE_DIM_STEPS"
SINGLE_DIM_STEPS "3"
KEYWORD "WHITE_COLOR_PATCHES"
WHITE_COLOR_PATCHES "4"

NUMBER_OF_FIELDS 7
BEGIN_DATA_FORMAT
SAMPLE_ID RGB_R RGB_G RGB_B XYZ_X XYZ_Y XYZ_Z
END_DATA_FORMAT

NUMBER_OF_SETS 54
BEGIN_DATA
1 100.000 100.000 100.000 95.0460 100.000 108.910
2 100.000 100.000 100.000 95.0460 100.000 108.910
3 100.000 100.000 100.000 95.0460 100.000 108.910
4 100.000 100.000 100.000 95.0460 100.000 108.910
5 0.00000 0.00000 0.00000 0.00000 0.00000 0.00000
6 12.5000 12.5000 12.5000 1.36400 1.43510 1.56290
7 25.0000 25.0000 25.0000 4.83600 5.08810 5.54130
8 37.5000 37.5000 37.5000 11.0270 11.6020 12.6350
9 50.0000 50.0000 50.0000 20.3440 21.4050 23.3110
10 62.5000 62.5000 62.5000 33.1240 34.8510 37.9550
11 75.0000 75.0000 75.0000 49.6640 52.2530 56.9060
12 87.5000 87.5000 87.5000 70.2240 73.8850 80.4650
13 0.00000 0.00000 50.0000 4.82515 2.52982 21.1475
14 0.00000 0.00000 100.000 18.8711 8.14731 95.1290
15 0.00000 50.0000 0.00000 8.57817 16.1542 3.52608
16 0.00000 50.0000 50.0000 12.4033 17.6840 23.6735
17 0.00000 50.0000 100.000 26.4493 23.3015 97.6550
18 0.00000 100.000 0.00000 36.4052 71.8005 12.8018
19 0.00000 100.000 50.0000 40.2304 73.3303 32.9493
20 0.00000 100.000 100.000 54.2763 78.9478 106.931
21 25.0000 25.0000 75.0000 14.2166 9.40773 50.8822
22 25.0000 75.0000 25.0000 22.4865 39.4295 12.0530
23 25.0000 75.0000 75.0000 30.9153 42.8005 56.4485
24 50.0000 0.00000 0.00000 9.73934 5.50603 1.40951
25 50.0000 0.00000 50.0000 13.5645 7.03585 21.5570
26 50.0000 0.00000 100.000 27.6104 12.6533 95.5385
27 50.0000 50.0000 0.00000 17.3175 20.6603 3.93559
28 50.0000 50.0000 100.000 35.1886 27.8076 98.0645
29 50.0000 100.000 0.00000 45.1445 76.3065 13.2113
30 50.0000 100.000 50.0000 48.9697 77.8364 33.3588
31 50.0000 100.000 100.000 63.0157 83.4539 107.340
32 75.0000 25.0000 25.0000 25.0451 15.9659 7.38905
33 75.0000 25.0000 75.0000 33.4740 19.3369 51.7845
34 75.0000 75.0000 25.0000 41.7438 49.3586 12.9553
35 100.000 0.00000 0.00000 41.8302 22.0522 2.91323
36 100.000 0.00000 50.0000 45.6553 23.5820 23.0607
37 100.000 0.00000 100.000 59.7013 29.1995 97.0422
38 100.000 50.0000 0.00000 49.4083 37.2064 5.43931
39 100.000 50.0000 50.0000 53.2335 38.7362 25.5868
40 100.000 50.0000 100.000 67.2794 44.3537 99.5683
41 100.000 100.000 0.00000 77.2354 92.8527 14.7151
42 100.000 100.000 50.0000 81.0605 94.3825 34.8625
43 0.00000 12.5000 100.000 19.3792 9.16329 95.2983
44 12.5000 0.00000 100.000 19.4570 8.44941 95.1564
45 0.00000 100.000 12.5000 36.6617 71.9031 14.1526
46 12.5000 100.000 0.00000 36.9911 72.1026 12.8293
47 100.000 0.00000 12.5000 42.0866 22.1547 4.26397
48 100.000 12.5000 0.00000 42.3382 23.0681 3.08259
49 0.00000 25.0000 100.000 20.6724 11.7494 95.7294
50 25.0000 0.00000 100.000 20.9484 9.21837 95.2263
51 0.00000 100.000 25.0000 37.3144 72.1641 17.5907
52 25.0000 100.000 0.00000 38.4825 72.8716 12.8992
53 100.000 0.00000 25.0000 42.7394 22.4158 7.70214
54 100.000 25.0000 0.00000 43.6314 25.6542 3.51366
END_DATA
CAL    

DESCRIPTOR "Argyll Device Calibration State"
ORIGINATOR "Argyll dispcal"
CREATED "Sat Mar 14 19:07:36 2009"
KEYWORD "DEVICE_CLASS"
DEVICE_CLASS "DISPLAY"
KEYWORD "COLOR_REP"
COLOR_REP "RGB"

KEYWORD "RGB_I"
NUMBER_OF_FIELDS 4
BEGIN_DATA_FORMAT
RGB_I RGB_R RGB_G RGB_B
END_DATA_FORMAT

NUMBER_OF_SETS 256
BEGIN_DATA
0.00000 0.20000 0.20000 0.20000
0.00392 0.20235 0.20235 0.20235
0.00784 0.20471 0.20471 0.20471
0.01176 0.20706 0.20706 0.20706
0.01569 0.20941 0.20941 0.20941
0.01961 0.21176 0.21176 0.21176
0.02353 0.21412 0.21412 0.21412
0.02745 0.21647 0.21647 0.21647
0.03137 0.21882 0.21882 0.21882
0.03529 0.22118 0.22118 0.22118
0.03922 0.22353 0.22353 0.22353
0.04314 0.22588 0.22588 0.22588
0.04706 0.22824 0.22824 0.22824
0.05098 0.23059 0.23059 0.23059
0.05490 0.23294 0.23294 0.23294
0.05882 0.23529 0.23529 0.23529
0.06275 0.23765 0.23765 0.23765
0.06667 0.24000 0.24000 0.24000
0.07059 0.24235 0.24235 0.24235
0.07451 0.24471 0.24471 0.24471
0.07843 0.24706 0.24706 0.24706
0.08235 0.24941 0.24941 0.24941
0.08627 0.25176 0.25176 0.25176
0.09020 0.25412 0.25412 0.25412
0.09412 0.25647 0.25647 0.25647
0.09804 0.25882 0.25882 0.25882
0.10196 0.26118 0.26118 0.26118
0.10588 0.26353 0.26353 0.26353
0.10980 0.26588 0.26588 0.26588
0.11373 0.26824 0.26824 0.26824
0.11765 0.27059 0.27059 0.27059
0.12157 0.27294 0.27294 0.27294
0.12549 0.27529 0.27529 0.27529
0.12941 0.27765 0.27765 0.27765
0.13333 0.28000 0.28000 0.28000
0.13725 0.28235 0.28235 0.28235
0.14118 0.28471 0.28471 0.28471
0.14510 0.28706 0.28706 0.28706
0.14902 0.28941 0.28941 0.28941
0.15294 0.29176 0.29176 0.29176
0.15686 0.29412 0.29412 0.29412
0.16078 0.29647 0.29647 0.29647
0.16471 0.29882 0.29882 0.29882
0.16863 0.30118 0.30118 0.30118
0.17255 0.30353 0.30353 0.30353
0.17647 0.30588 0.30588 0.30588
0.18039 0.30824 0.30824 0.30824
0.18431 0.31059 0.31059 0.31059
0.18824 0.31294 0.31294 0.31294
0.19216 0.31529 0.31529 0.31529
0.19608 0.31765 0.31765 0.31765
0.20000 0.32000 0.32000 0.32000
0.20392 0.32235 0.32235 0.32235
0.20784 0.32471 0.32471 0.32471
0.21176 0.32706 0.32706 0.32706
0.21569 0.32941 0.32941 0.32941
0.21961 0.33176 0.33176 0.33176
0.22353 0.33412 0.33412 0.33412
0.22745 0.33647 0.33647 0.33647
0.23137 0.33882 0.33882 0.33882
0.23529 0.34118 0.34118 0.34118
0.23922 0.34353 0.34353 0.34353
0.24314 0.34588 0.34588 0.34588
0.24706 0.34824 0.34824 0.34824
0.25098 0.35059 0.35059 0.35059
0.25490 0.35294 0.35294 0.35294
0.25882 0.35529 0.35529 0.35529
0.26275 0.35765 0.35765 0.35765
0.26667 0.36000 0.36000 0.36000
0.27059 0.36235 0.36235 0.36235
0.27451 0.36471 0.36471 0.36471
0.27843 0.36706 0.36706 0.36706
0.28235 0.36941 0.36941 0.36941
0.28627 0.37176 0.37176 0.37176
0.29020 0.37412 0.37412 0.37412
0.29412 0.37647 0.37647 0.37647
0.29804 0.37882 0.37882 0.37882
0.30196 0.38118 0.38118 0.38118
0.30588 0.38353 0.38353 0.38353
0.30980 0.38588 0.38588 0.38588
0.31373 0.38824 0.38824 0.38824
0.31765 0.39059 0.39059 0.39059
0.32157 0.39294 0.39294 0.39294
0.32549 0.39529 0.39529 0.39529
0.32941 0.39765 0.39765 0.39765
0.33333 0.40000 0.40000 0.40000
0.33725 0.40235 0.40235 0.40235
0.34118 0.40471 0.40471 0.40471
0.34510 0.40706 0.40706 0.40706
0.34902 0.40941 0.40941 0.40941
0.35294 0.41176 0.41176 0.41176
0.35686 0.41412 0.41412 0.41412
0.36078 0.41647 0.41647 0.41647
0.36471 0.41882 0.41882 0.41882
0.36863 0.42118 0.42118 0.42118
0.37255 0.42353 0.42353 0.42353
0.37647 0.42588 0.42588 0.42588
0.38039 0.42824 0.42824 0.42824
0.38431 0.43059 0.43059 0.43059
0.38824 0.43294 0.43294 0.43294
0.39216 0.43529 0.43529 0.43529
0.39608 0.43765 0.43765 0.43765
0.40000 0.44000 0.44000 0.44000
0.40392 0.44235 0.44235 0.44235
0.40784 0.44471 0.44471 0.44471
0.41176 0.44706 0.44706 0.44706
0.41569 0.44941 0.44941 0.44941
0.41961 0.45176 0.45176 0.45176
0.42353 0.45412 0.45412 0.45412
0.42745 0.45647 0.45647 0.45647
0.43137 0.45882 0.45882 0.45882
0.43529 0.46118 0.46118 0.46118
0.43922 0.46353 0.46353 0.46353
0.44314 0.46588 0.46588 0.46588
0.44706 0.46824 0.46824 0.46824
0.45098 0.47059 0.47059 0.47059
0.45490 0.47294 0.47294 0.47294
0.45882 0.47529 0.47529 0.47529
0.46275 0.47765 0.47765 0.47765
0.46667 0.48000 0.48000 0.48000
0.47059 0.48235 0.48235 0.48235
0.47451 0.48471 0.48471 0.48471
0.47843 0.48706 0.48706 0.48706
0.48235 0.48941 0.48941 0.48941
0.48627 0.49176 0.49176 0.49176
0.49020 0.49412 0.49412 0.49412
0.49412 0.49647 0.49647 0.49647
0.49804 0.49882 0.49882 0.49882
0.50196 0.50118 0.50118 0.50118
0.50588 0.50353 0.50353 0.50353
0.50980 0.50588 0.50588 0.50588
0.51373 0.50824 0.50824 0.50824
0.51765 0.51059 0.51059 0.51059
0.52157 0.51294 0.51294 0.51294
0.52549 0.51529 0.51529 0.51529
0.52941 0.51765 0.51765 0.51765
0.53333 0.52000 0.52000 0.52000
0.53725 0.52235 0.52235 0.52235
0.54118 0.52471 0.52471 0.52471
0.54510 0.52706 0.52706 0.52706
0.54902 0.52941 0.52941 0.52941
0.55294 0.53176 0.53176 0.53176
0.55686 0.53412 0.53412 0.53412
0.56078 0.53647 0.53647 0.53647
0.56471 0.53882 0.53882 0.53882
0.56863 0.54118 0.54118 0.54118
0.57255 0.54353 0.54353 0.54353
0.57647 0.54588 0.54588 0.54588
0.58039 0.54824 0.54824 0.54824
0.58431 0.55059 0.55059 0.55059
0.58824 0.55294 0.55294 0.55294
0.59216 0.55529 0.55529 0.55529
0.59608 0.55765 0.55765 0.55765
0.60000 0.56000 0.56000 0.56000
0.60392 0.56235 0.56235 0.56235
0.60784 0.56471 0.56471 0.56471
0.61176 0.56706 0.56706 0.56706
0.61569 0.56941 0.56941 0.56941
0.61961 0.57176 0.57176 0.57176
0.62353 0.57412 0.57412 0.57412
0.62745 0.57647 0.57647 0.57647
0.63137 0.57882 0.57882 0.57882
0.63529 0.58118 0.58118 0.58118
0.63922 0.58353 0.58353 0.58353
0.64314 0.58588 0.58588 0.58588
0.64706 0.58824 0.58824 0.58824
0.65098 0.59059 0.59059 0.59059
0.65490 0.59294 0.59294 0.59294
0.65882 0.59529 0.59529 0.59529
0.66275 0.59765 0.59765 0.59765
0.66667 0.60000 0.60000 0.60000
0.67059 0.60235 0.60235 0.60235
0.67451 0.60471 0.60471 0.60471
0.67843 0.60706 0.60706 0.60706
0.68235 0.60941 0.60941 0.60941
0.68627 0.61176 0.61176 0.61176
0.69020 0.61412 0.61412 0.61412
0.69412 0.61647 0.61647 0.61647
0.69804 0.61882 0.61882 0.61882
0.70196 0.62118 0.62118 0.62118
0.70588 0.62353 0.62353 0.62353
0.70980 0.62588 0.62588 0.62588
0.71373 0.62824 0.62824 0.62824
0.71765 0.63059 0.63059 0.63059
0.72157 0.63294 0.63294 0.63294
0.72549 0.63529 0.63529 0.63529
0.72941 0.63765 0.63765 0.63765
0.73333 0.64000 0.64000 0.64000
0.73725 0.64235 0.64235 0.64235
0.74118 0.64471 0.64471 0.64471
0.74510 0.64706 0.64706 0.64706
0.74902 0.64941 0.64941 0.64941
0.75294 0.65176 0.65176 0.65176
0.75686 0.65412 0.65412 0.65412
0.76078 0.65647 0.65647 0.65647
0.76471 0.65882 0.65882 0.65882
0.76863 0.66118 0.66118 0.66118
0.77255 0.66353 0.66353 0.66353
0.77647 0.66588 0.66588 0.66588
0.78039 0.66824 0.66824 0.66824
0.78431 0.67059 0.67059 0.67059
0.78824 0.67294 0.67294 0.67294
0.79216 0.67529 0.67529 0.67529
0.79608 0.67765 0.67765 0.67765
0.80000 0.68000 0.68000 0.68000
0.80392 0.68235 0.68235 0.68235
0.80784 0.68471 0.68471 0.68471
0.81176 0.68706 0.68706 0.68706
0.81569 0.68941 0.68941 0.68941
0.81961 0.69176 0.69176 0.69176
0.82353 0.69412 0.69412 0.69412
0.82745 0.69647 0.69647 0.69647
0.83137 0.69882 0.69882 0.69882
0.83529 0.70118 0.70118 0.70118
0.83922 0.70353 0.70353 0.70353
0.84314 0.70588 0.70588 0.70588
0.84706 0.70824 0.70824 0.70824
0.85098 0.71059 0.71059 0.71059
0.85490 0.71294 0.71294 0.71294
0.85882 0.71529 0.71529 0.71529
0.86275 0.71765 0.71765 0.71765
0.86667 0.72000 0.72000 0.72000
0.87059 0.72235 0.72235 0.72235
0.87451 0.72471 0.72471 0.72471
0.87843 0.72706 0.72706 0.72706
0.88235 0.72941 0.72941 0.72941
0.88627 0.73176 0.73176 0.73176
0.89020 0.73412 0.73412 0.73412
0.89412 0.73647 0.73647 0.73647
0.89804 0.73882 0.73882 0.73882
0.90196 0.74118 0.74118 0.74118
0.90588 0.74353 0.74353 0.74353
0.90980 0.74588 0.74588 0.74588
0.91373 0.74824 0.74824 0.74824
0.91765 0.75059 0.75059 0.75059
0.92157 0.75294 0.75294 0.75294
0.92549 0.75529 0.75529 0.75529
0.92941 0.75765 0.75765 0.75765
0.93333 0.76000 0.76000 0.76000
0.93725 0.76235 0.76235 0.76235
0.94118 0.76471 0.76471 0.76471
0.94510 0.76706 0.76706 0.76706
0.94902 0.76941 0.76941 0.76941
0.95294 0.77176 0.77176 0.77176
0.95686 0.77412 0.77412 0.77412
0.96078 0.77647 0.77647 0.77647
0.96471 0.77882 0.77882 0.77882
0.96863 0.78118 0.78118 0.78118
0.97255 0.78353 0.78353 0.78353
0.97647 0.78588 0.78588 0.78588
0.98039 0.78824 0.78824 0.78824
0.98431 0.79059 0.79059 0.79059
0.98824 0.79294 0.79294 0.79294
0.99216 0.79529 0.79529 0.79529
0.99608 0.79765 0.79765 0.79765
1.00000 0.80000 0.80000 0.80000
END_DATA
