misc/ti3/prepress.ti3
CTI3   

DESCRIPTOR "Argyll Calibration Target chart information 3"
ORIGINATOR "Argyll dispread"
CREATED "Tue Feb 23 08:46:43 2010"
KEYWORD "DEVICE_CLASS"
DEVICE_CLASS "DISPLAY"
KEYWORD "APPROX_WHITE_POINT"
APPROX_WHITE_POINT "95.106486 100.000000 108.844025"
KEYWORD "COLOR_REP"
COLOR_REP "RGB_XYZ"
KEYWORD "COMP_GREY_STEPS"
COMP_GREY_STEPS "25"
KEYWORD "ERROR_OPTIMISED_PATCHES"
ERROR_OPTIMISED_PATCHES "0"
KEYWORD "MULTI_DIM_STEPS"
MULTI_DIM_STEPS "0"
KEYWORD "SINGLE_DIM_STEPS"
SINGLE_DIM_STEPS "0"
KEYWORD "WHITE_COLOR_PATCHES"
WHITE_COLOR_PATCHES "4"

NUMBER_OF_FIELDS 7
BEGIN_DATA_FORMAT
SAMPLE_ID RGB_R RGB_G RGB_B XYZ_X XYZ_Y XYZ_Z
END_DATA_FORMAT

NUMBER_OF_SETS 238
BEGIN_DATA
1 100.000 100.000 100.000 95.1060 100.000 108.840
2 100.000 100.000 100.000 95.1060 100.000 108.840
3 100.000 100.000 100.000 95.1060 100.000 108.840
4 100.000 100.000 100.000 95.1060 100.000 108.840
5 0.00000 0.00000 0.00000 1.00000 1.00000 1.00000
6 2.08330 2.08330 2.08330 1.15170 1.15960 1.17390
7 4.16670 4.16670 4.16670 1.30370 1.31950 1.34810
8 6.25000 6.25000 6.25000 1.48520 1.51040 1.55600
9 8.33330 8.33330 8.33330 1.71790 1.75520 1.82260
10 10.4170 10.4170 10.4170 2.00520 2.05750 2.15200
11 12.5000 12.5000 12.5000 2.35040 2.42060 2.54750
12 14.5830 14.5830 14.5830 2.75640 2.84770 3.01280
13 16.6670 16.6670 16.6670 3.22580 3.34160 3.55080
14 18.7500 18.7500 18.7500 3.76140 3.90490 4.16450
15 20.8330 20.8330 20.8330 4.36530 4.54030 4.85660
16 22.9170 22.9170 22.9170 5.04010 5.25020 5.62980
17 25.0000 25.0000 25.0000 5.78780 6.03670 6.48670
18 27.0830 27.0830 27.0830 6.61050 6.90230 7.42950
19 29.1670 29.1670 29.1670 7.51030 7.84890 8.46070
20 31.2500 31.2500 31.2500 8.48910 8.87860 9.58240
21 33.3330 33.3330 33.3330 9.54880 9.99330 10.7970
22 35.4170 35.4170 35.4170 10.6910 11.1950 12.1060
23 37.5000 37.5000 37.5000 11.9180 12.4860 13.5120
24 39.5830 39.5830 39.5830 13.2310 13.8670 15.0160
25 41.6670 41.6670 41.6670 14.6310 15.3400 16.6210
26 43.7500 43.7500 43.7500 16.1210 16.9080 18.3290
27 45.8330 45.8330 45.8330 17.7020 18.5710 20.1400
28 47.9170 47.9170 47.9170 19.3750 20.3310 22.0580
29 50.0000 50.0000 50.0000 21.1430 22.1900 24.0830
30 52.0830 52.0830 52.0830 23.0050 24.1490 26.2180
31 54.1670 54.1670 54.1670 24.9650 26.2110 28.4630
32 56.2500 56.2500 56.2500 27.0220 28.3750 30.8210
33 58.3330 58.3330 58.3330 29.1790 30.6440 33.2930
34 60.4170 60.4170 60.4170 31.4370 33.0200 35.8800
35 62.5000 62.5000 62.5000 33.7970 35.5030 38.5850
36 64.5830 64.5830 64.5830 36.2610 38.0940 41.4080
37 66.6670 66.6670 66.6670 38.8290 40.7960 44.3510
38 68.7500 68.7500 68.7500 41.5030 43.6090 47.4150
39 70.8330 70.8330 70.8330 44.2840 46.5350 50.6030
40 72.9170 72.9170 72.9170 47.1740 49.5750 53.9140
41 75.0000 75.0000 75.0000 50.1730 52.7300 57.3510
42 77.0830 77.0830 77.0830 53.2820 56.0010 60.9150
43 79.1670 79.1670 79.1670 56.5040 59.3900 64.6060
44 81.2500 81.2500 81.2500 59.8380 62.8980 68.4270
45 83.3330 83.3330 83.3330 63.2870 66.5260 72.3790
46 85.4170 85.4170 85.4170 66.8500 70.2750 76.4630
47 87.5000 87.5000 87.5000 70.5300 74.1460 80.6800
48 89.5830 89.5830 89.5830 74.3270 78.1400 85.0310
49 91.6670 91.6670 91.6670 78.2420 82.2590 89.5180
50 93.7500 93.7500 93.7500 82.2770 86.5030 94.1420
51 95.8330 95.8330 95.8330 86.4320 90.8740 98.9030
52 97.9170 97.9170 97.9170 90.7080 95.3730 103.800
53 0.00000 0.00000 25.0000 1.90921 1.36363 5.78891
54 12.5000 12.5000 37.5000 4.16730 3.14728 12.1173
55 0.00000 0.00000 50.0000 4.82515 2.52982 21.1475
56 12.5000 12.5000 62.5000 8.32223 4.80899 34.0017
57 0.00000 0.00000 75.0000 10.3380 4.73463 50.1844
58 12.5000 12.5000 87.5000 15.2979 7.59883 70.7435
59 0.00000 0.00000 100.000 18.8711 8.14731 95.1290
60 0.00000 25.0000 0.00000 2.80128 4.60205 1.60043
61 12.5000 37.5000 12.5000 5.94993 9.61866 3.74740
62 0.00000 25.0000 25.0000 3.71049 4.96568 6.38934
63 12.5000 37.5000 37.5000 7.76682 10.3453 13.3171
64 0.00000 25.0000 50.0000 6.62643 6.13187 21.7479
65 12.5000 37.5000 62.5000 11.9217 12.0070 35.2016
66 0.00000 25.0000 75.0000 12.1393 8.33668 50.7848
67 12.5000 37.5000 87.5000 18.8975 14.7969 71.9433
68 0.00000 25.0000 100.000 20.6724 11.7494 95.7294
69 0.00000 50.0000 0.00000 8.57817 16.1542 3.52608
70 12.5000 62.5000 12.5000 14.1814 26.0794 6.49125
71 0.00000 50.0000 25.0000 9.48738 16.5179 8.31499
72 12.5000 62.5000 37.5000 15.9983 26.8060 16.0610
73 0.00000 50.0000 50.0000 12.4033 17.6840 23.6735
74 12.5000 62.5000 62.5000 20.1532 28.4677 37.9454
75 0.00000 50.0000 75.0000 17.9162 19.8888 52.7105
76 12.5000 62.5000 87.5000 27.1290 31.2576 74.6872
77 0.00000 50.0000 100.000 26.4493 23.3015 97.6550
78 0.00000 75.0000 0.00000 19.5000 37.9948 7.16671
79 12.5000 87.5000 12.5000 28.0013 53.7152 11.0979
80 0.00000 75.0000 25.0000 20.4092 38.3584 11.9556
81 12.5000 87.5000 37.5000 29.8182 54.4419 20.6677
82 0.00000 75.0000 50.0000 23.3251 39.5246 27.3142
83 12.5000 87.5000 62.5000 33.9731 56.1036 42.5521
84 0.00000 75.0000 75.0000 28.8380 41.7294 56.3511
85 12.5000 87.5000 87.5000 40.9488 58.8934 79.2939
86 0.00000 75.0000 100.000 37.3711 45.1421 101.296
87 0.00000 100.000 0.00000 36.4052 71.8005 12.8018
88 0.00000 100.000 25.0000 37.3144 72.1641 17.5907
89 0.00000 100.000 50.0000 40.2304 73.3303 32.9493
90 0.00000 100.000 75.0000 45.7432 75.5351 61.9862
91 0.00000 100.000 100.000 54.2763 78.9478 106.931
92 25.0000 0.00000 0.00000 3.07728 2.07105 1.09734
93 37.5000 12.5000 12.5000 6.50147 4.56093 2.74206
94 25.0000 0.00000 25.0000 3.98649 2.43468 5.88625
95 37.5000 12.5000 37.5000 8.31836 5.28757 12.3118
96 25.0000 0.00000 50.0000 6.90243 3.60087 21.2448
97 37.5000 12.5000 62.5000 12.4733 6.94928 34.1962
98 25.0000 0.00000 75.0000 12.4153 5.80568 50.2817
99 37.5000 12.5000 87.5000 19.4490 9.73913 70.9380
100 25.0000 0.00000 100.000 20.9484 9.21837 95.2263
101 25.0000 25.0000 0.00000 4.87856 5.67311 1.69777
102 37.5000 37.5000 12.5000 10.1010 11.7590 3.94191
103 25.0000 25.0000 50.0000 8.70371 7.20292 21.8452
104 37.5000 37.5000 62.5000 16.0728 14.1473 35.3961
105 25.0000 25.0000 75.0000 14.2166 9.40773 50.8822
106 37.5000 37.5000 87.5000 23.0485 16.9371 72.1379
107 25.0000 25.0000 100.000 22.7497 12.8204 95.8267
108 25.0000 50.0000 0.00000 10.6555 17.2253 3.62342
109 37.5000 62.5000 12.5000 18.3325 28.2197 6.68576
110 25.0000 50.0000 25.0000 11.5647 17.5889 8.41233
111 37.5000 62.5000 37.5000 20.1494 28.9463 16.2555
112 25.0000 50.0000 50.0000 14.4806 18.7551 23.7709
113 37.5000 62.5000 62.5000 24.3043 30.6080 38.1399
114 25.0000 50.0000 75.0000 19.9935 20.9599 52.8078
115 37.5000 62.5000 87.5000 31.2800 33.3978 74.8817
116 25.0000 50.0000 100.000 28.5266 24.3726 97.7524
117 25.0000 75.0000 0.00000 21.5773 39.0658 7.26405
118 37.5000 87.5000 12.5000 32.1524 55.8555 11.2924
119 25.0000 75.0000 25.0000 22.4865 39.4295 12.0530
120 37.5000 87.5000 37.5000 33.9692 56.5822 20.8622
121 25.0000 75.0000 50.0000 25.4024 40.5957 27.4115
122 37.5000 87.5000 62.5000 38.1242 58.2439 42.7466
123 25.0000 75.0000 75.0000 30.9153 42.8005 56.4485
124 37.5000 87.5000 87.5000 45.0999 61.0337 79.4884
125 25.0000 75.0000 100.000 39.4484 46.2132 101.393
126 25.0000 100.000 0.00000 38.4825 72.8716 12.8992
127 25.0000 100.000 25.0000 39.3917 73.2352 17.6881
128 25.0000 100.000 50.0000 42.3076 74.4014 33.0466
129 25.0000 100.000 75.0000 47.8205 76.6062 62.0836
130 25.0000 100.000 100.000 56.3536 80.0189 107.028
131 50.0000 0.00000 0.00000 9.73934 5.50603 1.40951
132 62.5000 12.5000 12.5000 15.9942 9.45544 3.18687
133 50.0000 0.00000 25.0000 10.6485 5.86966 6.19842
134 62.5000 12.5000 37.5000 17.8111 10.1821 12.7566
135 50.0000 0.00000 50.0000 13.5645 7.03585 21.5570
136 62.5000 12.5000 62.5000 21.9661 11.8438 34.6410
137 50.0000 0.00000 75.0000 19.0774 9.24066 50.5939
138 62.5000 12.5000 87.5000 28.9418 14.6336 71.3828
139 50.0000 0.00000 100.000 27.6104 12.6533 95.5385
140 50.0000 25.0000 0.00000 11.5406 9.10808 2.00994
141 62.5000 37.5000 12.5000 19.5938 16.6535 4.38672
142 50.0000 25.0000 25.0000 12.4498 9.47171 6.79885
143 62.5000 37.5000 37.5000 21.4106 17.3801 13.9565
144 50.0000 25.0000 50.0000 15.3658 10.6379 22.1574
145 62.5000 37.5000 62.5000 25.5656 19.0418 35.8409
146 50.0000 25.0000 75.0000 20.8787 12.8427 51.1944
147 62.5000 37.5000 87.5000 32.5413 21.8317 72.5827
148 50.0000 25.0000 100.000 29.4117 16.2554 96.1389
149 50.0000 50.0000 0.00000 17.3175 20.6603 3.93559
150 62.5000 62.5000 12.5000 27.8253 33.1142 7.13058
151 50.0000 50.0000 25.0000 18.2267 21.0239 8.72450
152 62.5000 62.5000 37.5000 29.6421 33.8408 16.7003
153 50.0000 50.0000 75.0000 26.6555 24.3949 53.1200
154 62.5000 62.5000 87.5000 40.7728 38.2924 75.3265
155 50.0000 50.0000 100.000 35.1886 27.8076 98.0645
156 50.0000 75.0000 0.00000 28.2393 42.5008 7.57622
157 62.5000 87.5000 12.5000 41.6451 60.7500 11.7372
158 50.0000 75.0000 25.0000 29.1485 42.8645 12.3651
159 62.5000 87.5000 37.5000 43.4620 61.4767 21.3070
160 50.0000 75.0000 50.0000 32.0645 44.0306 27.7237
161 62.5000 87.5000 62.5000 47.6169 63.1384 43.1914
162 50.0000 75.0000 75.0000 37.5774 46.2355 56.7606
163 62.5000 87.5000 87.5000 54.5927 65.9282 79.9332
164 50.0000 75.0000 100.000 46.1104 49.6481 101.705
165 50.0000 100.000 0.00000 45.1445 76.3065 13.2113
166 50.0000 100.000 25.0000 46.0538 76.6702 18.0003
167 50.0000 100.000 50.0000 48.9697 77.8364 33.3588
168 50.0000 100.000 75.0000 54.4826 80.0412 62.3958
169 50.0000 100.000 100.000 63.0157 83.4539 107.340
170 75.0000 0.00000 0.00000 22.3346 12.0002 1.99970
171 87.5000 12.5000 12.5000 31.9317 17.6728 3.93367
172 75.0000 0.00000 25.0000 23.2439 12.3638 6.78862
173 87.5000 12.5000 37.5000 33.7486 18.3995 13.5034
174 75.0000 0.00000 50.0000 26.1598 13.5300 22.1472
175 87.5000 12.5000 62.5000 37.9035 20.0612 35.3878
176 75.0000 0.00000 75.0000 31.6727 15.7348 51.1841
177 87.5000 12.5000 87.5000 44.8792 22.8510 72.1296
178 75.0000 0.00000 100.000 40.2058 19.1475 96.1287
179 75.0000 25.0000 0.00000 24.1359 15.6023 2.60014
180 87.5000 37.5000 12.5000 35.5312 24.8708 5.13352
181 75.0000 25.0000 25.0000 25.0451 15.9659 7.38905
182 87.5000 37.5000 37.5000 37.3481 25.5975 14.7033
183 75.0000 25.0000 50.0000 27.9611 17.1321 22.7476
184 87.5000 37.5000 62.5000 41.5030 27.2592 36.5877
185 75.0000 25.0000 75.0000 33.4740 19.3369 51.7845
186 87.5000 37.5000 87.5000 48.4787 30.0490 73.3295
187 75.0000 25.0000 100.000 42.0070 22.7496 96.7291
188 75.0000 50.0000 0.00000 29.9128 27.1544 4.52578
189 87.5000 62.5000 12.5000 43.7627 41.3315 7.87738
190 75.0000 50.0000 25.0000 30.8220 27.5181 9.31470
191 87.5000 62.5000 37.5000 45.5796 42.0582 17.4471
192 75.0000 50.0000 50.0000 33.7380 28.6843 24.6733
193 87.5000 62.5000 62.5000 49.7345 43.7199 39.3315
194 75.0000 50.0000 75.0000 39.2509 30.8891 53.7102
195 87.5000 62.5000 87.5000 56.7102 46.5097 76.0733
196 75.0000 50.0000 100.000 47.7839 34.3017 98.6547
197 75.0000 75.0000 0.00000 40.8346 48.9950 8.16642
198 87.5000 87.5000 12.5000 57.5826 68.9674 12.4840
199 75.0000 75.0000 25.0000 41.7438 49.3586 12.9553
200 87.5000 87.5000 37.5000 59.3994 69.6941 22.0538
201 75.0000 75.0000 50.0000 44.6598 50.5248 28.3139
202 87.5000 87.5000 62.5000 63.5544 71.3558 43.9382
203 75.0000 75.0000 100.000 58.7057 56.1423 102.295
204 75.0000 100.000 0.00000 57.7399 82.8007 13.8015
205 75.0000 100.000 25.0000 58.6491 83.1644 18.5905
206 75.0000 100.000 50.0000 61.5650 84.3305 33.9490
207 75.0000 100.000 75.0000 67.0779 86.5354 62.9859
208 75.0000 100.000 100.000 75.6110 89.9480 107.930
209 100.000 0.00000 0.00000 41.8302 22.0522 2.91323
210 100.000 0.00000 25.0000 42.7394 22.4158 7.70214
211 100.000 0.00000 50.0000 45.6553 23.5820 23.0607
212 100.000 0.00000 75.0000 51.1682 25.7868 52.0976
213 100.000 0.00000 100.000 59.7013 29.1995 97.0422
214 100.000 25.0000 0.00000 43.6314 25.6542 3.51366
215 100.000 25.0000 25.0000 44.5407 26.0178 8.30257
216 100.000 25.0000 50.0000 47.4566 27.1840 23.6611
217 100.000 25.0000 75.0000 52.9695 29.3888 52.6981
218 100.000 25.0000 100.000 61.5026 32.8015 97.6426
219 100.000 50.0000 0.00000 49.4083 37.2064 5.43931
220 100.000 50.0000 25.0000 50.3176 37.5700 10.2282
221 100.000 50.0000 50.0000 53.2335 38.7362 25.5868
222 100.000 50.0000 75.0000 58.7464 40.9410 54.6237
223 100.000 50.0000 100.000 67.2794 44.3537 99.5683
224 100.000 75.0000 0.00000 60.3302 59.0470 9.07994
225 100.000 75.0000 25.0000 61.2394 59.4106 13.8689
226 100.000 75.0000 50.0000 64.1553 60.5768 29.2274
227 100.000 75.0000 75.0000 69.6682 62.7816 58.2644
228 100.000 75.0000 100.000 78.2013 66.1943 103.209
229 100.000 100.000 0.00000 77.2354 92.8527 14.7151
230 100.000 100.000 25.0000 78.1446 93.2163 19.5040
231 100.000 100.000 50.0000 81.0605 94.3825 34.8625
232 100.000 100.000 75.0000 86.5734 96.5873 63.8995
233 0.00000 12.5000 100.000 19.3792 9.16329 95.2983
234 12.5000 0.00000 100.000 19.4570 8.44941 95.1564
235 0.00000 100.000 12.5000 36.6617 71.9031 14.1526
236 12.5000 100.000 0.00000 36.9911 72.1026 12.8293
237 100.000 0.00000 12.5000 42.0866 22.1547 4.26397
238 100.000 12.5000 0.00000 42.3382 23.0681 3.08259
END_DATA
CAL    

DESCRIPTOR "Argyll Device Calibration State"
ORIGINATOR "Argyll dispcal"
CREATED "Sat Mar 14 19:07:36 2009"
KEYWORD "DEVICE_CLASS"
DEVICE_CLASS "DISPLAY"
KEYWORD "COLOR_REP"
COLOR_REP "RGB"

KEYWORD "RGB_I"
NUMBER_OF_FIELDS 4
BEGIN_DATA_FORMAT
RGB_I RGB_R RGB_G RGB_B
END_DATA_FORMAT

NUMBER_OF_SETS 256
BEGIN_DATA
0.00000 0.00000 0.00000 0.00000
0.00392 0.00392 0.00392 0.00392
0.00784 0.00784 0.00784 0.00784
0.01176 0.01176 0.01176 0.01176
0.01569 0.01569 0.01569 0.01569
0.01961 0.01961 0.01961 0.01961
0.02353 0.02353 0.02353 0.02353
0.02745 0.02745 0.02745 0.02745
0.03137 0.03137 0.03137 0.03137
0.03529 0.03529 0.03529 0.03529
0.03922 0.03922 0.03922 0.03922
0.04314 0.04314 0.04314 0.04314
0.04706 0.04706 0.04706 0.04706
0.05098 0.05098 0.05098 0.05098
0.05490 0.05490 0.05490 0.05490
0.05882 0.05882 0.05882 0.05882
0.06275 0.06275 0.06275 0.06275
0.06667 0.06667 0.06667 0.06667
0.07059 0.07059 0.07059 0.07059
0.07451 0.07451 0.07451 0.07451
0.07843 0.07843 0.07843 0.07843
0.08235 0.08235 0.08235 0.08235
0.08627 0.08627 0.08627 0.08627
0.09020 0.09020 0.09020 0.09020
0.09412 0.09412 0.09412 0.09412
0.09804 0.09804 0.09804 0.09804
0.10196 0.10196 0.10196 0.10196
0.10588 0.10588 0.10588 0.10588
0.10980 0.10980 0.10980 0.10980
0.11373 0.11373 0.11373 0.11373
0.11765 0.11765 0.11765 0.11765
0.12157 0.12157 0.12157 0.12157
0.12549 0.12549 0.12549 0.12549
0.12941 0.12941 0.12941 0.12941
0.13333 0.13333 0.13333 0.13333
0.13725 0.13725 0.13725 0.13725
0.14118 0.14118 0.14118 0.14118
0.14510 0.14510 0.14510 0.14510
0.14902 0.14902 0.14902 0.14902
0.15294 0.15294 0.15294 0.15294
0.15686 0.15686 0.15686 0.15686
0.16078 0.16078 0.16078 0.16078
0.16471 0.16471 0.16471 0.16471
0.16863 0.16863 0.16863 0.16863
0.17255 0.17255 0.17255 0.17255
0.17647 0.17647 0.17647 0.17647
0.18039 0.18039 0.18039 0.18039
0.18431 0.18431 0.18431 0.18431
0.18824 0.18824 0.18824 0.18824
0.19216 0.19216 0.19216 0.19216
0.19608 0.19608 0.19608 0.19608
0.20000 0.20000 0.20000 0.20000
0.20392 0.20392 0.20392 0.20392
0.20784 0.20784 0.20784 0.20784
0.21176 0.21176 0.21176 0.21176
0.21569 0.21569 0.21569 0.21569
0.21961 0.21961 0.21961 0.21961
0.22353 0.22353 0.22353 0.22353
0.22745 0.22745 0.22745 0.22745
0.23137 0.23137 0.23137 0.23137
0.23529 0.23529 0.23529 0.23529
0.23922 0.23922 0.23922 0.23922
0.24314 0.24314 0.24314 0.24314
0.24706 0.24706 0.24706 0.24706
0.25098 0.25098 0.25098 0.25098
0.25490 0.25490 0.25490 0.25490
0.25882 0.25882 0.25882 0.25882
0.26275 0.26275 0.26275 0.26275
0.26667 0.26667 0.26667 0.26667
0.27059 0.27059 0.27059 0.27059
0.27451 0.27451 0.27451 0.27451
0.27843 0.27843 0.27843 0.27843
0.28235 0.28235 0.28235 0.28235
0.28627 0.28627 0.28627 0.28627
0.29020 0.29020 0.29020 0.29020
0.29412 0.29412 0.29412 0.29412
0.29804 0.29804 0.29804 0.29804
0.30196 0.30196 0.30196 0.30196
0.30588 0.30588 0.30588 0.30588
0.30980 0.30980 0.30980 0.30980
0.31373 0.31373 0.31373 0.31373
0.31765 0.31765 0.31765 0.31765
0.32157 0.32157 0.32157 0.32157
0.32549 0.32549 0.32549 0.32549
0.32941 0.32941 0.32941 0.32941
0.33333 0.33333 0.33333 0.33333
0.33725 0.33725 0.33725 0.33725
0.34118 0.34118 0.34118 0.34118
0.34510 0.34510 0.34510 0.34510
0.34902 0.34902 0.34902 0.34902
0.35294 0.35294 0.35294 0.35294
0.35686 0.35686 0.35686 0.35686
0.36078 0.36078 0.36078 0.36078
0.36471 0.36471 0.36471 0.36471
0.36863 0.36863 0.36863 0.36863
0.37255 0.37255 0.37255 0.37255
0.37647 0.37647 0.37647 0.37647
0.38039 0.38039 0.38039 0.38039
0.38431 0.38431 0.38431 0.38431
0.38824 0.38824 0.38824 0.38824
0.39216 0.39216 0.39216 0.39216
0.39608 0.39608 0.39608 0.39608
0.40000 0.40000 0.40000 0.40000
0.40392 0.40392 0.40392 0.40392
0.40784 0.40784 0.40784 0.40784
0.41176 0.41176 0.41176 0.41176
0.41569 0.41569 0.41569 0.41569
0.41961 0.41961 0.41961 0.41961
0.42353 0.42353 0.42353 0.42353
0.42745 0.42745 0.42745 0.42745
0.43137 0.43137 0.43137 0.43137
0.43529 0.43529 0.43529 0.43529
0.43922 0.43922 0.43922 0.43922
0.44314 0.44314 0.44314 0.44314
0.44706 0.44706 0.44706 0.44706
0.45098 0.45098 0.45098 0.45098
0.45490 0.45490 0.45490 0.45490
0.45882 0.45882 0.45882 0.45882
0.46275 0.46275 0.46275 0.46275
0.46667 0.46667 0.46667 0.46667
0.47059 0.47059 0.47059 0.47059
0.47451 0.47451 0.47451 0.47451
0.47843 0.47843 0.47843 0.47843
0.48235 0.48235 0.48235 0.48235
0.48627 0.48627 0.48627 0.48627
0.49020 0.49020 0.49020 0.49020
0.49412 0.49412 0.49412 0.49412
0.49804 0.49804 0.49804 0.49804
0.50196 0.50196 0.50196 0.50196
0.50588 0.50588 0.50588 0.50588
0.50980 0.50980 0.50980 0.50980
0.51373 0.51373 0.51373 0.51373
0.51765 0.51765 0.51765 0.51765
0.52157 0.52157 0.52157 0.52157
0.52549 0.52549 0.52549 0.52549
0.52941 0.52941 0.52941 0.52941
0.53333 0.53333 0.53333 0.53333
0.53725 0.53725 0.53725 0.53725
0.54118 0.54118 0.54118 0.54118
0.54510 0.54510 0.54510 0.54510
0.54902 0.54902 0.54902 0.54902
0.55294 0.55294 0.55294 0.55294
0.55686 0.55686 0.55686 0.55686
0.56078 0.56078 0.56078 0.56078
0.56471 0.56471 0.56471 0.56471
0.56863 0.56863 0.56863 0.56863
0.57255 0.57255 0.57255 0.57255
0.57647 0.57647 0.57647 0.57647
0.58039 0.58039 0.58039 0.58039
0.58431 0.58431 0.58431 0.58431
0.58824 0.58824 0.58824 0.58824
0.59216 0.59216 0.59216 0.59216
0.59608 0.59608 0.59608 0.59608
0.60000 0.60000 0.60000 0.60000
0.60392 0.60392 0.60392 0.60392
0.60784 0.60784 0.60784 0.60784
0.61176 0.61176 0.61176 0.61176
0.61569 0.61569 0.61569 0.61569
0.61961 0.61961 0.61961 0.61961
0.62353 0.62353 0.62353 0.62353
0.62745 0.62745 0.62745 0.62745
0.63137 0.63137 0.63137 0.63137
0.63529 0.63529 0.63529 0.63529
0.63922 0.63922 0.63922 0.63922
0.64314 0.64314 0.64314 0.64314
0.64706 0.64706 0.64706 0.64706
0.65098 0.65098 0.65098 0.65098
0.65490 0.65490 0.65490 0.65490
0.65882 0.65882 0.65882 0.65882
0.66275 0.66275 0.66275 0.66275
0.66667 0.66667 0.66667 0.66667
0.67059 0.67059 0.67059 0.67059
0.67451 0.67451 0.67451 0.67451
0.67843 0.67843 0.67843 0.67843
0.68235 0.68235 0.68235 0.68235
0.68627 0.68627 0.68627 0.68627
0.69020 0.69020 0.69020 0.69020
0.69412 0.69412 0.69412 0.69412
0.69804 0.69804 0.69804 0.69804
0.70196 0.70196 0.70196 0.70196
0.70588 0.70588 0.70588 0.70588
0.70980 0.70980 0.70980 0.70980
0.71373 0.71373 0.71373 0.71373
0.71765 0.71765 0.71765 0.71765
0.72157 0.72157 0.72157 0.72157
0.72549 0.72549 0.72549 0.72549
0.72941 0.72941 0.72941 0.72941
0.73333 0.73333 0.73333 0.73333
0.73725 0.73725 0.73725 0.73725
0.74118 0.74118 0.74118 0.74118
0.74510 0.74510 0.74510 0.74510
0.74902 0.74902 0.74902 0.74902
0.75294 0.75294 0.75294 0.75294
0.75686 0.75686 0.75686 0.75686
0.76078 0.76078 0.76078 0.76078
0.76471 0.76471 0.76471 0.76471
0.76863 0.76863 0.76863 0.76863
0.77255 0.77255 0.77255 0.77255
0.77647 0.77647 0.77647 0.77647
0.78039 0.78039 0.78039 0.78039
0.78431 0.78431 0.78431 0.78431
0.78824 0.78824 0.78824 0.78824
0.79216 0.79216 0.79216 0.79216
0.79608 0.79608 0.79608 0.79608
0.80000 0.80000 0.80000 0.80000
0.80392 0.80392 0.80392 0.80392
0.80784 0.80784 0.80784 0.80784
0.81176 0.81176 0.81176 0.81176
0.81569 0.81569 0.81569 0.81569
0.81961 0.81961 0.81961 0.81961
0.82353 0.82353 0.82353 0.82353
0.82745 0.82745 0.82745 0.82745
0.83137 0.83137 0.83137 0.83137
0.83529 0.83529 0.83529 0.83529
0.83922 0.83922 0.83922 0.83922
0.84314 0.84314 0.84314 0.84314
0.84706 0.84706 0.84706 0.84706
0.85098 0.85098 0.85098 0.85098
0.85490 0.85490 0.85490 0.85490
0.85882 0.85882 0.85882 0.85882
0.86275 0.86275 0.86275 0.86275
0.86667 0.86667 0.86667 0.86667
0.87059 0.87059 0.87059 0.87059
0.87451 0.87451 0.87451 0.87451
0.87843 0.87843 0.87843 0.87843
0.88235 0.88235 0.88235 0.88235
0.88627 0.88627 0.88627 0.88627
0.89020 0.89020 0.89020 0.89020
0.89412 0.89412 0.89412 0.89412
0.89804 0.89804 0.89804 0.89804
0.90196 0.90196 0.90196 0.90196
0.90588 0.90588 0.90588 0.90588
0.90980 0.90980 0.90980 0.90980
0.91373 0.91373 0.91373 0.91373
0.91765 0.91765 0.91765 0.91765
0.92157 0.92157 0.92157 0.92157
0.92549 0.92549 0.92549 0.92549
0.92941 0.92941 0.92941 0.92941
0.93333 0.93333 0.93333 0.93333
0.93725 0.93725 0.93725 0.93725
0.94118 0.94118 0.94118 0.94118
0.94510 0.94510 0.94510 0.94510
0.94902 0.94902 0.94902 0.94902
0.95294 0.95294 0.95294 0.95294
0.95686 0.95686 0.95686 0.95686
0.96078 0.96078 0.96078 0.96078
0.96471 0.96471 0.96471 0.96471
0.96863 0.96863 0.96863 0.96863
0.97255 0.97255 0.97255 0.97255
0.97647 0.97647 0.97647 0.97647
0.98039 0.98039 0.98039 0.98039
0.98431 0.98431 0.98431 0.98431
0.98824 0.98824 0.98824 0.98824
0.99216 0.99216 0.99216 0.99216
0.99608 0.99608 0.99608 0.99608
1.00000 1.00000 1.00000 1.00000
END_DATA
