misc/ti3/video_resolve.ti3
CTI3   

DESCRIPTOR "Argyll Calibration Target chart information 3"
ORIGINATOR "Argyll dispread"
CREATED "Sat Mar 14 19:00:55 2009"
DEVICE_CLASS "DISPLAY"
APPROX_WHITE_POINT "95.045781 100.000003 108.905751"
DARK_REGION_EMPHASIS "1.6"
ACCURATE_EXPECTED_VALUES "true"
COLOR_REP "RGB_XYZ"
BLACK_COLOR_PATCHES "4"
COMP_GREY_STEPS "97"
SINGLE_DIM_STEPS "33"
WHITE_COLOR_PATCHES "4"
USE_BLACK_POINT_COMPENSATION "NO"
MIN_DISPLAY_UPDATE_DELAY_MS "600"
HIRES_B2A "NO"
AUTO_OPTIMIZE "9"
3DLUT_SOURCE_PROFILE "ref/Rec709.icm"
3DLUT_GAMMA "-2.4"
3DLUT_DEGREE_OF_BLACK_OUTPUT_OFFSET "0.0"
3DLUT_INPUT_ENCODING "n"
3DLUT_OUTPUT_ENCODING "n"
3DLUT_GAMUT_MAPPING_MODE "G"
3DLUT_RENDERING_INTENT "aw"
3DLUT_FORMAT "cube"
3DLUT_SIZE "65"

BEGIN_ARGYLL_COLPROF_ARGS
-qh -bl -aX -M "Resolve"
END_ARGYLL_COLPROF_ARGS

NUMBER_OF_FIELDS 7
BEGIN_DATA_FORMAT
SAMPLE_ID RGB_R RGB_G RGB_B XYZ_X XYZ_Y XYZ_Z
END_DATA_FORMAT

NUMBER_OF_SETS 1553
BEGIN_DATA
1 100.00 100.00 100.00 95.106 100.00 108.84
2 97.737 97.737 97.737 90.334 94.979 103.37
3 100.00 100.00 100.00 95.106 100.00 108.84
4 100.00 100.00 100.00 95.106 100.00 108.84
5 0.0000 0.0000 0.0000 1.0000 1.0000 1.0000
6 0.0000 0.0000 0.0000 1.0000 1.0000 1.0000
7 0.0000 0.0000 0.0000 1.0000 1.0000 1.0000
8 0.0000 0.0000 0.0000 1.0000 1.0000 1.0000
9 1.4451 0.0000 0.0000 1.0457 1.0235 1.0021
10 2.9412 0.0000 0.0000 1.0929 1.0479 1.0044
11 4.4910 0.0000 0.0000 1.1426 1.0735 1.0067
12 6.0976 0.0000 0.0000 1.2040 1.1052 1.0096
13 7.7640 0.0000 0.0000 1.2816 1.1452 1.0132
14 9.4937 0.0000 0.0000 1.3779 1.1948 1.0177
15 11.290 0.0000 0.0000 1.4958 1.2556 1.0232
16 13.158 0.0000 0.0000 1.6386 1.3293 1.0299
17 15.101 0.0000 0.0000 1.8100 1.4176 1.0380
18 17.123 0.0000 0.0000 2.0142 1.5229 1.0475
19 19.231 0.0000 0.0000 2.2559 1.6475 1.0588
20 21.429 0.0000 0.0000 2.5406 1.7943 1.0722
21 23.723 0.0000 0.0000 2.8746 1.9665 1.0878
22 26.119 0.0000 0.0000 3.2650 2.1678 1.1061
23 28.626 0.0000 0.0000 3.7201 2.4025 1.1275
24 31.250 0.0000 0.0000 4.2493 2.6754 1.1523
25 34.000 0.0000 0.0000 4.8637 2.9922 1.1810
26 36.885 0.0000 0.0000 5.5760 3.3594 1.2144
27 39.916 0.0000 0.0000 6.4010 3.7848 1.2531
28 43.103 0.0000 0.0000 7.3559 4.2771 1.2978
29 46.460 0.0000 0.0000 8.4608 4.8468 1.3496
30 50.000 0.0000 0.0000 9.7393 5.5060 1.4095
31 53.738 0.0000 0.0000 11.219 6.2691 1.4789
32 57.692 0.0000 0.0000 12.934 7.1530 1.5592
33 61.881 0.0000 0.0000 14.921 8.1777 1.6523
34 66.326 0.0000 0.0000 17.228 9.3671 1.7604
35 71.053 0.0000 0.0000 19.909 10.750 1.8861
36 76.087 0.0000 0.0000 23.033 12.360 2.0324
37 81.461 0.0000 0.0000 26.677 14.239 2.2032
38 87.209 0.0000 0.0000 30.941 16.438 2.4030
39 93.374 0.0000 0.0000 35.944 19.017 2.6374
40 100.00 0.0000 0.0000 41.830 22.052 2.9132
41 100.00 0.0000 54.000 46.351 23.860 26.723
42 0.0000 79.849 33.598 23.938 44.230 16.787
43 0.0000 87.082 47.158 30.249 54.097 27.385
44 50.964 92.292 49.013 43.283 66.176 30.562
45 59.245 100.00 64.127 55.646 80.959 48.115
46 69.412 100.00 71.061 62.635 84.367 57.249
47 67.159 65.381 0.0000 31.314 36.860 6.3255
48 73.106 76.690 0.0000 40.595 50.275 8.4262
49 100.00 88.036 0.0000 68.353 75.090 11.754
50 0.0000 17.123 0.0000 1.8794 2.7586 1.2931
51 0.0000 19.231 0.0000 2.0890 3.1777 1.3630
52 0.0000 21.429 0.0000 2.3359 3.6714 1.4453
53 0.0000 23.723 0.0000 2.6255 4.2505 1.5418
54 0.0000 26.119 0.0000 2.9640 4.9275 1.6547
55 0.0000 28.626 0.0000 3.3587 5.7167 1.7862
56 0.0000 31.250 0.0000 3.8176 6.6344 1.9392
57 0.0000 34.000 0.0000 4.3504 7.6998 2.1168
58 0.0000 36.885 0.0000 4.9680 8.9350 2.3227
59 0.0000 39.916 0.0000 5.6834 10.366 2.5611
60 0.0000 43.103 0.0000 6.5114 12.021 2.8371
61 0.0000 46.460 0.0000 7.4695 13.937 3.1565
62 0.0000 50.000 0.0000 8.5782 16.154 3.5261
63 0.0000 53.738 0.0000 9.8615 18.721 3.9539
64 0.0000 57.692 0.0000 11.348 21.693 4.4494
65 0.0000 66.326 0.0000 15.072 29.139 5.6906
66 0.0000 68.747 0.0000 16.237 31.469 6.0789
67 0.0000 71.053 0.0000 17.397 33.789 6.4657
68 0.0000 76.087 0.0000 20.105 39.205 7.3684
69 0.0000 81.461 0.0000 23.266 45.525 8.4220
70 0.0000 87.209 0.0000 26.963 52.919 9.6545
71 20.140 98.659 35.329 38.535 71.098 22.153
72 25.338 100.00 40.094 40.925 73.855 25.471
73 42.371 100.00 48.477 46.112 76.391 31.935
74 48.283 100.00 60.407 50.288 78.290 43.616
75 0.0000 0.0000 1.4451 1.0200 1.0080 1.1053
76 0.0000 0.0000 2.9412 1.0407 1.0163 1.2143
77 0.0000 0.0000 7.7640 1.1232 1.0493 1.6491
78 0.0000 0.0000 9.4937 1.1654 1.0661 1.8712
79 0.0000 0.0000 11.290 1.2170 1.0868 2.1430
80 0.0000 0.0000 13.158 1.2795 1.1118 2.4723
81 0.0000 0.0000 15.101 1.3545 1.1418 2.8674
82 0.0000 0.0000 17.123 1.4439 1.1775 3.3380
83 0.0000 0.0000 19.231 1.5497 1.2198 3.8953
84 0.0000 0.0000 21.429 1.6743 1.2697 4.5516
85 0.0000 0.0000 23.723 1.8205 1.3281 5.3216
86 0.0000 0.0000 26.119 1.9914 1.3965 6.2216
87 0.0000 0.0000 28.626 2.1906 1.4761 7.2708
88 0.0000 0.0000 31.250 2.4222 1.5688 8.4909
89 0.0000 0.0000 34.000 2.6911 1.6763 9.9074
90 0.0000 0.0000 36.885 3.0029 1.8010 11.550
91 0.0000 0.0000 39.916 3.3640 1.9454 13.451
92 0.0000 0.0000 46.460 4.2655 2.3060 18.200
93 0.0000 0.0000 50.000 4.8252 2.5298 21.147
94 0.0000 0.0000 51.906 5.1480 2.6589 22.848
95 0.0000 0.0000 53.738 5.4729 2.7889 24.559
96 0.0000 0.0000 61.881 7.0931 3.4369 33.093
97 0.0000 0.0000 66.326 8.1028 3.8407 38.411
98 0.0000 0.0000 68.635 8.6632 4.0648 41.363
99 0.0000 0.0000 71.053 9.2766 4.3101 44.593
100 0.0000 0.0000 76.087 10.644 4.8568 51.793
101 0.0000 0.0000 81.461 12.239 5.4948 60.196
102 0.0000 0.0000 87.209 14.105 6.2412 70.026
103 3.5135 36.539 92.279 19.893 14.793 80.737
104 25.484 42.809 100.00 26.460 20.121 97.041
105 60.970 64.057 100.00 45.373 41.147 100.10
106 0.9579 0.9579 0.9579 1.0698 1.0734 1.0800
107 1.4451 1.4451 1.4451 1.1053 1.1107 1.1206
108 1.9380 1.9380 1.9380 1.1412 1.1485 1.1618
109 2.4366 2.4366 2.4366 1.1775 1.1867 1.2034
110 2.9412 2.9412 2.9412 1.2142 1.2254 1.2455
111 3.4517 3.4517 3.4517 1.2514 1.2645 1.2881
112 3.9683 3.9683 3.9683 1.2890 1.3040 1.3312
113 4.4910 4.4910 4.4910 1.3288 1.3459 1.3767
114 5.0201 5.0201 5.0201 1.3721 1.3914 1.4264
115 5.5556 5.5556 5.5556 1.4192 1.4410 1.4804
116 6.0976 6.0976 6.0976 1.4702 1.4947 1.5389
117 6.6462 6.6462 6.6462 1.5254 1.5527 1.6021
118 7.2016 7.2016 7.2016 1.5849 1.6153 1.6703
119 7.7640 7.7640 7.7640 1.6490 1.6827 1.7437
120 8.3333 8.3333 8.3333 1.7179 1.7552 1.8226
121 8.9099 8.9099 8.9099 1.7918 1.8329 1.9073
122 9.4937 9.4937 9.4937 1.8709 1.9162 1.9981
123 10.085 10.085 10.085 1.9557 2.0054 2.0952
124 10.684 10.684 10.684 2.0462 2.1006 2.1989
125 11.290 11.290 11.290 2.1428 2.2022 2.3096
126 11.905 11.905 11.905 2.2457 2.3105 2.4276
127 12.527 12.527 12.527 2.3553 2.4258 2.5532
128 13.158 13.158 13.158 2.4719 2.5485 2.6868
129 13.797 13.797 13.797 2.5958 2.6788 2.8288
130 14.444 14.444 14.444 2.7274 2.8172 2.9795
131 15.101 15.101 15.101 2.8669 2.9640 3.1395
132 15.766 15.766 15.766 3.0149 3.1196 3.3090
133 16.440 16.440 16.440 3.1716 3.2845 3.4886
134 17.123 17.123 17.123 3.3375 3.4590 3.6787
135 17.816 17.816 17.816 3.5130 3.6436 3.8798
136 18.518 18.518 18.518 3.6985 3.8388 4.0924
137 19.231 19.231 19.231 3.8946 4.0451 4.3171
138 19.953 19.953 19.953 4.1016 4.2629 4.5544
139 20.686 20.686 20.686 4.3202 4.4928 4.8049
140 21.429 21.429 21.429 4.5508 4.7354 5.0691
141 22.182 22.182 22.182 4.7940 4.9913 5.3478
142 22.947 22.947 22.947 5.0504 5.2610 5.6417
143 23.723 23.723 23.723 5.3206 5.5452 5.9513
144 24.510 24.510 24.510 5.6052 5.8446 6.2774
145 25.309 25.309 25.309 5.9049 6.1599 6.6209
146 26.119 26.119 26.119 6.2204 6.4918 6.9824
147 26.942 26.942 26.942 6.5524 6.8412 7.3630
148 27.778 27.778 27.778 6.9018 7.2087 7.7633
149 28.626 28.626 28.626 7.2693 7.5953 8.1845
150 29.487 29.487 29.487 7.6557 8.0018 8.6273
151 30.362 30.362 30.362 8.0620 8.4293 9.0929
152 31.250 31.250 31.250 8.4891 8.8786 9.5824
153 32.152 32.152 32.152 8.9380 9.3508 10.097
154 33.069 33.069 33.069 9.4097 9.8470 10.637
155 34.000 34.000 34.000 9.9053 10.368 11.205
156 34.946 34.946 34.946 10.426 10.916 11.802
157 35.908 35.908 35.908 10.973 11.491 12.428
158 36.885 36.885 36.885 11.547 12.095 13.087
159 37.879 37.879 37.879 12.150 12.730 13.778
160 38.889 38.889 38.889 12.783 13.396 14.504
161 39.916 39.916 39.916 13.448 14.096 15.266
162 40.961 40.961 40.961 14.147 14.830 16.066
163 42.023 42.023 42.023 14.880 15.601 16.906
164 43.103 43.103 43.103 15.649 16.411 17.788
165 44.203 44.203 44.203 16.457 17.261 18.714
166 45.322 45.322 45.322 17.305 18.153 19.686
167 46.460 46.460 46.460 18.196 19.090 20.706
168 47.619 47.619 47.619 19.131 20.073 21.777
169 48.799 48.799 48.799 20.112 21.106 22.902
170 50.000 50.000 50.000 21.143 22.190 24.083
171 51.223 51.223 51.223 22.225 23.328 25.323
172 52.469 52.469 52.469 23.361 24.523 26.625
173 53.738 53.738 53.738 24.554 25.779 27.992
174 55.031 55.031 55.031 25.807 27.097 29.428
175 56.349 56.349 56.349 27.123 28.481 30.936
176 57.692 57.692 57.692 28.505 29.935 32.520
177 59.062 59.062 59.062 29.957 31.463 34.184
178 60.458 60.458 60.458 31.482 33.067 35.932
179 61.881 61.881 61.881 33.085 34.754 37.769
180 63.333 63.333 63.333 34.770 36.526 39.700
181 64.815 64.815 64.815 36.541 38.389 41.729
182 66.326 66.326 66.326 38.402 40.347 43.862
183 67.869 67.869 67.869 40.360 42.406 46.105
184 69.444 69.444 69.444 42.418 44.572 48.464
185 71.053 71.053 71.053 44.583 46.849 50.945
186 72.695 72.695 72.695 46.861 49.246 53.556
187 74.373 74.373 74.373 49.258 51.768 56.303
188 76.087 76.087 76.087 51.781 54.422 59.194
189 77.839 77.839 77.839 54.438 57.216 62.238
190 79.630 79.630 79.630 57.235 60.159 65.444
191 81.461 81.461 81.461 60.182 63.259 68.821
192 83.333 83.333 83.333 63.287 66.526 72.379
193 85.249 85.249 85.249 66.559 69.968 76.130
194 87.209 87.209 87.209 70.010 73.598 80.084
195 89.216 89.216 89.216 73.648 77.426 84.254
196 91.270 91.270 91.270 77.487 81.465 88.653
197 93.374 93.374 93.374 81.539 85.727 93.296
198 95.528 95.528 95.528 85.816 90.227 98.198
199 59.504 0.0000 56.217 18.706 9.5586 27.594
200 67.552 0.0000 67.769 25.350 12.693 41.031
201 80.176 0.0000 76.442 35.521 17.672 53.486
202 40.879 0.0000 67.169 13.984 6.8499 39.740
203 47.465 0.0000 78.478 19.148 9.1614 55.806
204 71.456 41.891 84.306 37.478 26.102 67.578
205 91.264 100.00 48.681 73.197 90.353 33.374
206 100.00 100.00 58.509 82.622 95.007 43.087
207 61.049 27.215 16.074 17.039 12.387 4.4297
208 81.852 45.980 45.854 36.457 28.305 21.047
209 89.741 50.368 48.176 44.171 34.277 23.658
210 0.0000 93.374 0.0000 31.301 61.593 11.100
211 0.0000 100.00 0.0000 36.405 71.801 12.802
212 13.989 100.00 0.0000 37.114 72.166 12.835
213 73.233 100.00 0.0000 56.633 82.230 13.750
214 100.00 100.00 27.085 78.301 93.279 20.328
215 100.00 89.749 30.022 70.844 77.975 19.052
216 0.0000 0.0000 43.103 3.7819 2.1126 15.653
217 0.0000 0.0000 100.00 18.871 8.1473 95.129
218 0.0000 11.906 100.00 19.340 9.0846 95.285
219 0.0000 25.702 100.00 20.773 11.952 95.763
220 0.0000 38.806 100.00 23.285 16.973 96.600
221 74.717 39.483 100.00 44.603 28.207 97.646
222 100.00 23.416 89.038 57.149 30.714 75.781
223 100.00 38.564 88.740 59.816 36.214 76.159
224 100.00 50.967 88.648 63.327 43.286 77.171
225 100.00 0.0000 89.627 55.770 27.627 76.338
226 100.00 13.590 100.00 60.286 30.369 97.237
227 100.00 0.0000 65.823 48.814 24.845 39.699
228 100.00 34.660 67.715 52.753 31.998 43.246
229 100.00 0.0000 40.247 44.236 23.014 15.584
230 100.00 44.309 46.395 50.931 35.043 22.010
231 100.00 53.871 51.081 54.746 41.471 26.985
232 100.00 62.017 60.273 59.710 48.608 37.241
233 100.00 38.387 0.0000 46.144 30.679 4.3512
234 100.00 39.267 23.421 47.155 31.420 8.6368
235 100.00 61.585 32.788 55.344 46.565 15.160
236 100.00 61.657 44.941 56.846 47.215 22.922
237 70.612 60.789 71.118 39.550 37.143 49.425
238 82.746 70.977 76.345 53.673 51.312 58.879
239 37.159 0.0000 92.897 20.765 9.4424 80.846
240 44.549 0.0000 100.00 25.690 11.663 95.448
241 49.873 43.420 100.00 33.160 23.823 97.402
242 54.356 54.213 100.00 38.381 31.612 98.631
243 42.774 77.433 86.139 39.868 49.056 75.045
244 41.988 83.517 100.00 48.433 58.341 103.26
245 52.053 92.031 100.00 57.729 71.701 105.35
246 58.448 100.00 100.00 66.555 85.279 107.51
247 73.520 100.00 100.00 74.682 89.469 107.89
248 13.164 0.0000 100.00 19.510 8.4768 95.159
249 29.856 0.0000 100.00 21.833 9.6742 95.268
250 59.755 0.0000 100.00 31.761 14.793 95.733
251 0.0000 100.00 100.00 54.276 78.948 106.93
252 13.909 100.00 100.00 54.978 79.310 106.96
253 0.0000 48.379 62.832 14.359 17.634 36.543
254 48.854 48.853 89.594 30.449 25.270 77.157
255 36.041 24.250 100.00 24.928 13.789 95.899
256 37.996 39.502 100.00 28.322 19.820 96.884
257 35.871 91.089 100.00 51.837 67.661 104.88
258 43.133 100.00 100.00 60.641 82.230 107.23
259 33.122 75.630 36.246 25.442 41.354 17.626
260 49.161 100.00 37.410 46.894 76.970 24.062
261 75.404 100.00 38.431 60.181 83.807 25.310
262 88.450 100.00 36.802 69.311 88.536 24.750
263 100.00 100.00 42.152 79.888 93.914 28.689
264 100.00 100.00 72.268 85.831 96.290 59.988
265 77.569 27.675 0.0000 26.209 17.269 2.8126
266 87.096 45.943 0.0000 37.170 29.023 4.5043
267 75.356 40.398 0.0000 27.365 21.723 3.6116
268 80.697 67.351 42.794 43.437 44.170 21.460
269 80.870 76.700 48.942 49.365 54.383 27.905
270 37.559 89.857 0.0000 33.531 58.999 10.482
271 58.407 100.00 0.0000 48.665 78.122 13.376
272 100.00 100.00 0.0000 77.235 92.853 14.715
273 100.00 100.00 13.014 77.510 92.962 16.160
274 72.947 0.0000 100.00 38.923 18.486 96.069
275 100.00 0.0000 100.00 59.701 29.199 97.042
276 0.0000 0.0000 57.692 6.2232 3.0890 28.511
277 0.0000 0.0000 93.374 16.295 7.1169 81.558
278 0.0000 0.0000 96.671 17.547 7.6179 88.157
279 0.0000 51.625 100.00 26.993 24.388 97.836
280 34.136 63.394 100.00 35.499 35.616 99.556
281 42.019 73.566 100.00 42.611 46.684 101.32
282 100.00 73.324 100.00 77.290 64.373 102.91
283 87.006 36.008 100.00 52.429 31.051 97.783
284 89.310 47.667 100.00 57.303 38.108 98.888
285 0.0000 63.831 43.078 16.705 27.961 19.943
286 0.0000 100.00 78.250 46.674 75.907 66.887
287 27.387 100.00 100.00 56.765 80.231 107.05
288 100.00 0.0000 11.873 42.066 22.146 4.1538
289 100.00 0.0000 26.126 42.822 22.449 8.1373
290 28.717 40.030 0.0000 8.4491 11.833 2.6988
291 39.819 43.478 0.0000 11.987 14.997 3.1231
292 40.043 84.835 91.288 45.365 58.401 85.927
293 0.0000 72.895 73.752 27.354 39.312 54.161
294 0.0000 78.791 100.00 39.531 49.462 102.02
295 0.0000 89.514 100.00 46.411 63.218 104.31
296 0.0000 2.9412 0.0000 1.0806 1.1612 1.0269
297 0.0000 4.4910 0.0000 1.1237 1.2473 1.0412
298 50.168 0.0000 89.805 23.806 11.139 75.169
299 100.00 29.834 100.00 62.265 34.327 97.897
300 100.00 44.012 100.00 65.463 40.721 98.963
301 0.0000 1.4451 0.0000 1.0396 1.0792 1.0132
302 0.0000 6.0976 0.0000 1.1769 1.3538 1.0590
303 0.0000 7.7640 0.0000 1.2442 1.4883 1.0814
304 0.0000 9.4937 0.0000 1.3277 1.6553 1.1092
305 0.0000 35.661 63.890 11.237 11.011 36.670
306 0.0000 55.374 89.593 24.389 25.488 77.517
307 0.0000 65.546 100.00 32.579 35.559 99.698
308 30.939 75.816 100.00 41.008 47.690 101.60
309 0.0000 69.908 32.694 18.375 33.249 14.488
310 42.780 70.475 40.429 25.785 37.395 19.452
311 45.907 75.256 77.506 36.964 46.047 60.494
312 0.0000 25.720 44.342 5.8601 5.9913 17.200
313 0.0000 32.934 76.572 13.919 11.186 53.567
314 0.0000 41.602 87.165 19.202 16.457 71.651
315 0.0000 100.00 89.347 50.247 77.336 85.709
316 100.00 73.512 36.877 61.522 58.228 19.355
317 100.00 84.618 40.989 68.586 71.557 24.167
318 100.00 91.624 50.752 74.811 81.684 33.399
319 44.515 57.797 0.0000 18.197 25.286 4.7821
320 56.862 59.670 0.0000 23.703 29.242 5.2559
321 60.222 36.306 100.00 35.822 22.585 97.023
322 64.666 47.430 100.00 40.976 29.582 98.102
323 29.790 33.275 67.351 14.501 11.867 40.911
324 35.550 38.667 72.526 18.282 15.409 48.292
325 67.852 72.800 100.00 53.248 51.562 101.70
326 79.616 79.971 100.00 64.622 63.439 103.39
327 27.420 100.00 0.0000 38.900 73.087 12.919
328 42.216 100.00 0.0000 42.486 74.936 13.087
329 56.013 100.00 24.628 48.475 77.921 17.976
330 100.00 51.360 0.0000 49.862 38.113 5.5905
331 100.00 64.150 0.0000 54.900 48.188 7.2699
332 100.00 75.616 0.0000 60.672 59.730 9.1939
333 49.611 0.0000 32.514 11.135 6.0474 9.5270
334 51.018 0.0000 45.444 13.243 6.9524 17.831
335 66.335 100.00 46.179 55.861 81.459 30.540
336 0.0000 90.323 0.0000 29.105 57.202 10.368
337 0.0000 100.00 39.587 38.728 72.730 25.038
338 0.0000 100.00 52.833 40.716 73.524 35.506
339 36.275 100.00 62.282 47.005 76.551 45.561
340 0.0000 13.158 0.0000 1.5538 2.1074 1.1846
341 0.0000 15.101 0.0000 1.7024 2.4046 1.2341
342 41.273 31.357 0.0000 9.6336 9.6623 2.2174
343 63.197 38.697 0.0000 19.970 17.292 3.1458
344 0.0000 0.0000 4.4910 1.0624 1.0250 1.3288
345 0.0000 0.0000 6.0976 1.0893 1.0357 1.4703
346 0.0000 38.732 51.710 9.5098 11.436 24.135
347 0.4762 0.4762 0.4762 1.0347 1.0365 1.0397
348 0.0000 11.290 0.0000 1.4299 1.8598 1.1433
349 4.8849 53.605 9.1225 10.126 18.768 4.7656
350 0.0000 100.00 11.802 36.638 71.894 14.030
351 0.0000 100.00 26.442 37.421 72.207 18.152
352 37.053 100.00 36.026 42.932 74.945 23.062
353 55.087 100.00 50.577 51.113 78.930 33.961
354 82.078 100.00 77.755 72.646 89.315 67.348
355 38.714 0.0000 27.945 7.1986 4.0648 7.2120
356 37.496 0.0000 41.767 8.3376 4.4824 14.926
357 44.566 0.0000 55.621 12.646 6.4471 26.717
358 44.077 44.146 79.010 23.959 20.231 58.516
359 83.607 48.219 80.462 46.164 33.422 62.190
360 80.270 0.0000 25.777 26.807 14.195 7.2511
361 89.787 0.0000 46.880 36.308 18.820 20.034
362 71.695 0.0000 32.236 21.808 11.553 9.8861
363 77.374 0.0000 43.548 26.719 13.932 17.048
364 100.00 40.719 57.941 51.988 33.929 32.314
365 100.00 43.258 75.836 56.956 36.986 55.184
366 100.00 59.130 100.00 70.623 51.041 100.68
367 0.0000 50.729 43.014 11.589 17.744 18.195
368 0.0000 52.694 53.615 13.942 19.760 27.272
369 0.0000 60.083 67.327 19.655 26.558 43.445
370 100.00 24.892 0.0000 43.616 25.624 3.5086
371 100.00 38.297 35.688 47.993 31.384 14.192
372 100.00 73.248 63.580 65.847 59.730 42.832
373 100.00 81.243 74.408 73.136 69.979 58.612
374 50.398 38.391 0.0000 14.205 14.213 2.8549
375 52.374 49.213 0.0000 17.987 20.626 3.8938
376 52.149 89.960 0.0000 38.425 61.630 10.732
377 0.0000 75.200 48.425 23.180 39.644 26.006
378 0.0000 100.00 65.969 43.423 74.607 49.767
379 36.272 100.00 73.992 49.884 77.702 60.728
380 40.034 100.00 85.768 54.461 79.651 79.535
381 0.0000 38.634 24.220 6.2267 10.085 6.9576
382 0.0000 39.830 40.300 8.0745 11.288 15.260
383 67.368 38.105 41.590 24.625 19.187 16.785
384 70.870 84.698 46.158 47.329 60.589 26.944
385 0.0000 61.881 0.0000 13.071 25.139 5.0238
386 38.600 67.977 0.0000 20.893 33.311 6.1892
387 46.571 79.530 0.0000 29.596 47.056 8.3839
388 43.609 78.609 44.678 31.072 46.662 23.974
389 43.023 86.259 74.745 41.927 58.621 58.551
390 0.0000 16.984 78.155 12.107 6.8282 55.227
391 0.0000 27.618 87.753 16.485 10.705 71.733
392 44.251 25.965 92.682 24.702 14.362 81.174
393 47.148 30.773 100.00 29.302 17.578 96.400
394 36.361 0.0000 81.313 16.635 7.7666 60.164
395 58.835 29.078 80.444 26.818 16.661 59.944
396 72.421 30.645 91.078 37.895 22.369 78.969
397 25.876 66.085 0.0000 17.182 30.059 5.7571
398 23.518 89.586 0.0000 30.433 57.122 10.283
399 27.269 100.00 26.823 39.918 73.491 18.422
400 13.805 100.00 30.394 38.442 72.695 19.913
401 12.940 100.00 45.766 40.188 73.385 29.484
402 0.0000 88.220 22.679 28.400 54.589 13.843
403 0.0000 90.229 35.521 30.891 57.810 20.099
404 86.717 0.0000 56.883 35.625 18.267 29.059
405 100.00 13.680 62.728 48.700 25.746 36.180
406 100.00 21.906 73.748 52.217 28.436 50.747
407 100.00 76.200 12.463 61.254 60.487 10.647
408 100.00 88.314 14.391 68.868 75.598 13.534
409 100.00 88.029 65.212 75.189 77.816 47.785
410 64.582 50.465 0.0000 24.029 24.348 4.2940
411 75.924 54.534 0.0000 32.077 30.603 5.0774
412 87.601 57.141 0.0000 41.379 36.858 5.7949
413 86.549 61.177 37.377 44.262 40.537 17.149
414 86.225 71.472 57.085 51.901 51.310 34.787
415 0.0000 53.559 78.335 20.091 22.709 58.149
416 0.0000 64.010 79.619 24.683 31.280 61.568
417 28.247 63.573 94.862 32.313 34.325 88.895
418 74.306 44.236 67.520 35.110 26.377 42.841
419 77.180 53.236 67.161 39.732 33.012 43.423
420 100.00 66.107 72.219 64.381 53.418 52.774
421 50.638 70.139 34.324 27.638 38.179 15.815
422 62.859 73.182 36.427 34.875 44.232 17.791
423 62.804 77.700 54.173 39.959 50.279 32.326
424 25.882 74.670 56.688 26.569 40.789 33.684
425 32.553 77.893 63.589 31.139 45.676 41.957
426 67.461 89.497 69.496 53.255 67.885 52.462
427 75.155 93.811 72.650 61.754 76.768 58.021
428 20.800 0.0000 60.576 8.2694 4.0757 31.690
429 20.660 28.532 93.832 20.245 12.611 83.306
430 26.312 32.105 100.00 24.147 15.286 96.229
431 25.620 0.0000 33.016 4.7718 2.7606 9.4863
432 60.795 0.0000 32.340 15.914 8.5132 9.6628
433 60.659 23.035 55.111 20.584 12.829 27.027
434 62.202 34.123 56.069 23.363 16.973 28.630
435 92.692 75.731 70.003 62.280 59.728 51.085
436 100.00 89.709 87.834 82.823 82.721 82.286
437 0.0000 89.637 87.925 41.974 61.581 80.520
438 20.343 94.123 94.561 48.990 69.715 94.250
439 72.838 17.733 23.172 22.706 13.492 6.3776
440 76.074 18.445 31.675 25.494 14.956 10.069
441 85.688 26.997 33.537 33.517 20.689 11.706
442 88.334 34.475 0.0000 35.269 23.786 3.5935
443 87.347 78.894 0.0000 51.769 57.930 9.3151
444 88.140 84.764 30.900 57.408 66.061 17.874
445 92.738 100.00 79.334 81.402 93.776 70.194
446 100.00 100.00 87.773 90.533 98.171 84.753
447 0.0000 69.882 88.957 30.508 38.081 78.459
448 9.6025 74.639 100.00 37.557 44.944 101.25
449 19.753 77.982 100.00 40.379 49.197 101.92
450 58.895 84.760 100.00 55.705 63.273 103.83
451 69.456 91.603 100.00 65.863 75.438 105.64
452 0.0000 23.240 67.538 9.9556 7.0802 40.465
453 20.669 31.453 70.272 13.369 10.681 44.553
454 31.540 50.791 70.793 20.361 21.669 47.008
455 31.826 65.987 87.510 31.493 35.842 75.360
456 36.840 72.784 91.088 37.325 43.734 83.143
457 53.742 75.139 100.00 47.669 50.565 101.80
458 27.339 50.470 55.303 15.975 19.647 28.775
459 30.240 54.837 63.338 19.714 23.652 38.013
460 0.0000 25.164 23.701 3.6436 4.9763 5.9220
461 25.015 27.909 41.428 7.8785 7.5775 15.314
462 43.796 31.555 54.893 15.134 12.011 26.943
463 43.291 31.978 71.664 18.805 13.588 46.719
464 51.055 34.047 77.911 23.673 16.500 56.110
465 23.326 0.0000 45.712 5.9678 3.1966 17.696
466 28.639 0.0000 68.858 11.441 5.4907 41.782
467 28.498 24.191 72.358 14.004 9.2140 47.088
468 53.144 26.199 93.308 28.221 16.201 82.556
469 67.520 27.149 100.00 37.875 21.094 96.627
470 32.146 0.0000 54.824 9.1150 4.6437 25.771
471 88.474 58.539 74.879 51.919 42.034 55.018
472 100.00 60.916 82.508 65.057 49.996 67.722
473 52.867 69.919 0.0000 26.683 37.721 6.7356
474 61.107 71.626 18.673 31.754 41.572 9.9400
475 71.520 79.603 38.460 43.515 54.044 20.461
476 38.933 23.286 21.378 8.3640 7.0462 5.2986
477 45.117 29.787 25.863 11.534 10.112 7.3007
478 53.992 29.571 49.146 17.528 12.833 21.735
479 56.215 33.597 68.561 23.189 16.408 42.884
480 75.787 44.570 76.386 38.486 27.987 55.237
481 100.00 66.376 91.572 70.559 56.091 84.692
482 17.194 38.225 20.294 6.9058 10.320 5.6762
483 29.418 49.395 24.740 12.146 17.599 8.2866
484 27.768 84.448 24.516 28.579 50.954 13.777
485 48.296 88.665 25.217 36.987 59.449 15.235
486 64.354 91.781 24.279 46.180 67.447 15.947
487 92.653 94.001 32.160 67.609 80.827 20.808
488 93.774 94.298 68.916 75.002 84.247 53.712
489 69.270 27.899 41.492 23.675 15.719 16.098
490 70.531 28.820 50.483 25.898 16.934 23.239
491 68.398 33.323 70.534 29.730 19.642 45.773
492 75.384 33.574 79.628 36.522 22.925 59.345
