misc/ti3/video_eeColor.ti3
CTI3   

DESCRIPTOR "Argyll Calibration Target chart information 3"
ORIGINATOR "Argyll dispread"
CREATED "Sat Mar 14 19:00:55 2009"
KEYWORD "DEVICE_CLASS"
DEVICE_CLASS "DISPLAY"
KEYWORD "APPROX_WHITE_POINT"
APPROX_WHITE_POINT "95.045781 100.000003 108.905751"
KEYWORD "DARK_REGION_EMPHASIS"
DARK_REGION_EMPHASIS "1.6"
KEYWORD "ACCURATE_EXPECTED_VALUES"
ACCURATE_EXPECTED_VALUES "true"
KEYWORD "COLOR_REP"
COLOR_REP "RGB_XYZ"
KEYWORD "BLACK_COLOR_PATCHES"
BLACK_COLOR_PATCHES "4"
KEYWORD "COMP_GREY_STEPS"
COMP_GREY_STEPS "97"
KEYWORD "SINGLE_DIM_STEPS"
SINGLE_DIM_STEPS "33"
KEYWORD "WHITE_COLOR_PATCHES"
WHITE_COLOR_PATCHES "4"
KEYWORD "USE_BLACK_POINT_COMPENSATION"
USE_BLACK_POINT_COMPENSATION "NO"
KEYWORD "AUTO_OPTIMIZE"
AUTO_OPTIMIZE "9"
KEYWORD "3DLUT_SOURCE_PROFILE"
3DLUT_SOURCE_PROFILE "ref/Rec709.icm"
KEYWORD "3DLUT_GAMMA"
3DLUT_GAMMA "-2.4"
KEYWORD "3DLUT_DEGREE_OF_BLACK_OUTPUT_OFFSET"
3DLUT_DEGREE_OF_BLACK_OUTPUT_OFFSET "0.0"
KEYWORD "3DLUT_INPUT_ENCODING"
3DLUT_INPUT_ENCODING "t"
KEYWORD "3DLUT_OUTPUT_ENCODING"
3DLUT_OUTPUT_ENCODING "t"
KEYWORD "3DLUT_GAMUT_MAPPING_MODE"
3DLUT_GAMUT_MAPPING_MODE "G"
KEYWORD "3DLUT_RENDERING_INTENT"
3DLUT_RENDERING_INTENT "r"
KEYWORD "3DLUT_FORMAT"
3DLUT_FORMAT "eeColor"
KEYWORD "3DLUT_SIZE"
3DLUT_SIZE "65"

BEGIN_ARGYLL_COLPROF_ARGS
-qh -bl -ax -M "SII REPEATER"
END_ARGYLL_COLPROF_ARGS

NUMBER_OF_FIELDS 7
BEGIN_DATA_FORMAT
SAMPLE_ID RGB_R RGB_G RGB_B XYZ_X XYZ_Y XYZ_Z
END_DATA_FORMAT

NUMBER_OF_SETS 1399
BEGIN_DATA
1 100.0000000 100.0000000 100.0000000 95.04580000 100.0000000 108.9060000
2 36.18660000 40.25050000 29.03860000 10.43240000 12.41520000 8.082730000
3 75.62240000 56.57030000 28.01850000 33.62140000 32.37170000 10.24120000
4 82.79480000 56.83720000 43.69100000 40.46860000 35.84890000 20.10110000
5 19.47590000 14.15960000 0.000000000 1.614820000 1.553530000 0.214771000
6 20.94060000 9.655240000 0.000000000 1.533610000 1.101250000 0.131754000
7 21.64610000 0.000000000 9.880980000 1.535610000 0.778814000 0.651906000
8 64.49270000 50.86790000 23.72350000 24.56660000 24.58230000 7.448250000
9 78.94490000 73.49390000 36.37540000 44.63550000 49.75270000 17.48580000
10 0.000000000 15.10070000 0.000000000 0.559497000 1.119080000 0.186522000
11 0.000000000 9.493670000 0.000000000 0.201613000 0.403256000 0.067212600
12 11.29030000 0.000000000 0.000000000 0.340406000 0.175489000 0.015935900
13 13.15790000 0.000000000 0.000000000 0.476651000 0.245728000 0.022314200
14 13.21410000 8.186610000 0.000000000 0.626698000 0.539183000 0.071050300
15 6.646220000 6.646220000 6.646220000 0.244634000 0.257385000 0.280307000
16 9.493670000 9.493670000 9.493670000 0.535904000 0.563838000 0.614052000
17 15.10070000 0.000000000 0.000000000 0.645261000 0.332651000 0.030207600
18 17.12330000 0.000000000 0.000000000 0.850733000 0.438578000 0.039826700
19 19.23080000 0.000000000 0.000000000 1.098130000 0.566119000 0.051408600
20 21.42860000 0.000000000 0.000000000 1.393190000 0.718230000 0.065221500
21 23.72260000 0.000000000 0.000000000 1.742400000 0.898261000 0.081569800
22 26.11940000 0.000000000 0.000000000 2.153160000 1.110020000 0.100799000
23 28.62600000 0.000000000 0.000000000 2.633900000 1.357850000 0.123305000
24 31.25000000 0.000000000 0.000000000 3.194240000 1.646720000 0.149537000
25 34.00000000 0.000000000 0.000000000 3.845230000 1.982330000 0.180013000
26 36.88520000 0.000000000 0.000000000 4.599570000 2.371210000 0.215327000
27 39.91600000 0.000000000 0.000000000 5.471880000 2.820920000 0.256164000
28 43.10340000 0.000000000 0.000000000 6.479100000 3.340170000 0.303316000
29 46.46020000 0.000000000 0.000000000 7.640830000 3.939070000 0.357702000
30 50.00000000 0.000000000 0.000000000 8.979910000 4.629410000 0.420390000
31 53.73830000 0.000000000 0.000000000 10.52300000 5.424900000 0.492628000
32 57.69230000 0.000000000 0.000000000 12.30120000 6.341650000 0.575877000
33 61.88120000 0.000000000 0.000000000 14.35140000 7.398570000 0.671854000
34 66.32650000 0.000000000 0.000000000 16.71680000 8.618020000 0.782591000
35 71.05260000 0.000000000 0.000000000 19.44890000 10.02650000 0.910491000
36 76.08700000 0.000000000 0.000000000 22.60880000 11.65550000 1.058420000
37 81.46070000 0.000000000 0.000000000 26.26990000 13.54290000 1.229810000
38 87.20930000 0.000000000 0.000000000 30.52020000 15.73410000 1.428790000
39 93.37350000 0.000000000 0.000000000 35.46650000 18.28400000 1.660350000
40 100.0000000 0.000000000 0.000000000 41.23850000 21.25960000 1.930560000
41 13.02300000 15.75260000 0.000000000 1.079970000 1.468310000 0.226506000
42 10.68380000 10.68380000 10.68380000 0.694840000 0.731058000 0.796164000
43 4.491020000 0.000000000 0.000000000 0.044824300 0.023108300 0.002098430
44 7.201650000 7.201650000 7.201650000 0.291861000 0.307074000 0.334421000
45 0.000000000 1.445090000 0.000000000 0.003210470 0.006421420 0.001070290
46 0.000000000 2.941180000 0.000000000 0.015321700 0.030645700 0.005107870
47 0.000000000 4.491020000 0.000000000 0.038866600 0.077738900 0.012957100
48 7.763980000 7.763980000 7.763980000 0.344338000 0.362287000 0.394551000
49 0.000000000 13.15790000 0.000000000 0.413298000 0.826656000 0.137783000
50 0.000000000 17.12330000 0.000000000 0.737658000 1.475430000 0.245916000
51 0.000000000 19.23080000 0.000000000 0.952175000 1.904490000 0.317431000
52 0.000000000 21.42860000 0.000000000 1.208020000 2.416210000 0.402721000
53 0.000000000 23.72260000 0.000000000 1.510810000 3.021850000 0.503667000
54 0.000000000 26.11940000 0.000000000 1.866980000 3.734230000 0.622403000
55 0.000000000 28.62600000 0.000000000 2.283820000 4.567970000 0.761366000
56 0.000000000 31.25000000 0.000000000 2.769680000 5.539770000 0.923340000
57 0.000000000 34.00000000 0.000000000 3.334140000 6.668780000 1.111520000
58 0.000000000 36.88520000 0.000000000 3.988220000 7.977030000 1.329570000
59 0.000000000 39.91600000 0.000000000 4.744590000 9.489890000 1.581730000
60 0.000000000 43.10340000 0.000000000 5.617940000 11.23670000 1.872880000
61 0.000000000 46.46020000 0.000000000 6.625260000 13.25150000 2.208690000
62 0.000000000 50.00000000 0.000000000 7.786350000 15.57390000 2.595770000
63 0.000000000 53.73830000 0.000000000 9.124320000 18.25000000 3.041810000
64 0.000000000 57.69230000 0.000000000 10.66620000 21.33400000 3.555850000
65 0.000000000 61.88120000 0.000000000 12.44390000 24.88960000 4.148480000
66 0.000000000 66.32650000 0.000000000 14.49490000 28.99200000 4.832240000
67 0.000000000 71.05260000 0.000000000 16.86390000 33.73020000 5.621980000
68 0.000000000 76.08700000 0.000000000 19.60380000 39.21050000 6.535400000
69 0.000000000 81.46070000 0.000000000 22.77820000 45.55980000 7.593680000
70 0.000000000 87.20930000 0.000000000 26.46360000 52.93120000 8.822290000
71 0.000000000 93.37350000 0.000000000 30.75250000 61.50950000 10.25210000
72 0.000000000 100.0000000 0.000000000 35.75730000 71.51990000 11.92060000
73 28.34880000 100.0000000 70.37100000 46.66960000 76.18290000 55.93060000
74 67.98480000 100.0000000 74.26580000 62.78950000 84.37210000 62.15630000
75 83.59200000 100.0000000 74.15010000 72.91270000 89.59460000 62.46250000
76 100.0000000 100.0000000 79.29620000 87.83280000 97.11460000 70.92110000
77 9.863630000 9.892620000 0.000000000 0.473628000 0.571849000 0.085421100
78 0.000000000 0.000000000 2.941180000 0.007734280 0.003093910 0.040730200
79 0.000000000 0.000000000 4.491020000 0.019619500 0.007848320 0.103320000
80 0.000000000 0.000000000 6.097560000 0.038438800 0.015376500 0.202426000
81 0.000000000 0.000000000 13.15790000 0.208629000 0.083457100 1.098680000
82 0.000000000 0.000000000 17.12330000 0.372364000 0.148955000 1.960940000
83 0.000000000 0.000000000 19.23080000 0.480650000 0.192272000 2.531190000
84 0.000000000 0.000000000 21.42860000 0.609797000 0.243934000 3.211300000
85 0.000000000 0.000000000 23.72260000 0.762647000 0.305078000 4.016240000
86 0.000000000 0.000000000 26.11940000 0.942436000 0.376999000 4.963040000
87 0.000000000 0.000000000 28.62600000 1.152850000 0.461170000 6.071130000
88 0.000000000 0.000000000 31.25000000 1.398110000 0.559281000 7.362710000
89 0.000000000 0.000000000 34.00000000 1.683050000 0.673263000 8.863250000
90 0.000000000 0.000000000 36.88520000 2.013220000 0.805340000 10.60200000
91 0.000000000 0.000000000 39.91600000 2.395030000 0.958075000 12.61270000
92 0.000000000 0.000000000 43.10340000 2.835890000 1.134430000 14.93430000
93 0.000000000 0.000000000 46.46020000 3.344380000 1.337840000 17.61210000
94 0.000000000 0.000000000 50.00000000 3.930490000 1.572300000 20.69870000
95 0.000000000 0.000000000 53.73830000 4.605880000 1.842470000 24.25540000
96 0.000000000 0.000000000 66.32650000 7.316920000 2.926960000 38.53230000
97 0.000000000 0.000000000 71.05260000 8.512740000 3.405320000 44.82970000
98 0.000000000 0.000000000 76.08700000 9.895840000 3.958590000 52.11330000
99 0.000000000 0.000000000 81.46070000 11.49830000 4.599600000 60.55200000
100 0.000000000 0.000000000 87.20930000 13.35860000 5.343790000 70.34900000
101 0.000000000 0.000000000 93.37350000 15.52360000 6.209840000 81.75010000
102 0.000000000 0.000000000 100.0000000 18.05000000 7.220460000 95.05460000
103 55.83310000 0.000000000 79.89610000 22.46440000 10.30840000 58.55950000
104 65.71360000 65.46360000 80.69580000 41.72460000 41.11790000 64.77050000
105 0.000000000 16.36620000 11.20940000 0.814484000 1.394420000 0.994951000
106 11.90480000 11.90480000 11.90480000 0.881537000 0.927487000 1.010090000
107 7.763980000 0.000000000 0.000000000 0.149401000 0.077020800 0.006994160
108 0.000000000 7.763980000 0.000000000 0.129544000 0.259107000 0.043186600
109 0.000000000 0.000000000 7.763980000 0.065392700 0.026158800 0.344370000
110 0.000000000 6.097560000 0.000000000 0.076147800 0.152307000 0.025385700
111 6.097560000 0.000000000 0.000000000 0.087820400 0.045274000 0.004111270
112 0.000000000 0.000000000 1.445090000 0.001620620 0.000648290 0.008534490
113 0.476190000 0.476190000 0.476190000 0.000742788 0.000781505 0.000851104
114 0.957854000 0.957854000 0.957854000 0.003454370 0.003634430 0.003958100
115 1.445090000 1.445090000 1.445090000 0.008533690 0.008978510 0.009778110
116 9.493670000 0.000000000 0.000000000 0.232518000 0.119870000 0.010885200
117 1.937980000 1.937980000 1.937980000 0.016272000 0.017120200 0.018644900
118 0.000000000 0.000000000 9.493670000 0.101773000 0.040711700 0.535954000
119 2.436650000 2.436650000 2.436650000 0.026923800 0.028327200 0.030850000
120 2.941180000 2.941180000 2.941180000 0.040726400 0.042849200 0.046665300
121 3.451680000 3.451680000 3.451680000 0.057908400 0.060926800 0.066352800
122 3.968250000 3.968250000 3.968250000 0.078694900 0.082796800 0.090170500
123 4.491020000 4.491020000 4.491020000 0.103310000 0.108695000 0.118376000
124 5.020080000 5.020080000 5.020080000 0.131981000 0.138860000 0.151227000
125 0.000000000 0.000000000 11.29030000 0.148995000 0.059601800 0.784634000
126 5.555560000 5.555560000 5.555560000 0.164935000 0.173533000 0.188987000
127 6.097560000 6.097560000 6.097560000 0.202407000 0.212957000 0.231923000
128 8.333330000 8.333330000 8.333330000 0.402325000 0.423296000 0.460994000
129 12.52720000 12.52720000 12.52720000 0.986096000 1.037500000 1.129890000
130 13.15790000 13.15790000 13.15790000 1.098580000 1.155840000 1.258780000
131 13.79690000 13.79690000 13.79690000 1.219340000 1.282900000 1.397150000
132 14.44440000 14.44440000 14.44440000 1.348750000 1.419050000 1.545430000
133 15.76580000 15.76580000 15.76580000 1.635060000 1.720280000 1.873490000
134 16.43990000 16.43990000 16.43990000 1.792770000 1.886220000 2.054200000
135 17.12330000 17.12330000 17.12330000 1.960760000 2.062960000 2.246680000
136 17.81610000 17.81610000 17.81610000 2.139470000 2.250990000 2.451450000
137 18.51850000 18.51850000 18.51850000 2.329370000 2.450790000 2.669050000
138 19.23080000 19.23080000 19.23080000 2.530960000 2.662880000 2.900030000
139 19.95310000 19.95310000 19.95310000 2.744730000 2.887800000 3.144980000
140 20.68560000 20.68560000 20.68560000 2.971230000 3.126100000 3.404510000
141 21.42860000 21.42860000 21.42860000 3.211000000 3.378370000 3.679240000
142 22.18230000 22.18230000 22.18230000 3.464630000 3.645220000 3.969850000
143 23.72260000 23.72260000 23.72260000 4.015870000 4.225190000 4.601480000
144 24.50980000 24.50980000 24.50980000 4.314770000 4.539670000 4.943970000
145 25.30860000 25.30860000 25.30860000 4.630100000 4.871440000 5.305280000
146 26.11940000 26.11940000 26.11940000 4.962580000 5.221250000 5.686240000
147 26.94240000 26.94240000 26.94240000 5.312950000 5.589890000 6.087710000
148 27.77780000 27.77780000 27.77780000 5.682010000 5.978180000 6.510580000
149 28.62600000 28.62600000 28.62600000 6.070570000 6.386990000 6.955800000
150 29.48720000 29.48720000 29.48720000 6.479480000 6.817220000 7.424350000
151 30.36180000 30.36180000 30.36180000 6.909660000 7.269820000 7.917250000
152 31.25000000 31.25000000 31.25000000 7.362030000 7.745770000 8.435590000
153 32.15220000 32.15220000 32.15220000 7.837590000 8.246120000 8.980490000
154 33.06880000 33.06880000 33.06880000 8.337360000 8.771940000 9.553140000
155 34.00000000 34.00000000 34.00000000 8.862420000 9.324370000 10.15480000
156 34.94620000 34.94620000 34.94620000 9.413920000 9.904620000 10.78670000
157 35.90790000 35.90790000 35.90790000 9.993030000 10.51390000 11.45030000
158 36.88520000 36.88520000 36.88520000 10.60100000 11.15360000 12.14690000
159 37.87880000 37.87880000 37.87880000 11.23920000 11.82500000 12.87810000
160 38.88890000 38.88890000 38.88890000 11.90880000 12.52960000 13.64540000
161 39.91600000 39.91600000 39.91600000 12.61150000 13.26890000 14.45060000
162 40.96050000 40.96050000 40.96050000 13.34870000 14.04450000 15.29520000
163 42.02280000 42.02280000 42.02280000 14.12190000 14.85800000 16.18120000
164 43.10340000 43.10340000 43.10340000 14.93290000 15.71130000 17.11050000
165 44.20290000 44.20290000 44.20290000 15.78340000 16.60610000 18.08500000
166 45.32160000 45.32160000 45.32160000 16.67530000 17.54450000 19.10700000
167 46.46020000 46.46020000 46.46020000 17.61050000 18.52840000 20.17850000
168 47.61900000 47.61900000 47.61900000 18.59100000 19.56000000 21.30200000
169 48.79880000 48.79880000 48.79880000 19.61900000 20.64160000 22.47990000
170 50.00000000 50.00000000 50.00000000 20.69670000 21.77560000 23.71480000
171 51.22320000 51.22320000 51.22320000 21.82670000 22.96440000 25.00950000
172 52.46910000 52.46910000 52.46910000 23.01130000 24.21070000 26.36680000
173 53.73830000 53.73830000 53.73830000 24.25320000 25.51740000 27.78990000
174 55.03140000 55.03140000 55.03140000 25.55520000 26.88730000 29.28180000
175 56.34920000 56.34920000 56.34920000 26.92030000 28.32360000 30.84600000
176 57.69230000 57.69230000 57.69230000 28.35170000 29.82950000 32.48600000
177 59.06150000 59.06150000 59.06150000 29.85250000 31.40860000 34.20580000
178 60.45750000 60.45750000 60.45750000 31.42640000 33.06450000 36.00910000
179 61.88120000 61.88120000 61.88120000 33.07690000 34.80100000 37.90030000
180 63.33330000 63.33330000 63.33330000 34.80800000 36.62230000 39.88380000
181 64.81480000 64.81480000 64.81480000 36.62380000 38.53280000 41.96440000
182 66.32650000 66.32650000 66.32650000 38.52870000 40.53700000 44.14710000
183 67.86940000 67.86940000 67.86940000 40.52730000 42.63970000 46.43710000
184 69.44440000 69.44440000 69.44440000 42.62450000 44.84630000 48.84020000
185 71.05260000 71.05260000 71.05260000 44.82550000 47.16200000 51.36210000
186 72.69500000 72.69500000 72.69500000 47.13590000 49.59280000 54.00940000
187 74.37280000 74.37280000 74.37280000 49.56140000 52.14480000 56.78870000
188 76.08700000 76.08700000 76.08700000 52.10840000 54.82460000 59.70710000
189 77.83880000 77.83880000 77.83880000 54.78350000 57.63910000 62.77220000
190 79.62960000 79.62960000 79.62960000 57.59360000 60.59570000 65.99220000
191 81.46070000 81.46070000 81.46070000 60.54640000 63.70230000 69.37550000
192 83.33330000 83.33330000 83.33330000 63.64960000 66.96740000 72.93130000
193 85.24900000 85.24900000 85.24900000 66.91200000 70.39970000 76.66940000
194 87.20930000 87.20930000 87.20930000 70.34240000 74.00900000 80.60010000
195 89.21570000 89.21570000 89.21570000 73.95070000 77.80530000 84.73450000
196 91.26980000 91.26980000 91.26980000 77.74700000 81.79960000 89.08440000
197 100.0000000 100.0000000 91.96320000 92.00840000 98.78500000 92.91030000
198 100.0000000 81.60980000 76.74380000 74.19320000 71.03720000 62.66260000
199 100.0000000 84.45000000 86.88810000 79.14620000 75.87800000 79.93090000
200 10.94810000 0.000000000 9.601720000 0.422464000 0.205741000 0.564354000
201 0.000000000 0.000000000 15.10070000 0.282430000 0.112979000 1.487330000
202 0.000000000 10.33340000 22.67520000 0.933476000 0.762126000 3.717550000
203 29.91970000 0.000000000 42.70670000 5.681600000 2.608070000 14.76950000
204 44.35130000 0.000000000 67.30290000 14.45470000 6.579090000 40.11370000
205 49.52420000 69.01080000 78.69820000 35.26760000 40.43180000 61.81220000
206 23.75210000 70.09500000 0.000000000 18.11520000 33.63920000 5.538480000
207 53.09250000 71.70330000 0.000000000 27.45220000 39.69580000 6.215520000
208 100.0000000 85.42810000 33.11380000 68.11600000 72.47760000 18.72450000
209 100.0000000 91.35830000 69.54470000 78.67070000 83.13580000 54.46620000
210 46.72430000 20.89060000 43.02070000 11.70290000 7.402950000 15.61430000
211 66.90700000 19.55090000 51.63590000 22.24650000 12.44730000 23.34420000
212 0.000000000 0.000000000 57.69230000 5.384230000 2.153830000 28.35430000
213 0.000000000 45.59070000 80.88170000 17.67500000 17.24030000 61.72840000
214 0.000000000 62.98100000 84.26860000 25.32340000 30.82840000 69.54960000
215 0.000000000 45.08500000 59.05490000 11.86950000 14.67140000 31.91550000
216 0.000000000 64.62960000 71.11170000 22.22020000 30.79730000 49.47620000
217 0.000000000 52.38060000 57.51790000 13.97350000 19.39080000 31.04160000
218 0.000000000 69.86820000 68.43220000 24.08930000 35.64120000 46.69180000
219 0.000000000 70.48080000 100.0000000 34.61680000 40.35660000 100.5780000
220 0.000000000 79.35790000 100.0000000 39.55510000 50.23390000 102.2240000
221 0.000000000 88.78420000 100.0000000 45.57600000 62.27660000 104.2310000
222 0.000000000 41.38020000 31.03300000 6.512640000 10.82310000 8.962870000
223 0.000000000 58.32010000 30.07070000 12.20790000 22.36190000 10.40700000
224 47.77500000 37.97340000 0.000000000 12.37600000 12.69220000 1.797710000
225 61.25000000 46.87190000 0.000000000 20.78650000 20.74470000 2.908840000
226 70.64520000 60.11200000 0.000000000 30.87940000 33.25200000 4.791160000
227 83.29470000 84.23340000 0.000000000 52.10640000 63.26250000 9.465270000
228 65.23390000 68.26600000 0.000000000 31.56060000 39.19800000 5.902970000
229 68.39920000 78.31160000 14.21970000 39.02120000 51.09640000 9.103550000
230 74.32500000 100.0000000 38.72730000 59.47160000 83.48650000 24.72720000
231 79.58850000 100.0000000 84.97470000 73.33500000 89.43500000 79.53460000
232 0.000000000 18.62310000 21.20980000 1.483450000 2.013140000 3.435440000
233 0.000000000 25.31750000 31.72670000 3.188680000 4.064940000 8.193120000
234 0.000000000 34.90900000 45.97710000 6.801720000 8.374630000 18.38980000
235 68.27620000 43.77400000 49.31960000 27.44230000 22.33530000 22.85580000
236 76.82380000 70.03830000 53.78700000 44.04710000 46.43160000 30.83190000
237 0.000000000 32.92980000 28.79140000 4.275250000 6.682900000 7.184590000
238 0.000000000 73.75240000 63.54720000 24.96480000 39.27720000 41.17270000
239 0.000000000 100.0000000 77.27440000 45.99600000 75.61560000 65.83920000
240 0.000000000 100.0000000 88.30430000 49.48760000 77.01240000 84.22670000
241 0.000000000 100.0000000 100.0000000 53.80730000 78.74040000 106.9750000
242 0.000000000 39.39160000 61.53190000 10.81250000 11.69960000 34.20710000
243 0.000000000 44.09460000 100.0000000 23.95600000 19.03330000 97.02350000
244 0.000000000 52.35390000 100.0000000 26.66540000 24.45240000 97.92680000
245 0.000000000 61.07990000 100.0000000 30.14230000 31.40680000 99.08590000
246 0.000000000 0.000000000 0.000000000 0.000000000 0.000000000 0.000000000
247 41.54630000 0.000000000 12.81390000 6.172290000 3.159260000 1.316250000
248 70.31060000 0.000000000 23.65710000 19.76310000 10.10090000 4.881600000
249 84.78780000 0.000000000 47.23920000 32.15640000 16.17690000 19.61110000
250 100.0000000 0.000000000 52.92420000 45.69230000 23.04130000 25.38520000
251 100.0000000 0.000000000 63.08060000 47.79090000 23.88080000 36.43710000
252 100.0000000 0.000000000 86.90030000 54.49320000 26.56190000 71.73250000
253 68.22890000 19.45920000 60.43860000 24.73070000 13.51140000 32.56630000
254 48.72460000 0.000000000 34.30220000 10.20000000 5.060170000 9.434580000
255 53.83400000 0.000000000 45.04880000 13.68920000 6.696250000 16.95140000
256 67.68530000 0.000000000 45.44390000 20.66480000 10.28540000 17.59420000
257 81.86040000 0.000000000 57.65320000 31.93040000 15.84010000 29.55520000
258 85.37840000 0.000000000 88.42760000 42.90120000 20.52610000 73.89210000
259 35.12170000 51.67870000 44.44730000 15.53660000 20.08960000 18.96210000
260 35.46710000 50.54140000 54.26730000 16.89880000 20.00510000 27.63910000
261 35.06590000 58.32980000 61.56210000 21.25310000 26.46190000 36.54150000
262 37.98160000 74.68580000 93.19550000 39.18280000 46.35280000 87.91110000
263 64.46880000 83.77100000 100.0000000 57.97760000 63.76650000 103.8650000
264 78.79220000 83.70940000 100.0000000 66.64850000 68.17850000 104.2600000
265 100.0000000 91.11700000 100.0000000 88.43020000 86.76780000 106.7000000
266 24.52780000 0.000000000 30.82510000 3.231760000 1.509370000 7.232100000
267 26.78640000 0.000000000 70.09100000 10.53740000 4.478100000 43.61270000
268 32.26250000 0.000000000 100.0000000 21.47630000 8.986810000 95.21500000
269 41.60570000 26.46420000 100.0000000 25.96590000 14.15420000 95.97590000
270 43.49310000 55.64040000 100.0000000 34.50830000 30.32830000 98.64760000
271 49.41410000 69.26280000 100.0000000 42.74380000 43.62120000 100.7790000
272 87.38650000 68.53030000 100.0000000 64.28200000 54.17770000 101.6820000
273 100.0000000 70.32150000 100.0000000 75.77310000 61.45180000 102.4810000
274 57.05340000 10.24880000 17.93840000 12.65460000 6.830390000 2.813580000
275 81.57000000 0.000000000 14.12310000 26.59130000 13.68040000 2.517210000
276 100.0000000 100.0000000 53.18250000 81.49750000 94.58040000 37.55820000
277 23.05960000 26.79320000 0.000000000 3.611640000 4.793350000 0.734901000
278 34.13740000 29.37270000 0.000000000 6.296380000 6.834130000 0.987346000
279 32.55640000 80.25540000 32.30620000 27.04300000 46.49410000 15.43350000
280 58.17970000 100.0000000 36.82360000 50.29410000 78.78240000 23.07030000
281 83.54270000 100.0000000 54.40440000 68.25880000 87.72880000 38.14210000
282 89.27070000 100.0000000 66.01880000 75.12900000 90.98060000 51.56490000
283 66.72690000 72.46480000 50.02420000 38.48400000 45.52900000 27.38440000
284 100.0000000 87.27330000 56.80130000 72.94790000 76.35770000 38.16730000
285 57.75510000 51.51830000 31.22700000 22.04240000 23.54810000 10.70030000
286 100.0000000 53.93300000 31.98570000 51.90720000 40.24400000 12.74600000
287 100.0000000 64.63140000 35.47410000 56.77890000 49.38620000 16.22570000
288 100.0000000 67.54200000 48.16870000 59.94480000 52.88140000 26.02760000
289 50.82600000 34.81090000 23.64250000 13.57790000 12.12570000 5.592940000
290 74.50760000 34.78060000 23.70110000 25.85550000 18.44470000 6.187360000
291 74.80590000 60.99490000 100.0000000 51.88550000 42.56120000 100.0930000
292 75.51760000 71.74190000 100.0000000 57.51420000 53.13900000 101.8380000
293 0.000000000 70.77200000 33.60510000 18.35810000 34.09410000 14.21170000
