DisplayCAL/ti1/d3-e4-s9-g52-m9-b0-f0.ti1
CTI1   

DESCRIPTOR "Argyll Calibration Target chart information 1"
ORIGINATOR "Argyll targen"
CREATED "Thu Aug 31 12:31:37 2017"
APPROX_WHITE_POINT "95.106486 100.000000 108.844025"
COLOR_REP "RGB"
WHITE_COLOR_PATCHES "4"
BLACK_COLOR_PATCHES "4"
SINGLE_DIM_STEPS "9"
COMP_GREY_STEPS "52"
MULTI_DIM_STEPS "9"

NUMBER_OF_FIELDS 7
BEGIN_DATA_FORMAT
SAMPLE_ID RGB_R RGB_G RGB_B XYZ_X XYZ_Y XYZ_Z
END_DATA_FORMAT

NUMBER_OF_SETS 778
BEGIN_DATA
1 100.00 100.00 100.00 95.106 100.00 108.84
2 87.500 100.00 100.00 84.443 94.502 108.34
3 100.00 100.00 100.00 95.106 100.00 108.84
4 100.00 100.00 100.00 95.106 100.00 108.84
5 0.0000 0.0000 0.0000 1.0000 1.0000 1.0000
6 0.0000 0.0000 0.0000 1.0000 1.0000 1.0000
7 0.0000 0.0000 0.0000 1.0000 1.0000 1.0000
8 0.0000 0.0000 0.0000 1.0000 1.0000 1.0000
9 12.500 0.0000 0.0000 1.5859 1.3021 1.0275
10 25.000 0.0000 0.0000 3.0773 2.0711 1.0973
11 37.500 0.0000 0.0000 5.7370 3.4424 1.2220
12 50.000 0.0000 0.0000 9.7393 5.5060 1.4095
13 62.500 0.0000 0.0000 15.230 8.3369 1.6668
14 75.000 0.0000 0.0000 22.335 12.000 1.9997
15 87.500 0.0000 0.0000 31.167 16.554 2.4136
16 100.00 0.0000 0.0000 41.830 22.052 2.9132
17 100.00 12.500 12.500 42.595 23.171 4.4333
18 100.00 12.500 25.000 43.247 23.432 7.8715
19 100.00 25.000 25.000 44.541 26.018 8.3026
20 100.00 37.500 25.000 46.847 30.630 9.0713
21 100.00 50.000 25.000 50.318 37.570 10.228
22 100.00 62.500 25.000 55.078 47.090 11.815
23 100.00 75.000 25.000 61.239 59.411 13.869
24 100.00 87.500 25.000 68.898 74.726 16.422
25 0.0000 0.0000 12.500 1.2564 1.1026 2.3507
26 0.0000 0.0000 25.000 1.9092 1.3636 5.7889
27 0.0000 0.0000 37.500 3.0733 1.8292 11.920
28 0.0000 0.0000 50.000 4.8252 2.5298 21.147
29 0.0000 0.0000 62.500 7.2283 3.4909 33.805
30 0.0000 0.0000 75.000 10.338 4.7346 50.184
31 0.0000 0.0000 87.500 14.204 6.2808 70.547
32 0.0000 0.0000 100.00 18.871 8.1473 95.129
33 1.9608 1.9608 1.9608 1.1428 1.1502 1.1637
34 3.9216 3.9216 3.9216 1.2856 1.3005 1.3273
35 5.8824 5.8824 5.8824 1.4495 1.4729 1.5152
36 7.8431 7.8431 7.8431 1.6583 1.6925 1.7544
37 9.8039 9.8039 9.8039 1.9148 1.9624 2.0484
38 11.765 11.765 11.765 2.2218 2.2853 2.4001
39 13.726 13.726 13.726 2.5817 2.6639 2.8126
40 15.686 15.686 15.686 2.9968 3.1007 3.2883
41 17.647 17.647 17.647 3.4695 3.5979 3.8300
42 19.608 19.608 19.608 4.0016 4.1577 4.4398
43 21.569 21.569 21.569 4.5953 4.7822 5.1201
44 23.529 23.529 23.529 5.2523 5.4734 5.8731
45 25.490 25.490 25.490 5.9745 6.2332 6.7007
46 27.451 27.451 27.451 6.7637 7.0634 7.6050
47 29.412 29.412 29.412 7.6213 7.9656 8.5879
48 31.373 31.373 31.373 8.5492 8.9418 9.6512
49 33.333 33.333 33.333 9.5488 9.9933 10.797
50 35.294 35.294 35.294 10.622 11.122 12.026
51 39.216 39.216 39.216 12.993 13.616 14.743
52 41.176 41.176 41.176 14.294 14.985 16.234
53 43.137 43.137 43.137 15.674 16.437 17.816
54 45.098 45.098 45.098 17.134 17.973 19.489
55 47.059 47.059 47.059 18.675 19.594 21.255
56 49.020 49.020 49.020 20.299 21.303 23.117
57 50.980 50.980 50.980 22.007 23.100 25.074
58 52.941 52.941 52.941 23.800 24.986 27.129
59 54.902 54.902 54.902 25.679 26.963 29.282
60 56.863 56.863 56.863 27.646 29.032 31.536
61 58.824 58.824 58.824 29.701 31.194 33.891
62 60.784 60.784 60.784 31.846 33.450 36.349
63 62.745 62.745 62.745 34.081 35.802 38.911
64 64.706 64.706 64.706 36.409 38.250 41.578
65 66.667 66.667 66.667 38.829 40.796 44.351
66 68.627 68.627 68.627 41.343 43.440 47.232
67 70.588 70.588 70.588 43.951 46.185 50.221
68 72.549 72.549 72.549 46.656 49.030 53.321
69 74.510 74.510 74.510 49.457 51.977 56.531
70 76.471 76.471 76.471 52.356 55.027 59.853
71 78.431 78.431 78.431 55.354 58.180 63.289
72 80.392 80.392 80.392 58.452 61.439 66.838
73 82.353 82.353 82.353 61.650 64.803 70.503
74 84.314 84.314 84.314 64.949 68.275 74.285
75 86.275 86.275 86.275 68.351 71.854 78.183
76 88.235 88.235 88.235 71.857 75.541 82.200
77 90.196 90.196 90.196 75.466 79.338 86.337
78 92.157 92.157 92.157 79.181 83.246 90.594
79 94.118 94.118 94.118 83.001 87.265 94.972
80 96.078 96.078 96.078 86.929 91.397 99.472
81 98.039 98.039 98.039 90.963 95.641 104.10
82 12.500 12.500 0.0000 2.0940 2.3181 1.1968
83 25.000 12.500 0.0000 3.5853 3.0870 1.2667
84 37.500 12.500 0.0000 6.2450 4.4584 1.3913
85 50.000 12.500 0.0000 10.247 6.5220 1.5789
86 62.500 12.500 0.0000 15.738 9.3529 1.8361
87 75.000 12.500 0.0000 22.843 13.016 2.1691
88 87.500 12.500 0.0000 31.675 17.570 2.5829
89 100.00 12.500 0.0000 42.338 23.068 3.0826
90 100.00 25.000 0.0000 43.631 25.654 3.5137
91 25.000 25.000 0.0000 4.8786 5.6731 1.6978
92 37.500 25.000 0.0000 7.5382 7.0444 1.8224
93 50.000 25.000 0.0000 11.541 9.1081 2.0099
94 62.500 25.000 0.0000 17.031 11.939 2.2672
95 75.000 25.000 0.0000 24.136 15.602 2.6001
96 87.500 25.000 0.0000 32.968 20.156 3.0140
97 100.00 25.000 12.500 43.888 25.757 4.8644
98 12.500 37.500 0.0000 5.6935 9.5161 2.3967
99 25.000 37.500 0.0000 7.1849 10.285 2.4665
100 37.500 37.500 0.0000 9.8445 11.656 2.5912
101 50.000 37.500 0.0000 13.847 13.720 2.7787
102 62.500 37.500 0.0000 19.337 16.551 3.0360
103 75.000 37.500 0.0000 26.442 20.214 3.3689
104 87.500 37.500 0.0000 35.275 24.768 3.7828
105 100.00 37.500 0.0000 45.938 30.266 4.2824
106 12.500 50.000 0.0000 9.1641 16.456 3.5535
107 25.000 50.000 0.0000 10.655 17.225 3.6234
108 37.500 50.000 0.0000 13.315 18.597 3.7480
109 50.000 50.000 0.0000 17.318 20.660 3.9356
110 62.500 50.000 0.0000 22.808 23.491 4.1929
111 75.000 50.000 0.0000 29.913 27.154 4.5258
112 87.500 50.000 0.0000 38.745 31.709 4.9397
113 100.00 50.000 0.0000 49.408 37.206 5.4393
114 12.500 62.500 0.0000 13.925 25.977 5.1405
115 25.000 62.500 0.0000 15.416 26.746 5.2104
116 37.500 62.500 0.0000 18.076 28.117 5.3350
117 50.000 62.500 0.0000 22.078 30.181 5.5226
118 62.500 62.500 0.0000 27.569 33.012 5.7798
119 75.000 62.500 0.0000 34.674 36.675 6.1128
120 87.500 62.500 0.0000 43.506 41.229 6.5266
121 87.500 62.500 12.500 43.763 41.332 7.8774
122 12.500 75.000 0.0000 20.086 38.297 7.1942
123 25.000 75.000 0.0000 21.577 39.066 7.2641
124 37.500 75.000 0.0000 24.237 40.437 7.3887
125 50.000 75.000 0.0000 28.239 42.501 7.5762
126 62.500 75.000 0.0000 33.730 45.332 7.8335
127 75.000 75.000 0.0000 40.835 48.995 8.1664
128 87.500 75.000 0.0000 49.667 53.549 8.5803
129 87.500 75.000 12.500 49.924 53.652 9.9310
130 12.500 87.500 0.0000 27.745 53.613 9.7472
131 25.000 87.500 0.0000 29.236 54.382 9.8171
132 37.500 87.500 0.0000 31.896 55.753 9.9417
133 50.000 87.500 0.0000 35.898 57.817 10.129
134 62.500 87.500 0.0000 41.389 60.647 10.386
135 75.000 87.500 0.0000 48.494 64.311 10.719
136 87.500 87.500 0.0000 57.326 68.865 11.133
137 87.500 87.500 12.500 57.583 68.967 12.484
138 12.500 100.00 0.0000 36.991 72.103 12.829
139 25.000 100.00 0.0000 38.482 72.872 12.899
140 37.500 100.00 0.0000 41.142 74.243 13.024
141 50.000 100.00 0.0000 45.145 76.307 13.211
142 62.500 100.00 0.0000 50.635 79.137 13.469
143 75.000 100.00 0.0000 57.740 82.801 13.802
144 87.500 100.00 0.0000 66.572 87.355 14.215
145 87.500 100.00 12.500 66.829 87.457 15.566
146 87.500 100.00 25.000 67.482 87.718 19.004
147 25.000 0.0000 12.500 3.3337 2.1736 2.4481
148 37.500 0.0000 12.500 5.9934 3.5450 2.5727
149 50.000 0.0000 12.500 9.9958 5.6086 2.7602
150 62.500 0.0000 12.500 15.486 8.4395 3.0175
151 75.000 0.0000 12.500 22.591 12.103 3.3504
152 87.500 0.0000 12.500 31.424 16.657 3.7643
153 100.00 0.0000 12.500 42.087 22.155 4.2640
154 100.00 0.0000 25.000 42.739 22.416 7.7021
155 100.00 0.0000 37.500 43.904 22.881 13.834
156 25.000 12.500 12.500 3.8418 3.1896 2.6174
157 37.500 12.500 12.500 6.5015 4.5609 2.7421
158 50.000 12.500 12.500 10.504 6.6246 2.9296
159 62.500 12.500 12.500 15.994 9.4554 3.1869
160 75.000 12.500 12.500 23.099 13.119 3.5198
161 87.500 12.500 12.500 31.932 17.673 3.9337
162 100.00 12.500 37.500 44.412 23.897 14.003
163 12.500 25.000 0.0000 3.3872 4.9041 1.6279
164 12.500 25.000 12.500 3.6436 5.0067 2.9786
165 25.000 25.000 12.500 5.1350 5.7757 3.0485
166 37.500 25.000 12.500 7.7947 7.1470 3.1731
167 50.000 25.000 12.500 11.797 9.2106 3.3607
168 62.500 25.000 12.500 17.287 12.042 3.6179
169 75.000 25.000 12.500 24.392 15.705 3.9509
170 87.500 25.000 12.500 33.225 20.259 4.3647
171 87.500 25.000 25.000 33.878 20.520 7.8029
172 0.0000 37.500 12.500 5.3640 9.3166 3.7199
173 12.500 37.500 12.500 5.9499 9.6187 3.7474
174 25.000 37.500 12.500 7.4413 10.388 3.8173
175 37.500 37.500 12.500 10.101 11.759 3.9419
176 50.000 37.500 12.500 14.103 13.823 4.1295
177 62.500 37.500 12.500 19.594 16.653 4.3867
178 75.000 37.500 12.500 26.699 20.317 4.7196
179 87.500 37.500 12.500 35.531 24.871 5.1335
180 100.00 37.500 12.500 46.194 30.369 5.6332
181 0.0000 50.000 12.500 8.8346 16.257 4.8768
182 12.500 50.000 12.500 9.4205 16.559 4.9043
183 25.000 50.000 12.500 10.912 17.328 4.9742
184 37.500 50.000 12.500 13.572 18.699 5.0988
185 50.000 50.000 12.500 17.574 20.763 5.2863
186 62.500 50.000 12.500 23.064 23.594 5.5436
187 75.000 50.000 12.500 30.169 27.257 5.8765
188 87.500 50.000 12.500 39.002 31.811 6.2904
189 100.00 50.000 12.500 49.665 37.309 6.7900
190 0.0000 62.500 12.500 13.596 25.777 6.4638
191 12.500 62.500 12.500 14.181 26.079 6.4913
192 25.000 62.500 12.500 15.673 26.848 6.5611
193 37.500 62.500 12.500 18.332 28.220 6.6858
194 50.000 62.500 12.500 22.335 30.283 6.8733
195 62.500 62.500 12.500 27.825 33.114 7.1306
196 75.000 62.500 12.500 34.930 36.777 7.4635
197 100.00 62.500 0.0000 54.169 46.727 7.0263
198 100.00 62.500 12.500 54.426 46.829 8.3770
199 0.0000 75.000 12.500 19.756 38.097 8.5175
200 12.500 75.000 12.500 20.342 38.399 8.5449
201 25.000 75.000 12.500 21.834 39.168 8.6148
202 37.500 75.000 12.500 24.493 40.540 8.7394
203 50.000 75.000 12.500 28.496 42.603 8.9270
204 62.500 75.000 12.500 33.986 45.434 9.1842
205 75.000 75.000 12.500 41.091 49.098 9.5172
206 100.00 75.000 0.0000 60.330 59.047 9.0799
207 100.00 75.000 12.500 60.587 59.150 10.431
208 0.0000 87.500 12.500 27.415 53.413 11.070
209 12.500 87.500 12.500 28.001 53.715 11.098
210 25.000 87.500 12.500 29.493 54.484 11.168
211 37.500 87.500 12.500 32.152 55.856 11.292
212 50.000 87.500 12.500 36.155 57.919 11.480
213 62.500 87.500 12.500 41.645 60.750 11.737
214 75.000 87.500 12.500 48.750 64.413 12.070
215 100.00 87.500 0.0000 67.989 74.363 11.633
216 100.00 87.500 12.500 68.246 74.465 12.984
217 0.0000 100.00 12.500 36.662 71.903 14.153
218 12.500 100.00 12.500 37.248 72.205 14.180
219 25.000 100.00 12.500 38.739 72.974 14.250
220 37.500 100.00 12.500 41.399 74.345 14.375
221 50.000 100.00 12.500 45.401 76.409 14.562
222 62.500 100.00 12.500 50.891 79.240 14.819
223 75.000 100.00 12.500 57.996 82.903 15.152
224 100.00 100.00 0.0000 77.235 92.853 14.715
225 100.00 100.00 12.500 77.492 92.955 16.066
226 100.00 100.00 25.000 78.145 93.216 19.504
227 25.000 0.0000 25.000 3.9865 2.4347 5.8863
228 37.500 0.0000 25.000 6.6462 3.8060 6.0109
229 50.000 0.0000 25.000 10.649 5.8697 6.1984
230 62.500 0.0000 25.000 16.139 8.7005 6.4557
231 75.000 0.0000 25.000 23.244 12.364 6.7886
232 87.500 0.0000 25.000 32.076 16.918 7.2025
233 87.500 12.500 25.000 32.584 17.934 7.3718
234 12.500 12.500 25.000 3.0032 2.6817 5.9857
235 25.000 12.500 25.000 4.4946 3.4507 6.0556
236 37.500 12.500 25.000 7.1542 4.8220 6.1802
237 50.000 12.500 25.000 11.157 6.8856 6.3678
238 62.500 12.500 25.000 16.647 9.7165 6.6250
239 75.000 12.500 25.000 23.752 13.380 6.9580
240 75.000 25.000 25.000 25.045 15.966 7.3890
241 0.0000 25.000 12.500 3.0577 4.7046 2.9512
242 0.0000 25.000 25.000 3.7105 4.9657 6.3893
243 12.500 25.000 25.000 4.2964 5.2678 6.4168
244 37.500 25.000 25.000 8.4474 7.4081 6.6113
245 50.000 25.000 25.000 12.450 9.4717 6.7989
246 62.500 25.000 25.000 17.940 12.303 7.0561
247 0.0000 12.500 0.0000 1.5081 2.0160 1.1694
248 0.0000 25.000 0.0000 2.8013 4.6021 1.6004
249 0.0000 37.500 0.0000 5.1076 9.2140 2.3692
250 0.0000 37.500 25.000 6.0168 9.5776 7.1581
251 12.500 37.500 25.000 6.6027 9.8797 7.1856
252 25.000 37.500 25.000 8.0941 10.649 7.2555
253 37.500 37.500 25.000 10.754 12.020 7.3801
254 50.000 37.500 25.000 14.756 14.084 7.5676
255 62.500 37.500 25.000 20.247 16.915 7.8249
256 75.000 37.500 25.000 27.351 20.578 8.1578
257 87.500 37.500 25.000 36.184 25.132 8.5717
258 0.0000 50.000 0.0000 8.5782 16.154 3.5261
259 0.0000 50.000 25.000 9.4874 16.518 8.3150
260 12.500 50.000 25.000 10.073 16.820 8.3424
261 25.000 50.000 25.000 11.565 17.589 8.4123
262 37.500 50.000 25.000 14.224 18.960 8.5370
263 50.000 50.000 25.000 18.227 21.024 8.7245
264 62.500 50.000 25.000 23.717 23.855 8.9818
265 75.000 50.000 25.000 30.822 27.518 9.3147
266 87.500 50.000 25.000 39.655 32.072 9.7286
267 0.0000 62.500 0.0000 13.339 25.675 5.1131
268 0.0000 62.500 25.000 14.248 26.038 9.9020
269 12.500 62.500 25.000 14.834 26.340 9.9294
270 25.000 62.500 25.000 16.326 27.109 9.9993
271 37.500 62.500 25.000 18.985 28.481 10.124
272 50.000 62.500 25.000 22.988 30.544 10.311
273 62.500 62.500 25.000 28.478 33.375 10.569
274 75.000 62.500 25.000 35.583 37.039 10.902
275 87.500 62.500 25.000 44.415 41.593 11.316
276 0.0000 75.000 0.0000 19.500 37.995 7.1667
277 0.0000 75.000 25.000 20.409 38.358 11.956
278 12.500 75.000 25.000 20.995 38.661 11.983
279 25.000 75.000 25.000 22.486 39.429 12.053
280 37.500 75.000 25.000 25.146 40.801 12.178
281 50.000 75.000 25.000 29.149 42.864 12.365
282 62.500 75.000 25.000 34.639 45.695 12.622
283 75.000 75.000 25.000 41.744 49.359 12.955
284 87.500 75.000 25.000 50.576 53.913 13.369
285 0.0000 87.500 0.0000 27.159 53.311 9.7197
286 0.0000 87.500 25.000 28.068 53.674 14.509
287 12.500 87.500 25.000 28.654 53.976 14.536
288 25.000 87.500 25.000 30.145 54.745 14.606
289 37.500 87.500 25.000 32.805 56.117 14.731
290 50.000 87.500 25.000 36.807 58.180 14.918
291 62.500 87.500 25.000 42.298 61.011 15.175
292 75.000 87.500 25.000 49.403 64.674 15.508
293 87.500 87.500 25.000 58.235 69.228 15.922
294 0.0000 100.00 0.0000 36.405 71.801 12.802
295 0.0000 100.00 25.000 37.314 72.164 17.591
296 12.500 100.00 25.000 37.900 72.466 17.618
297 25.000 100.00 25.000 39.392 73.235 17.688
298 37.500 100.00 25.000 42.051 74.607 17.813
299 50.000 100.00 25.000 46.054 76.670 18.000
300 62.500 100.00 25.000 51.544 79.501 18.258
301 75.000 100.00 25.000 58.649 83.164 18.590
302 12.500 0.0000 12.500 1.8424 1.4047 2.3782
303 12.500 0.0000 25.000 2.4951 1.6657 5.8164
304 12.500 0.0000 37.500 3.6592 2.1313 11.948
305 25.000 0.0000 37.500 5.1506 2.9003 12.018
306 37.500 0.0000 37.500 7.8103 4.2716 12.142
307 50.000 0.0000 37.500 11.813 6.3352 12.330
308 62.500 0.0000 37.500 17.303 9.1661 12.587
309 75.000 0.0000 37.500 24.408 12.829 12.920
310 87.500 0.0000 37.500 33.240 17.383 13.334
311 87.500 12.500 37.500 33.749 18.399 13.503
312 0.0000 12.500 37.500 3.5814 2.8452 12.090
313 12.500 12.500 37.500 4.1673 3.1473 12.117
314 25.000 12.500 37.500 5.6587 3.9162 12.187
315 37.500 12.500 37.500 8.3184 5.2876 12.312
316 50.000 12.500 37.500 12.321 7.3512 12.499
317 62.500 12.500 37.500 17.811 10.182 12.757
318 75.000 12.500 37.500 24.916 13.845 13.090
319 0.0000 12.500 12.500 1.7645 2.1185 2.5201
320 0.0000 12.500 25.000 2.4173 2.3796 5.9583
321 0.0000 25.000 37.500 4.8746 5.4313 12.521
322 12.500 25.000 37.500 5.4605 5.7334 12.548
323 25.000 25.000 37.500 6.9519 6.5023 12.618
324 37.500 25.000 37.500 9.6116 7.8736 12.743
325 50.000 25.000 37.500 13.614 9.9373 12.930
326 62.500 25.000 37.500 19.104 12.768 13.188
327 75.000 25.000 37.500 26.209 16.431 13.521
328 87.500 25.000 37.500 35.042 20.986 13.934
329 100.00 25.000 37.500 45.705 26.483 14.434
330 0.0000 37.500 37.500 7.1809 10.043 13.290
331 12.500 37.500 37.500 7.7668 10.345 13.317
332 25.000 37.500 37.500 9.2582 11.114 13.387
333 37.255 37.255 37.255 11.769 12.329 13.341
334 50.000 37.500 37.500 15.920 14.549 13.699
335 62.500 37.500 37.500 21.411 17.380 13.956
336 75.000 37.500 37.500 28.516 21.043 14.289
337 87.500 37.500 37.500 37.348 25.597 14.703
338 100.00 37.500 37.500 48.011 31.095 15.203
339 0.0000 50.000 37.500 10.652 16.983 14.447
340 12.500 50.000 37.500 11.237 17.286 14.474
341 25.000 50.000 37.500 12.729 18.054 14.544
342 37.500 50.000 37.500 15.388 19.426 14.669
343 50.000 50.000 37.500 19.391 21.489 14.856
344 62.500 50.000 37.500 24.881 24.320 15.113
345 75.000 50.000 37.500 31.986 27.984 15.446
346 87.500 50.000 37.500 40.819 32.538 15.860
347 100.00 50.000 37.500 51.482 38.036 16.360
348 0.0000 62.500 37.500 15.412 26.504 16.034
349 12.500 62.500 37.500 15.998 26.806 16.061
350 25.000 62.500 37.500 17.490 27.575 16.131
351 37.500 62.500 37.500 20.149 28.946 16.256
352 50.000 62.500 37.500 24.152 31.010 16.443
353 62.500 62.500 37.500 29.642 33.841 16.700
354 75.000 62.500 37.500 36.747 37.504 17.033
355 87.500 62.500 37.500 45.580 42.058 17.447
356 100.00 62.500 37.500 56.243 47.556 17.947
357 0.0000 75.000 37.500 21.573 38.824 18.087
358 12.500 75.000 37.500 22.159 39.126 18.115
359 25.000 75.000 37.500 23.651 39.895 18.185
360 37.500 75.000 37.500 26.310 41.266 18.309
361 50.000 75.000 37.500 30.313 43.330 18.497
362 62.500 75.000 37.500 35.803 46.161 18.754
363 75.000 75.000 37.500 42.908 49.824 19.087
364 87.500 75.000 37.500 51.740 54.378 19.501
365 100.00 75.000 37.500 62.403 59.876 20.000
366 0.0000 87.500 37.500 29.232 54.140 20.640
367 12.500 87.500 37.500 29.818 54.442 20.668
368 25.000 87.500 37.500 31.310 55.211 20.738
369 37.500 87.500 37.500 33.969 56.582 20.862
370 50.000 87.500 37.500 37.972 58.646 21.050
371 62.500 87.500 37.500 43.462 61.477 21.307
372 75.000 87.500 37.500 50.567 65.140 21.640
373 87.500 87.500 37.500 59.399 69.694 22.054
374 100.00 87.500 37.500 70.062 75.192 22.553
375 0.0000 100.00 37.500 38.479 72.630 23.722
376 12.500 100.00 37.500 39.064 72.932 23.750
377 25.000 100.00 37.500 40.556 73.701 23.820
378 37.500 100.00 37.500 43.215 75.072 23.944
379 50.000 100.00 37.500 47.218 77.136 24.132
380 62.500 100.00 37.500 52.708 79.967 24.389
381 75.000 100.00 37.500 59.813 83.630 24.722
382 87.500 100.00 37.500 68.646 88.184 25.136
383 100.00 100.00 37.500 79.309 93.682 25.636
384 12.500 0.0000 50.000 5.4111 2.8319 21.175
385 25.000 0.0000 50.000 6.9024 3.6009 21.245
386 37.500 0.0000 50.000 9.5621 4.9722 21.369
387 50.000 0.0000 50.000 13.564 7.0358 21.557
388 62.500 0.0000 50.000 19.055 9.8667 21.814
389 75.000 0.0000 50.000 26.160 13.530 22.147
390 87.500 0.0000 50.000 34.992 18.084 22.561
391 100.00 0.0000 50.000 45.655 23.582 23.061
392 100.00 12.500 50.000 46.163 24.598 23.230
393 100.00 12.500 62.500 48.566 25.559 35.887
394 25.000 12.500 50.000 7.4105 4.6169 21.414
395 37.500 12.500 50.000 10.070 5.9882 21.539
396 50.000 12.500 50.000 14.073 8.0518 21.726
397 62.500 12.500 50.000 19.563 10.883 21.984
398 75.000 12.500 50.000 26.668 14.546 22.317
399 87.500 12.500 50.000 35.500 19.100 22.730
400 87.500 12.500 62.500 37.903 20.061 35.388
401 87.500 25.000 62.500 39.197 22.647 35.819
402 12.500 25.000 50.000 7.2123 6.4340 21.775
403 25.000 25.000 50.000 8.7037 7.2029 21.845
404 37.500 25.000 50.000 11.363 8.5743 21.970
405 50.000 25.000 50.000 15.366 10.638 22.157
406 62.500 25.000 50.000 20.856 13.469 22.415
407 75.000 25.000 50.000 27.961 17.132 22.748
408 87.500 25.000 50.000 36.794 21.686 23.161
409 100.00 25.000 50.000 47.457 27.184 23.661
410 100.00 25.000 62.500 49.860 28.145 36.319
411 12.500 37.500 50.000 9.5186 11.046 22.544
412 25.000 37.500 50.000 11.010 11.815 22.614
413 37.500 37.500 50.000 13.670 13.186 22.739
414 50.000 37.500 50.000 17.672 15.250 22.926
415 62.500 37.500 50.000 23.162 18.081 23.183
416 75.000 37.500 50.000 30.267 21.744 23.516
417 87.500 37.500 50.000 39.100 26.298 23.930
418 100.00 37.500 50.000 49.763 31.796 24.430
419 0.0000 50.000 50.000 12.403 17.684 23.674
420 12.500 50.000 50.000 12.989 17.986 23.701
421 25.000 50.000 50.000 14.481 18.755 23.771
422 37.500 50.000 50.000 17.140 20.126 23.896
423 62.500 50.000 50.000 26.633 25.021 24.340
424 75.000 50.000 50.000 33.738 28.684 24.673
425 87.500 50.000 50.000 42.570 33.238 25.087
426 100.00 50.000 50.000 53.233 38.736 25.587
427 0.0000 62.500 50.000 17.164 27.205 25.261
428 12.500 62.500 50.000 17.750 27.507 25.288
429 25.000 62.500 50.000 19.242 28.276 25.358
430 37.500 62.500 50.000 21.901 29.647 25.483
431 50.000 62.500 50.000 25.904 31.711 25.670
432 62.500 62.500 50.000 31.394 34.541 25.927
433 75.000 62.500 50.000 38.499 38.205 26.260
434 87.500 62.500 50.000 47.331 42.759 26.674
435 100.00 62.500 50.000 57.994 48.257 27.174
436 0.0000 75.000 50.000 23.325 39.525 27.314
437 12.500 75.000 50.000 23.911 39.827 27.342
438 25.000 75.000 50.000 25.402 40.596 27.412
439 37.500 75.000 50.000 28.062 41.967 27.536
440 50.000 75.000 50.000 32.064 44.031 27.724
441 62.500 75.000 50.000 37.555 46.862 27.981
442 75.000 75.000 50.000 44.660 50.525 28.314
443 87.500 75.000 50.000 53.492 55.079 28.728
444 100.00 75.000 50.000 64.155 60.577 29.227
445 0.0000 87.500 50.000 30.984 54.840 29.867
446 12.500 87.500 50.000 31.570 55.142 29.895
447 25.000 87.500 50.000 33.061 55.911 29.965
448 37.500 87.500 50.000 35.721 57.283 30.089
449 50.000 87.500 50.000 39.723 59.346 30.277
450 62.500 87.500 50.000 45.214 62.177 30.534
451 75.000 87.500 50.000 52.319 65.841 30.867
452 87.500 87.500 50.000 61.151 70.395 31.281
453 100.00 87.500 50.000 71.814 75.893 31.780
454 0.0000 100.00 50.000 40.230 73.330 32.949
455 12.500 100.00 50.000 40.816 73.632 32.977
456 25.000 100.00 50.000 42.308 74.401 33.047
457 37.500 100.00 50.000 44.967 75.773 33.171
458 50.000 100.00 50.000 48.970 77.836 33.359
459 62.500 100.00 50.000 54.460 80.667 33.616
460 75.000 100.00 50.000 61.565 84.331 33.949
461 87.500 100.00 50.000 70.398 88.885 34.363
462 100.00 100.00 50.000 81.061 94.383 34.863
463 100.00 100.00 62.500 83.464 95.344 47.520
464 25.000 0.0000 62.500 9.3055 4.5620 33.902
465 37.500 0.0000 62.500 11.965 5.9333 34.027
466 50.000 0.0000 62.500 15.968 7.9969 34.214
467 62.500 0.0000 62.500 21.458 10.828 34.472
468 75.000 0.0000 62.500 28.563 14.491 34.805
469 87.500 0.0000 62.500 37.395 19.045 35.218
470 100.00 0.0000 62.500 48.058 24.543 35.718
471 12.500 12.500 50.000 5.9191 3.8479 21.344
472 12.500 12.500 62.500 8.3222 4.8090 34.002
473 25.000 12.500 62.500 9.8136 5.5779 34.072
474 37.500 12.500 62.500 12.473 6.9493 34.196
475 50.000 12.500 62.500 16.476 9.0129 34.384
476 62.500 12.500 62.500 21.966 11.844 34.641
477 75.000 12.500 62.500 29.071 15.507 34.974
478 75.000 25.000 62.500 30.364 18.093 35.405
479 0.0000 25.000 50.000 6.6264 6.1319 21.748
480 0.0000 25.000 62.500 9.0295 7.0930 34.405
481 12.500 25.000 62.500 9.6154 7.3951 34.433
482 25.000 25.000 62.500 11.107 8.1640 34.503
483 37.500 25.000 62.500 13.767 9.5354 34.627
484 50.000 25.000 62.500 17.769 11.599 34.815
485 62.500 25.000 62.500 23.259 14.430 35.072
486 62.500 25.000 75.000 26.369 15.674 51.452
487 75.000 25.000 75.000 33.474 19.337 51.785
488 0.0000 37.500 50.000 8.9327 10.744 22.517
489 0.0000 37.500 62.500 11.336 11.705 35.174
490 12.500 37.500 62.500 11.922 12.007 35.202
491 25.000 37.500 62.500 13.413 12.776 35.271
492 37.500 37.500 62.500 16.073 14.147 35.396
493 50.000 37.500 62.500 20.075 16.211 35.584
494 62.500 37.500 62.500 25.566 19.042 35.841
495 75.000 37.500 62.500 32.670 22.705 36.174
496 87.500 37.500 62.500 41.503 27.259 36.588
497 100.00 37.500 62.500 52.166 32.757 37.087
498 0.0000 50.000 62.500 14.806 18.645 36.331
499 12.500 50.000 62.500 15.392 18.947 36.358
500 25.000 50.000 62.500 16.884 19.716 36.428
501 37.500 50.000 62.500 19.543 21.088 36.553
502 50.000 50.000 62.500 23.546 23.151 36.740
503 62.500 50.000 62.500 29.036 25.982 36.998
