DisplayCAL/ti1/d3-e4-s2-g28-m0-b0-f0.ti1
CTI1   

DESCRIPTOR "Argyll Calibration Target chart information 1"
ORIGINATOR "Argyll targen"
CREATED "Thu Aug 31 12:27:38 2017"
APPROX_WHITE_POINT "95.106486 100.000000 108.844025"
COLOR_REP "RGB"
WHITE_COLOR_PATCHES "4"
BLACK_COLOR_PATCHES "4"
SINGLE_DIM_STEPS "2"
COMP_GREY_STEPS "52"

NUMBER_OF_FIELDS 7
BEGIN_DATA_FORMAT
SAMPLE_ID RGB_R RGB_G RGB_B XYZ_X XYZ_Y XYZ_Z
END_DATA_FORMAT

NUMBER_OF_SETS 34
BEGIN_DATA
1 100.00 100.00 100.00 95.106 100.00 108.84
2 100.00 100.00 100.00 95.106 100.00 108.84
3 100.00 100.00 100.00 95.106 100.00 108.84
4 100.00 100.00 100.00 95.106 100.00 108.84
5 0.0000 0.0000 0.0000 1.0000 1.0000 1.0000
6 1.9608 1.9608 1.9608 1.1428 1.1502 1.1637
7 3.9216 3.9216 3.9216 1.2856 1.3005 1.3273
8 5.8824 5.8824 5.8824 1.4495 1.4729 1.5152
9 9.8039 9.8039 9.8039 1.9148 1.9624 2.0484
10 13.726 13.726 13.726 2.5817 2.6639 2.8126
11 17.647 17.647 17.647 3.4695 3.5979 3.8300
12 21.569 21.569 21.569 4.5953 4.7822 5.1201
13 25.490 25.490 25.490 5.9745 6.2332 6.7007
14 29.412 29.412 29.412 7.6213 7.9656 8.5879
15 33.333 33.333 33.333 9.5488 9.9933 10.797
16 37.255 37.255 37.255 11.769 12.329 13.341
17 41.176 41.176 41.176 14.294 14.985 16.234
18 45.098 45.098 45.098 17.134 17.973 19.489
19 49.020 49.020 49.020 20.299 21.303 23.117
20 52.941 52.941 52.941 23.800 24.986 27.129
21 56.863 56.863 56.863 27.646 29.032 31.536
22 60.784 60.784 60.784 31.846 33.450 36.349
23 64.706 64.706 64.706 36.409 38.250 41.578
24 68.627 68.627 68.627 41.343 43.440 47.232
25 72.549 72.549 72.549 46.656 49.030 53.321
26 76.471 76.471 76.471 52.356 55.027 59.853
27 80.392 80.392 80.392 58.452 61.439 66.838
28 84.314 84.314 84.314 64.949 68.275 74.285
29 88.235 88.235 88.235 71.857 75.541 82.200
30 92.157 92.157 92.157 79.181 83.246 90.594
31 96.078 96.078 96.078 86.929 91.397 99.472
32 100.00 0.0000 0.0000 41.830 22.052 2.9132
33 0.0000 100.00 0.0000 36.405 71.801 12.802
34 0.0000 0.0000 100.00 18.871 8.1473 95.129
END_DATA
CTI1   

DESCRIPTOR "Argyll Calibration Target chart information 1"
ORIGINATOR "Argyll targen"
DENSITY_EXTREME_VALUES "8"
CREATED "August 31, 2017"

NUMBER_OF_FIELDS 7
BEGIN_DATA_FORMAT
INDEX RGB_R RGB_G RGB_B XYZ_X XYZ_Y XYZ_Z
END_DATA_FORMAT

NUMBER_OF_SETS 8
BEGIN_DATA
0 100.0000 100.0000 100.0000 95.10649 100.0000 108.8440
1 0.000000 47.36070 100.0000 25.61297 21.62916 97.37627
2 100.0000 0.000000 79.35140 52.42580 26.28975 58.72153
3 0.000000 0.000000 58.99710 6.485834 3.193987 29.89445
4 100.0000 66.65930 0.000000 56.05879 50.50543 7.656144
5 0.000000 35.60110 0.000000 4.685619 8.370208 2.228550
6 84.44440 0.000000 0.000000 28.84279 15.35583 2.304665
7 0.000000 0.000000 0.000000 1.000000 1.000000 1.000000
END_DATA
CTI1   

DESCRIPTOR "Argyll Calibration Target chart information 1"
ORIGINATOR "Argyll targen"
DEVICE_COMBINATION_VALUES "9"
CREATED "August 31, 2017"

NUMBER_OF_FIELDS 7
BEGIN_DATA_FORMAT
INDEX RGB_R RGB_G RGB_B XYZ_X XYZ_Y XYZ_Z
END_DATA_FORMAT

NUMBER_OF_SETS 9
BEGIN_DATA
0 100.0000 100.0000 100.0000 95.10649 100.0000 108.8440
1 0.000000 100.0000 100.0000 54.27632 78.94783 106.9308
2 100.0000 0.000000 100.0000 59.70128 29.19948 97.04219
3 0.000000 0.000000 100.0000 18.87111 8.147314 95.12896
4 100.0000 100.0000 0.000000 77.23538 92.85269 14.71507
5 0.000000 100.0000 0.000000 36.40521 71.80052 12.80184
6 100.0000 0.000000 0.000000 41.83017 22.05217 2.913230
7 0.000000 0.000000 0.000000 1.000000 1.000000 1.000000
8 50.00000 50.00000 50.00000 21.14266 22.19007 24.08306
END_DATA