DisplayCAL/ti1/d3-e4-s4-g49-m4-b0-f0.ti1
CTI1   

DESCRIPTOR "Argyll Calibration Target chart information 1"
ORIGINATOR "Argyll targen"
CREATED "Sun Aug 06 23:44:05 2017"
APPROX_WHITE_POINT "95.106486 100.000000 108.844025"
COLOR_REP "RGB"
WHITE_COLOR_PATCHES "4"
BLACK_COLOR_PATCHES "4"
SINGLE_DIM_STEPS "4"
COMP_GREY_STEPS "49"
MULTI_DIM_STEPS "4"

NUMBER_OF_FIELDS 7
BEGIN_DATA_FORMAT
SAMPLE_ID RGB_R RGB_G RGB_B XYZ_X XYZ_Y XYZ_Z
END_DATA_FORMAT

NUMBER_OF_SETS 115
BEGIN_DATA
1 100.00 100.00 100.00 95.106 100.00 108.84
2 0.0000 100.00 33.333 38.029 72.450 21.353
3 33.333 100.00 33.333 41.738 74.362 21.526
4 0.0000 0.0000 33.333 2.6234 1.6493 9.5508
5 0.0000 33.333 33.333 5.8397 8.0809 10.623
6 0.0000 33.333 66.667 11.400 10.305 39.910
7 62.500 62.500 62.500 33.797 35.503 38.585
8 64.583 64.583 64.583 36.261 38.094 41.408
9 66.667 66.667 66.667 38.829 40.796 44.351
10 66.667 0.0000 0.0000 17.413 9.4625 1.7691
11 66.667 0.0000 33.333 19.036 10.112 10.320
12 66.667 33.333 33.333 22.253 16.543 11.392
13 100.00 33.333 0.0000 45.046 28.484 3.9853
14 100.00 33.333 33.333 46.670 29.133 12.536
15 0.0000 0.0000 0.0000 1.0000 1.0000 1.0000
16 66.667 0.0000 100.00 35.284 16.610 95.898
17 100.00 0.0000 100.00 59.701 29.199 97.042
18 2.0833 2.0833 2.0833 1.1517 1.1596 1.1739
19 4.1667 4.1667 4.1667 1.3037 1.3195 1.3481
20 6.2500 6.2500 6.2500 1.4852 1.5104 1.5560
21 8.3333 8.3333 8.3333 1.7179 1.7552 1.8226
22 10.417 10.417 10.417 2.0052 2.0575 2.1520
23 12.500 12.500 12.500 2.3504 2.4206 2.5475
24 14.583 14.583 14.583 2.7564 2.8477 3.0128
25 16.667 16.667 16.667 3.2258 3.3416 3.5508
26 18.750 18.750 18.750 3.7614 3.9049 4.1645
27 20.833 20.833 20.833 4.3653 4.5403 4.8566
28 22.917 22.917 22.917 5.0401 5.2502 5.6298
29 25.000 25.000 25.000 5.7878 6.0367 6.4867
30 27.083 27.083 27.083 6.6105 6.9023 7.4295
31 0.0000 0.0000 0.0000 1.0000 1.0000 1.0000
32 31.250 31.250 31.250 8.4891 8.8786 9.5824
33 33.333 33.333 33.333 9.5488 9.9933 10.797
34 35.417 35.417 35.417 10.691 11.195 12.106
35 37.500 37.500 37.500 11.918 12.486 13.512
36 39.583 39.583 39.583 13.231 13.867 15.016
37 41.667 41.667 41.667 14.631 15.340 16.621
38 43.750 43.750 43.750 16.121 16.908 18.329
39 45.833 45.833 45.833 17.702 18.571 20.140
40 47.917 47.917 47.917 19.375 20.331 22.058
41 50.000 50.000 50.000 21.143 22.190 24.083
42 52.083 52.083 52.083 23.005 24.149 26.218
43 54.167 54.167 54.167 24.965 26.211 28.463
44 56.250 56.250 56.250 27.022 28.375 30.821
45 58.333 58.333 58.333 29.179 30.644 33.293
46 60.417 60.417 60.417 31.437 33.020 35.880
47 100.00 66.667 66.667 63.246 53.385 45.495
48 100.00 100.00 100.00 95.106 100.00 108.84
49 66.667 33.333 0.0000 20.629 15.894 2.8412
50 68.750 68.750 68.750 41.503 43.609 47.415
51 70.833 70.833 70.833 44.284 46.535 50.603
52 72.917 72.917 72.917 47.174 49.575 53.914
53 75.000 75.000 75.000 50.173 52.730 57.351
54 77.083 77.083 77.083 53.282 56.001 60.914
55 79.167 79.167 79.167 56.504 59.390 64.606
56 81.250 81.250 81.250 59.838 62.898 68.427
57 83.333 83.333 83.333 63.287 66.526 72.379
58 85.417 85.417 85.417 66.850 70.275 76.463
59 87.500 87.500 87.500 70.530 74.146 80.680
60 89.583 89.583 89.583 74.327 78.140 85.031
61 91.667 91.667 91.667 78.242 82.259 89.518
62 93.750 93.750 93.750 82.277 86.503 94.142
63 95.833 95.833 95.833 86.432 90.874 98.903
64 97.917 97.917 97.917 90.708 95.373 103.80
65 0.0000 66.667 33.333 16.856 30.110 14.295
66 33.333 66.667 33.333 20.565 32.022 14.469
67 66.667 66.667 33.333 33.268 38.572 15.064
68 33.333 66.667 0.0000 18.941 31.373 5.9179
69 0.0000 66.667 0.0000 15.232 29.460 5.7441
70 0.0000 100.00 0.0000 36.405 71.801 12.802
71 33.333 100.00 0.0000 40.114 73.713 12.976
72 66.667 100.00 0.0000 52.818 80.263 13.571
73 100.00 100.00 0.0000 77.235 92.853 14.715
74 100.00 100.00 33.333 78.859 93.502 23.266
75 100.00 0.0000 0.0000 41.830 22.052 2.9132
76 100.00 0.0000 33.333 43.454 22.701 11.464
77 0.0000 0.0000 0.0000 1.0000 1.0000 1.0000
78 29.167 29.167 29.167 7.5103 7.8489 8.4607
79 66.667 100.00 33.333 54.441 80.912 22.122
80 100.00 100.00 100.00 95.106 100.00 108.84
81 66.667 66.667 0.0000 31.645 37.923 6.5132
82 100.00 66.667 0.0000 56.062 50.512 7.6573
83 100.00 66.667 33.333 57.686 51.162 16.208
84 0.0000 0.0000 0.0000 1.0000 1.0000 1.0000
85 0.0000 33.333 0.0000 4.2163 7.4316 2.0721
86 33.333 33.333 0.0000 7.9254 9.3441 2.2459
87 33.333 0.0000 33.333 6.3325 3.5617 9.7246
88 33.333 0.0000 66.667 11.893 5.7855 39.012
89 66.667 0.0000 66.667 24.597 12.336 39.607
90 100.00 0.0000 66.667 49.014 24.925 40.751
91 100.00 100.00 100.00 95.106 100.00 108.84
92 33.333 33.333 66.667 15.109 12.217 40.084
93 66.667 33.333 66.667 27.813 18.767 40.679
94 100.00 33.333 66.667 52.230 31.357 41.823
95 100.00 33.333 100.00 62.918 35.631 98.114
96 100.00 66.667 100.00 73.933 57.660 101.79
97 33.333 0.0000 0.0000 4.7091 2.9124 1.1738
98 33.333 66.667 66.667 26.125 34.246 43.756
99 33.333 100.00 66.667 47.298 76.586 50.813
100 66.667 100.00 66.667 60.002 83.136 51.409
101 100.00 100.00 66.667 84.419 95.726 52.553
102 0.0000 33.333 100.00 22.087 14.579 96.201
103 0.0000 0.0000 66.667 8.1838 3.8731 38.838
104 0.0000 0.0000 100.00 18.871 8.1473 95.129
105 33.333 0.0000 100.00 22.580 10.060 95.303
106 33.333 33.333 100.00 25.796 16.491 96.375
107 66.667 33.333 100.00 38.500 23.041 96.970
108 0.0000 66.667 66.667 22.416 32.333 43.582
109 0.0000 66.667 100.00 33.103 36.608 99.873
110 33.333 66.667 100.00 36.812 38.520 100.05
111 66.667 66.667 100.00 49.516 45.070 100.64
112 0.0000 100.00 66.667 43.589 74.674 50.640
113 0.0000 100.00 100.00 54.276 78.948 106.93
114 33.333 100.00 100.00 57.985 80.860 107.10
115 66.667 100.00 100.00 70.689 87.410 107.70
END_DATA
CTI1   

DESCRIPTOR "Argyll Calibration Target chart information 1"
ORIGINATOR "Argyll targen"
DENSITY_EXTREME_VALUES "8"
CREATED "August 6, 2017"

NUMBER_OF_FIELDS 7
BEGIN_DATA_FORMAT
INDEX RGB_R RGB_G RGB_B XYZ_X XYZ_Y XYZ_Z
END_DATA_FORMAT

NUMBER_OF_SETS 8
BEGIN_DATA
0 100.0000 100.0000 100.0000 95.10649 100.0000 108.8440
1 0.000000 47.36070 100.0000 25.61297 21.62916 97.37627
2 100.0000 0.000000 79.35140 52.42580 26.28975 58.72153
3 0.000000 0.000000 58.99710 6.485834 3.193987 29.89445
4 100.0000 66.65930 0.000000 56.05879 50.50543 7.656144
5 0.000000 35.60110 0.000000 4.685619 8.370208 2.228550
6 84.44440 0.000000 0.000000 28.84279 15.35583 2.304665
7 0.000000 0.000000 0.000000 1.000000 1.000000 1.000000
END_DATA
CTI1   

DESCRIPTOR "Argyll Calibration Target chart information 1"
ORIGINATOR "Argyll targen"
DEVICE_COMBINATION_VALUES "9"
CREATED "August 6, 2017"

NUMBER_OF_FIELDS 7
BEGIN_DATA_FORMAT
INDEX RGB_R RGB_G RGB_B XYZ_X XYZ_Y XYZ_Z
END_DATA_FORMAT

NUMBER_OF_SETS 9
BEGIN_DATA
0 100.0000 100.0000 100.0000 95.10649 100.0000 108.8440
1 0.000000 100.0000 100.0000 54.27632 78.94783 106.9308
2 100.0000 0.000000 100.0000 59.70128 29.19948 97.04219
3 0.000000 0.000000 100.0000 18.87111 8.147314 95.12896
4 100.0000 100.0000 0.000000 77.23538 92.85269 14.71507
5 0.000000 100.0000 0.000000 36.40521 71.80052 12.80184
6 100.0000 0.000000 0.000000 41.83017 22.05217 2.913230
7 0.000000 0.000000 0.000000 1.000000 1.000000 1.000000
8 50.00000 50.00000 50.00000 21.14266 22.19007 24.08306
END_DATA