DisplayCAL/ti1/d3-e4-s5-g33-m5-b0-f0-crossover.ti1
CTI1   

DESCRIPTOR "Argyll Calibration Target chart information 1"
ORIGINATOR "Argyll targen"
CREATED "Mon May 01 20:50:03 2017"
APPROX_WHITE_POINT "95.106486 100.000000 108.844025"
COLOR_REP "RGB"
WHITE_COLOR_PATCHES "4"
BLACK_COLOR_PATCHES "4"
SINGLE_DIM_STEPS "5"
COMP_GREY_STEPS "33"
MULTI_DIM_STEPS "5"

NUMBER_OF_FIELDS 7
BEGIN_DATA_FORMAT
SAMPLE_ID RGB_R RGB_G RGB_B XYZ_X XYZ_Y XYZ_Z
END_DATA_FORMAT

NUMBER_OF_SETS 165
BEGIN_DATA
1 100.00 100.00 100.00 95.106 100.00 108.84
2 25.000 50.000 25.000 11.565 17.589 8.4123
3 25.000 50.000 50.000 14.481 18.755 23.771
4 100.00 50.000 50.000 53.233 38.736 25.587
5 100.00 50.000 75.000 58.746 40.941 54.624
6 75.000 0.0000 25.000 23.244 12.364 6.7886
7 100.00 75.000 25.000 61.239 59.411 13.869
8 100.00 75.000 50.000 64.155 60.577 29.227
9 100.00 75.000 75.000 69.668 62.782 58.264
10 100.00 0.0000 75.000 51.168 25.787 52.098
11 100.00 25.000 75.000 52.969 29.389 52.698
12 0.0000 0.0000 0.0000 1.0000 1.0000 1.0000
13 75.000 0.0000 100.00 40.206 19.148 96.129
14 100.00 0.0000 100.00 59.701 29.199 97.042
15 3.1250 3.1250 3.1250 1.2276 1.2395 1.2608
16 6.2500 6.2500 6.2500 1.4852 1.5104 1.5560
17 9.3750 9.3750 9.3750 1.8545 1.8989 1.9792
18 12.500 12.500 12.500 2.3504 2.4206 2.5475
19 15.625 15.625 15.625 2.9830 3.0861 3.2725
20 18.750 18.750 18.750 3.7614 3.9049 4.1645
21 0.0000 0.0000 0.0000 1.0000 1.0000 1.0000
22 0.0000 25.000 25.000 3.7105 4.9657 6.3893
23 28.125 28.125 28.125 7.0507 7.3653 7.9339
24 31.250 31.250 31.250 8.4891 8.8786 9.5824
25 34.375 34.375 34.375 10.110 10.583 11.439
26 37.500 37.500 37.500 11.918 12.486 13.512
27 40.625 40.625 40.625 13.920 14.592 15.806
28 43.750 43.750 43.750 16.121 16.908 18.329
29 46.875 46.875 46.875 18.527 19.439 21.086
30 50.000 50.000 50.000 21.143 22.190 24.083
31 53.125 53.125 53.125 23.973 25.167 27.326
32 56.250 56.250 56.250 27.022 28.375 30.821
33 59.375 59.375 59.375 30.295 31.819 34.572
34 62.500 62.500 62.500 33.797 35.503 38.585
35 65.625 65.625 65.625 37.531 39.431 42.864
36 68.750 68.750 68.750 41.503 43.609 47.415
37 71.875 71.875 71.875 45.715 48.040 52.243
38 75.000 75.000 75.000 50.173 52.730 57.351
39 78.125 78.125 78.125 54.879 57.681 62.744
40 81.250 81.250 81.250 59.838 62.898 68.427
41 84.375 84.375 84.375 65.054 68.385 74.405
42 87.500 87.500 87.500 70.530 74.146 80.680
43 50.000 0.0000 0.0000 9.7393 5.5060 1.4095
44 93.750 93.750 93.750 82.277 86.503 94.142
45 96.875 96.875 96.875 88.555 93.107 101.34
46 25.000 0.0000 0.0000 3.0773 2.0711 1.0973
47 75.000 0.0000 0.0000 22.335 12.000 1.9997
48 100.00 0.0000 0.0000 41.830 22.052 2.9132
49 100.00 0.0000 25.000 42.739 22.416 7.7021
50 50.000 25.000 0.0000 11.541 9.1081 2.0099
51 75.000 25.000 0.0000 24.136 15.602 2.6001
52 100.00 25.000 0.0000 43.631 25.654 3.5137
53 100.00 75.000 0.0000 60.330 59.047 9.0799
54 50.000 50.000 0.0000 17.318 20.660 3.9356
55 75.000 50.000 0.0000 29.913 27.154 4.5258
56 100.00 50.000 0.0000 49.408 37.206 5.4393
57 100.00 50.000 25.000 50.318 37.570 10.228
58 25.000 75.000 0.0000 21.577 39.066 7.2641
59 50.000 75.000 0.0000 28.239 42.501 7.5762
60 75.000 75.000 0.0000 40.835 48.995 8.1664
61 0.0000 100.00 0.0000 36.405 71.801 12.802
62 25.000 100.00 0.0000 38.482 72.872 12.899
63 50.000 100.00 0.0000 45.145 76.307 13.211
64 75.000 100.00 0.0000 57.740 82.801 13.802
65 100.00 100.00 0.0000 77.235 92.853 14.715
66 100.00 100.00 100.00 95.106 100.00 108.84
67 25.000 0.0000 25.000 3.9865 2.4347 5.8863
68 25.000 0.0000 50.000 6.9024 3.6009 21.245
69 75.000 0.0000 75.000 31.673 15.735 51.184
70 21.875 21.875 21.875 4.6937 4.8858 5.2329
71 25.000 25.000 25.000 5.7878 6.0367 6.4867
72 50.000 25.000 25.000 12.450 9.4717 6.7989
73 75.000 25.000 25.000 25.045 15.966 7.3890
74 100.00 25.000 25.000 44.541 26.018 8.3026
75 0.0000 50.000 0.0000 8.5782 16.154 3.5261
76 25.000 50.000 0.0000 10.655 17.225 3.6234
77 50.000 50.000 25.000 18.227 21.024 8.7245
78 50.000 100.00 50.000 48.970 77.836 33.359
79 0.0000 75.000 0.0000 19.500 37.995 7.1667
80 0.0000 75.000 25.000 20.409 38.358 11.956
81 25.000 75.000 25.000 22.486 39.429 12.053
82 50.000 75.000 25.000 29.149 42.864 12.365
83 75.000 75.000 25.000 41.744 49.359 12.955
84 75.000 75.000 50.000 44.660 50.525 28.314
85 0.0000 100.00 25.000 37.314 72.164 17.591
86 25.000 100.00 25.000 39.392 73.235 17.688
87 50.000 100.00 25.000 46.054 76.670 18.000
88 75.000 100.00 25.000 58.649 83.164 18.590
89 100.00 100.00 25.000 78.145 93.216 19.504
90 50.000 0.0000 25.000 10.649 5.8697 6.1984
91 50.000 0.0000 50.000 13.564 7.0358 21.557
92 75.000 0.0000 50.000 26.160 13.530 22.147
93 100.00 0.0000 50.000 45.655 23.582 23.061
94 25.000 25.000 0.0000 4.8786 5.6731 1.6978
95 25.000 25.000 50.000 8.7037 7.2029 21.845
96 50.000 25.000 50.000 15.366 10.638 22.157
97 75.000 25.000 50.000 27.961 17.132 22.748
98 100.00 25.000 50.000 47.457 27.184 23.661
99 100.00 25.000 100.00 61.503 32.802 97.643
100 75.000 50.000 25.000 30.822 27.518 9.3147
101 75.000 50.000 50.000 33.738 28.684 24.673
102 75.000 50.000 75.000 39.251 30.889 53.710
103 0.0000 75.000 50.000 23.325 39.525 27.314
104 25.000 75.000 50.000 25.402 40.596 27.412
105 50.000 75.000 50.000 32.064 44.031 27.724
106 0.0000 0.0000 0.0000 1.0000 1.0000 1.0000
107 0.0000 25.000 0.0000 2.8013 4.6021 1.6004
108 0.0000 100.00 50.000 40.230 73.330 32.949
109 25.000 100.00 50.000 42.308 74.401 33.047
110 100.00 100.00 100.00 95.106 100.00 108.84
111 75.000 100.00 50.000 61.565 84.331 33.949
112 100.00 100.00 50.000 81.061 94.383 34.863
113 0.0000 0.0000 50.000 4.8252 2.5298 21.147
114 25.000 0.0000 75.000 12.415 5.8057 50.282
115 50.000 0.0000 75.000 19.077 9.2407 50.594
116 0.0000 0.0000 0.0000 1.0000 1.0000 1.0000
117 0.0000 25.000 50.000 6.6264 6.1319 21.748
118 0.0000 25.000 75.000 12.139 8.3367 50.785
119 25.000 25.000 75.000 14.217 9.4077 50.882
120 50.000 25.000 75.000 20.879 12.843 51.194
121 75.000 25.000 75.000 33.474 19.337 51.785
122 0.0000 0.0000 25.000 1.9092 1.3636 5.7889
123 0.0000 50.000 75.000 17.916 19.889 52.710
124 25.000 50.000 75.000 19.993 20.960 52.808
125 50.000 50.000 75.000 26.656 24.395 53.120
126 100.00 100.00 100.00 95.106 100.00 108.84
127 0.0000 50.000 25.000 9.4874 16.518 8.3150
128 0.0000 75.000 75.000 28.838 41.729 56.351
129 25.000 75.000 75.000 30.915 42.800 56.448
130 50.000 75.000 75.000 37.577 46.235 56.761
131 90.625 90.625 90.625 76.270 80.184 87.258
132 0.0000 100.00 75.000 45.743 75.535 61.986
133 25.000 100.00 75.000 47.821 76.606 62.084
134 50.000 100.00 75.000 54.483 80.041 62.396
135 75.000 100.00 75.000 67.078 86.535 62.986
136 100.00 100.00 75.000 86.573 96.587 63.899
137 25.000 0.0000 100.00 20.948 9.2184 95.226
138 50.000 0.0000 100.00 27.610 12.653 95.538
139 0.0000 0.0000 75.000 10.338 4.7346 50.184
140 0.0000 0.0000 100.00 18.871 8.1473 95.129
141 0.0000 25.000 100.00 20.672 11.749 95.729
142 25.000 25.000 100.00 22.750 12.820 95.827
143 50.000 25.000 100.00 29.412 16.255 96.139
144 75.000 25.000 100.00 42.007 22.750 96.729
145 0.0000 50.000 50.000 12.403 17.684 23.674
146 0.0000 50.000 100.00 26.449 23.302 97.655
147 25.000 50.000 100.00 28.527 24.373 97.752
148 50.000 50.000 100.00 35.189 27.808 98.065
149 75.000 50.000 100.00 47.784 34.302 98.655
150 100.00 50.000 100.00 67.279 44.354 99.568
151 0.0000 75.000 100.00 37.371 45.142 101.30
152 25.000 75.000 100.00 39.448 46.213 101.39
153 50.000 75.000 100.00 46.110 49.648 101.71
154 75.000 75.000 100.00 58.706 56.142 102.30
155 100.00 75.000 100.00 78.201 66.194 103.21
156 0.0000 100.00 100.00 54.276 78.948 106.93
157 25.000 100.00 100.00 56.354 80.019 107.03
158 50.000 100.00 100.00 63.016 83.454 107.34
159 75.000 100.00 100.00 75.611 89.948 107.93
160 0.0000 12.500 100.00 19.379 9.1633 95.298
161 12.500 0.0000 100.00 19.457 8.4494 95.156
162 0.0000 100.00 12.500 36.662 71.903 14.153
163 12.500 100.00 0.0000 36.991 72.103 12.829
164 100.00 0.0000 12.500 42.087 22.155 4.2640
165 100.00 12.500 0.0000 42.338 23.068 3.0826
END_DATA
CTI1   

DESCRIPTOR "Argyll Calibration Target chart information 1"
ORIGINATOR "Argyll targen"
DENSITY_EXTREME_VALUES "8"
CREATED "May 1, 2017"

NUMBER_OF_FIELDS 7
BEGIN_DATA_FORMAT
INDEX RGB_R RGB_G RGB_B XYZ_X XYZ_Y XYZ_Z
END_DATA_FORMAT

NUMBER_OF_SETS 8
BEGIN_DATA
0 100.0000 100.0000 100.0000 95.10649 100.0000 108.8440
1 0.000000 47.36069 100.0000 25.61297 21.62916 97.37627
2 100.0000 0.000000 79.35138 52.42580 26.28975 58.72153
3 0.000000 0.000000 58.99714 6.485834 3.193987 29.89445
4 100.0000 66.65930 0.000000 56.05879 50.50543 7.656144
5 0.000000 35.60114 0.000000 4.685619 8.370208 2.228550
6 84.44437 0.000000 0.000000 28.84279 15.35583 2.304665
7 0.000000 0.000000 0.000000 1.000000 1.000000 1.000000
END_DATA
CTI1   

DESCRIPTOR "Argyll Calibration Target chart information 1"
ORIGINATOR "Argyll targen"
DEVICE_COMBINATION_VALUES "9"
CREATED "May 1, 2017"

NUMBER_OF_FIELDS 7
BEGIN_DATA_FORMAT
INDEX RGB_R RGB_G RGB_B XYZ_X XYZ_Y XYZ_Z
END_DATA_FORMAT

NUMBER_OF_SETS 9
BEGIN_DATA
0 100.0000 100.0000 100.0000 95.10649 100.0000 108.8440
1 0.000000 100.0000 100.0000 54.27632 78.94783 106.9308
2 100.0000 0.000000 100.0000 59.70128 29.19948 97.04219
3 0.000000 0.000000 100.0000 18.87111 8.147314 95.12896
4 100.0000 100.0000 0.000000 77.23538 92.85269 14.71507
5 0.000000 100.0000 0.000000 36.40521 71.80052 12.80184
6 100.0000 0.000000 0.000000 41.83017 22.05217 2.913230
7 0.000000 0.000000 0.000000 1.000000 1.000000 1.000000
8 50.00000 50.00000 50.00000 21.14266 22.19007 24.08306
END_DATA