DisplayCAL/ti1/d3-e4-s3-g49-m3-b0-f0.ti1
CTI1   

DESCRIPTOR "Argyll Calibration Target chart information 1"
ORIGINATOR "Argyll targen"
CREATED "Fri May 19 14:17:44 2017"
APPROX_WHITE_POINT "95.106486 100.000000 108.844025"
COLOR_REP "RGB"
WHITE_COLOR_PATCHES "4"
BLACK_COLOR_PATCHES "4"
SINGLE_DIM_STEPS "3"
COMP_GREY_STEPS "49"
MULTI_DIM_STEPS "3"

NUMBER_OF_FIELDS 7
BEGIN_DATA_FORMAT
SAMPLE_ID RGB_R RGB_G RGB_B XYZ_X XYZ_Y XYZ_Z
END_DATA_FORMAT

NUMBER_OF_SETS 79
BEGIN_DATA
1 100.00 100.00 100.00 95.106 100.00 108.84
2 97.917 97.917 97.917 90.708 95.373 103.80
3 85.417 85.417 85.417 66.850 70.275 76.463
4 91.667 91.667 91.667 78.242 82.259 89.518
5 93.750 93.750 93.750 82.277 86.503 94.142
6 0.0000 0.0000 0.0000 1.0000 1.0000 1.0000
7 16.667 16.667 16.667 3.2258 3.3416 3.5508
8 37.500 37.500 37.500 11.918 12.486 13.512
9 39.583 39.583 39.583 13.231 13.867 15.016
10 100.00 50.000 50.000 53.233 38.736 25.587
11 0.0000 0.0000 0.0000 1.0000 1.0000 1.0000
12 100.00 0.0000 50.000 45.655 23.582 23.061
13 100.00 50.000 100.00 67.279 44.354 99.568
14 100.00 0.0000 100.00 59.701 29.199 97.042
15 2.0833 2.0833 2.0833 1.1517 1.1596 1.1739
16 4.1667 4.1667 4.1667 1.3037 1.3195 1.3481
17 6.2500 6.2500 6.2500 1.4852 1.5104 1.5560
18 8.3333 8.3333 8.3333 1.7179 1.7552 1.8226
19 10.417 10.417 10.417 2.0052 2.0575 2.1520
20 12.500 12.500 12.500 2.3504 2.4206 2.5475
21 14.583 14.583 14.583 2.7564 2.8477 3.0128
22 50.000 0.0000 0.0000 9.7393 5.5060 1.4095
23 18.750 18.750 18.750 3.7614 3.9049 4.1645
24 20.833 20.833 20.833 4.3653 4.5403 4.8566
25 22.917 22.917 22.917 5.0401 5.2502 5.6298
26 25.000 25.000 25.000 5.7878 6.0367 6.4867
27 27.083 27.083 27.083 6.6105 6.9023 7.4295
28 29.167 29.167 29.167 7.5103 7.8489 8.4607
29 31.250 31.250 31.250 8.4891 8.8786 9.5824
30 33.333 33.333 33.333 9.5488 9.9933 10.797
31 35.417 35.417 35.417 10.691 11.195 12.106
32 100.00 100.00 50.000 81.061 94.383 34.863
33 100.00 100.00 100.00 95.106 100.00 108.84
34 41.667 41.667 41.667 14.631 15.340 16.621
35 43.750 43.750 43.750 16.121 16.908 18.329
36 45.833 45.833 45.833 17.702 18.571 20.140
37 47.917 47.917 47.917 19.375 20.331 22.058
38 50.000 50.000 50.000 21.143 22.190 24.083
39 52.083 52.083 52.083 23.005 24.149 26.218
40 54.167 54.167 54.167 24.965 26.211 28.463
41 56.250 56.250 56.250 27.022 28.375 30.821
42 58.333 58.333 58.333 29.179 30.644 33.293
43 60.417 60.417 60.417 31.437 33.020 35.880
44 62.500 62.500 62.500 33.797 35.503 38.585
45 64.583 64.583 64.583 36.261 38.094 41.408
46 66.667 66.667 66.667 38.829 40.796 44.351
47 68.750 68.750 68.750 41.503 43.609 47.415
48 70.833 70.833 70.833 44.284 46.535 50.603
49 72.917 72.917 72.917 47.174 49.575 53.914
50 75.000 75.000 75.000 50.173 52.730 57.351
51 77.083 77.083 77.083 53.282 56.001 60.914
52 79.167 79.167 79.167 56.504 59.390 64.606
53 0.0000 0.0000 0.0000 1.0000 1.0000 1.0000
54 0.0000 0.0000 50.000 4.8252 2.5298 21.147
55 100.00 100.00 100.00 95.106 100.00 108.84
56 87.500 87.500 87.500 70.530 74.146 80.680
57 89.583 89.583 89.583 74.327 78.140 85.031
58 0.0000 0.0000 0.0000 1.0000 1.0000 1.0000
59 0.0000 50.000 0.0000 8.5782 16.154 3.5261
60 81.250 81.250 81.250 59.838 62.898 68.427
61 83.333 83.333 83.333 63.287 66.526 72.379
62 95.833 95.833 95.833 86.432 90.874 98.903
63 100.00 100.00 100.00 95.106 100.00 108.84
64 100.00 0.0000 0.0000 41.830 22.052 2.9132
65 100.00 50.000 0.0000 49.408 37.206 5.4393
66 100.00 100.00 0.0000 77.235 92.853 14.715
67 50.000 50.000 0.0000 17.318 20.660 3.9356
68 50.000 100.00 0.0000 45.145 76.307 13.211
69 0.0000 100.00 0.0000 36.405 71.801 12.802
70 0.0000 100.00 50.000 40.230 73.330 32.949
71 50.000 100.00 50.000 48.970 77.836 33.359
72 50.000 0.0000 50.000 13.564 7.0358 21.557
73 50.000 0.0000 100.00 27.610 12.653 95.538
74 0.0000 0.0000 100.00 18.871 8.1473 95.129
75 0.0000 50.000 100.00 26.449 23.302 97.655
76 50.000 50.000 100.00 35.189 27.808 98.065
77 0.0000 50.000 50.000 12.403 17.684 23.674
78 0.0000 100.00 100.00 54.276 78.948 106.93
79 50.000 100.00 100.00 63.016 83.454 107.34
END_DATA
CTI1   

DESCRIPTOR "Argyll Calibration Target chart information 1"
ORIGINATOR "Argyll targen"
DENSITY_EXTREME_VALUES "8"
CREATED "May 19, 2017"

NUMBER_OF_FIELDS 7
BEGIN_DATA_FORMAT
INDEX RGB_R RGB_G RGB_B XYZ_X XYZ_Y XYZ_Z
END_DATA_FORMAT

NUMBER_OF_SETS 8
BEGIN_DATA
0 100.0000 100.0000 100.0000 95.10649 100.0000 108.8440
1 0.000000 47.36069 100.0000 25.61297 21.62916 97.37627
2 100.0000 0.000000 79.35138 52.42580 26.28975 58.72153
3 0.000000 0.000000 58.99714 6.485834 3.193987 29.89445
4 100.0000 66.65930 0.000000 56.05879 50.50543 7.656144
5 0.000000 35.60114 0.000000 4.685619 8.370208 2.228550
6 84.44437 0.000000 0.000000 28.84279 15.35583 2.304665
7 0.000000 0.000000 0.000000 1.000000 1.000000 1.000000
END_DATA
CTI1   

DESCRIPTOR "Argyll Calibration Target chart information 1"
ORIGINATOR "Argyll targen"
DEVICE_COMBINATION_VALUES "9"
CREATED "May 19, 2017"

NUMBER_OF_FIELDS 7
BEGIN_DATA_FORMAT
INDEX RGB_R RGB_G RGB_B XYZ_X XYZ_Y XYZ_Z
END_DATA_FORMAT

NUMBER_OF_SETS 9
BEGIN_DATA
0 100.0000 100.0000 100.0000 95.10649 100.0000 108.8440
1 0.000000 100.0000 100.0000 54.27632 78.94783 106.9308
2 100.0000 0.000000 100.0000 59.70128 29.19948 97.04219
3 0.000000 0.000000 100.0000 18.87111 8.147314 95.12896
4 100.0000 100.0000 0.000000 77.23538 92.85269 14.71507
5 0.000000 100.0000 0.000000 36.40521 71.80052 12.80184
6 100.0000 0.000000 0.000000 41.83017 22.05217 2.913230
7 0.000000 0.000000 0.000000 1.000000 1.000000 1.000000
8 50.00000 50.00000 50.00000 21.14266 22.19007 24.08306
END_DATA