DisplayCAL/ti1/d3-e4-s17-g52-m17-b0-f0.ti1
CTI1   

DESCRIPTOR "Argyll Calibration Target chart information 1"
ORIGINATOR "Argyll targen"
CREATED "Thu Aug 31 12:34:40 2017"
APPROX_WHITE_POINT "95.106486 100.000000 108.844025"
COLOR_REP "RGB"
WHITE_COLOR_PATCHES "4"
BLACK_COLOR_PATCHES "4"
SINGLE_DIM_STEPS "17"
COMP_GREY_STEPS "52"
MULTI_DIM_STEPS "17"

NUMBER_OF_FIELDS 7
BEGIN_DATA_FORMAT
SAMPLE_ID RGB_R RGB_G RGB_B XYZ_X XYZ_Y XYZ_Z
END_DATA_FORMAT

NUMBER_OF_SETS 4954
BEGIN_DATA
1 100.00 100.00 100.00 95.106 100.00 108.84
2 93.750 100.00 100.00 89.540 97.130 108.58
3 100.00 100.00 100.00 95.106 100.00 108.84
4 100.00 100.00 100.00 95.106 100.00 108.84
5 0.0000 0.0000 0.0000 1.0000 1.0000 1.0000
6 0.0000 0.0000 0.0000 1.0000 1.0000 1.0000
7 0.0000 0.0000 0.0000 1.0000 1.0000 1.0000
8 0.0000 0.0000 0.0000 1.0000 1.0000 1.0000
9 6.2500 0.0000 0.0000 1.2105 1.1085 1.0099
10 12.500 0.0000 0.0000 1.5859 1.3021 1.0275
11 18.750 0.0000 0.0000 2.1981 1.6177 1.0561
12 25.000 0.0000 0.0000 3.0773 2.0711 1.0973
13 31.250 0.0000 0.0000 4.2493 2.6754 1.1523
14 37.500 0.0000 0.0000 5.7370 3.4424 1.2220
15 43.750 0.0000 0.0000 7.5607 4.3827 1.3074
16 50.000 0.0000 0.0000 9.7393 5.5060 1.4095
17 56.250 0.0000 0.0000 12.290 6.8213 1.5290
18 62.500 0.0000 0.0000 15.230 8.3369 1.6668
19 68.750 0.0000 0.0000 18.573 10.061 1.8234
20 75.000 0.0000 0.0000 22.335 12.000 1.9997
21 81.250 0.0000 0.0000 26.528 14.162 2.1962
22 87.500 0.0000 0.0000 31.167 16.554 2.4136
23 93.750 0.0000 0.0000 36.264 19.182 2.6524
24 93.750 0.0000 6.2500 36.356 19.219 3.1377
25 100.00 18.750 0.0000 42.869 24.130 3.2595
26 100.00 18.750 6.2500 42.961 24.167 3.7448
27 0.0000 6.2500 0.0000 1.1825 1.3650 1.0608
28 0.0000 25.000 0.0000 2.8013 4.6021 1.6004
29 0.0000 31.250 0.0000 3.8176 6.6344 1.9392
30 0.0000 37.500 0.0000 5.1076 9.2140 2.3692
31 0.0000 50.000 6.2500 8.6703 16.191 4.0114
32 0.0000 50.000 0.0000 8.5782 16.154 3.5261
33 0.0000 56.250 0.0000 10.790 20.578 4.2634
34 0.0000 62.500 0.0000 13.339 25.675 5.1131
35 0.0000 68.750 0.0000 16.238 31.472 6.0794
36 0.0000 75.000 0.0000 19.500 37.995 7.1667
37 0.0000 81.250 0.0000 23.136 45.267 8.3789
38 100.00 81.250 0.0000 63.967 66.319 10.292
39 100.00 87.500 0.0000 67.989 74.363 11.633
40 100.00 93.750 0.0000 72.409 83.200 13.106
41 100.00 100.00 0.0000 77.235 92.853 14.715
42 0.0000 0.0000 12.500 1.2564 1.1026 2.3507
43 0.0000 0.0000 18.750 1.5244 1.2097 3.7620
44 0.0000 0.0000 25.000 1.9092 1.3636 5.7889
45 0.0000 0.0000 31.250 2.4222 1.5688 8.4909
46 0.0000 0.0000 37.500 3.0733 1.8292 11.920
47 0.0000 0.0000 43.750 3.8716 2.1484 16.125
48 0.0000 0.0000 50.000 4.8252 2.5298 21.147
49 0.0000 0.0000 56.250 5.9417 2.9764 27.028
50 0.0000 0.0000 62.500 7.2283 3.4909 33.805
51 0.0000 0.0000 68.750 8.6916 4.0762 41.512
52 0.0000 0.0000 75.000 10.338 4.7346 50.184
53 0.0000 0.0000 81.250 12.174 5.4687 59.852
54 0.0000 0.0000 87.500 14.204 6.2808 70.547
55 0.0000 0.0000 93.750 16.435 7.1729 82.296
56 0.0000 0.0000 100.00 18.871 8.1473 95.129
57 1.9608 1.9608 1.9608 1.1428 1.1502 1.1637
58 3.9216 3.9216 3.9216 1.2856 1.3005 1.3273
59 5.8824 5.8824 5.8824 1.4495 1.4729 1.5152
60 7.8431 7.8431 7.8431 1.6583 1.6925 1.7544
61 9.8039 9.8039 9.8039 1.9148 1.9624 2.0484
62 11.765 11.765 11.765 2.2218 2.2853 2.4001
63 13.726 13.726 13.726 2.5817 2.6639 2.8126
64 15.686 15.686 15.686 2.9968 3.1007 3.2883
65 17.647 17.647 17.647 3.4695 3.5979 3.8300
66 19.608 19.608 19.608 4.0016 4.1577 4.4398
67 21.569 21.569 21.569 4.5953 4.7822 5.1201
68 23.529 23.529 23.529 5.2523 5.4734 5.8731
69 25.490 25.490 25.490 5.9745 6.2332 6.7007
70 27.451 27.451 27.451 6.7637 7.0634 7.6050
71 29.412 29.412 29.412 7.6213 7.9656 8.5879
72 31.373 31.373 31.373 8.5492 8.9418 9.6512
73 33.333 33.333 33.333 9.5488 9.9933 10.797
74 35.294 35.294 35.294 10.622 11.122 12.026
75 37.255 37.255 37.255 11.769 12.329 13.341
76 39.216 39.216 39.216 12.993 13.616 14.743
77 41.176 41.176 41.176 14.294 14.985 16.234
78 43.137 43.137 43.137 15.674 16.437 17.816
79 45.098 45.098 45.098 17.134 17.973 19.489
80 47.059 47.059 47.059 18.675 19.594 21.255
81 49.020 49.020 49.020 20.299 21.303 23.117
82 50.980 50.980 50.980 22.007 23.100 25.074
83 52.941 52.941 52.941 23.800 24.986 27.129
84 54.902 54.902 54.902 25.679 26.963 29.282
85 56.863 56.863 56.863 27.646 29.032 31.536
86 58.824 58.824 58.824 29.701 31.194 33.891
87 60.784 60.784 60.784 31.846 33.450 36.349
88 62.745 62.745 62.745 34.081 35.802 38.911
89 64.706 64.706 64.706 36.409 38.250 41.578
90 66.667 66.667 66.667 38.829 40.796 44.351
91 68.627 68.627 68.627 41.343 43.440 47.232
92 70.588 70.588 70.588 43.951 46.185 50.221
93 72.549 72.549 72.549 46.656 49.030 53.321
94 74.510 74.510 74.510 49.457 51.977 56.531
95 76.471 76.471 76.471 52.356 55.027 59.853
96 78.431 78.431 78.431 55.354 58.180 63.289
97 80.392 80.392 80.392 58.452 61.439 66.838
98 82.353 82.353 82.353 61.650 64.803 70.503
99 84.314 84.314 84.314 64.949 68.275 74.285
100 86.275 86.275 86.275 68.351 71.854 78.183
101 88.235 88.235 88.235 71.857 75.541 82.200
102 90.196 90.196 90.196 75.466 79.338 86.337
103 92.157 92.157 92.157 79.181 83.246 90.594
104 94.118 94.118 94.118 83.001 87.265 94.972
105 96.078 96.078 96.078 86.929 91.397 99.472
106 98.039 98.039 98.039 90.963 95.641 104.10
107 6.2500 6.2500 0.0000 1.3930 1.4736 1.0707
108 12.500 6.2500 0.0000 1.7684 1.6671 1.0883
109 18.750 6.2500 0.0000 2.3806 1.9828 1.1170
110 25.000 6.2500 0.0000 3.2598 2.4361 1.1582
111 31.250 6.2500 0.0000 4.4319 3.0404 1.2131
112 37.500 6.2500 0.0000 5.9195 3.8074 1.2828
113 43.750 6.2500 0.0000 7.7432 4.7477 1.3683
114 50.000 6.2500 0.0000 9.9219 5.8711 1.4704
115 56.250 6.2500 0.0000 12.473 7.1863 1.5899
116 62.500 6.2500 0.0000 15.412 8.7019 1.7276
117 68.750 6.2500 0.0000 18.756 10.426 1.8843
118 75.000 6.2500 0.0000 22.517 12.365 2.0606
119 81.250 6.2500 0.0000 26.711 14.527 2.2571
120 87.500 6.2500 0.0000 31.350 16.919 2.4744
121 93.750 6.2500 0.0000 36.446 19.547 2.7132
122 100.00 6.2500 0.0000 42.013 22.417 2.9741
123 6.2500 12.500 0.0000 1.7186 2.1245 1.1792
124 12.500 12.500 0.0000 2.0940 2.3181 1.1968
125 18.750 12.500 0.0000 2.7061 2.6337 1.2255
126 25.000 12.500 0.0000 3.5853 3.0870 1.2667
127 31.250 12.500 0.0000 4.7574 3.6913 1.3216
128 37.500 12.500 0.0000 6.2450 4.4584 1.3913
129 43.750 12.500 0.0000 8.0688 5.3987 1.4768
130 50.000 12.500 0.0000 10.247 6.5220 1.5789
131 56.250 12.500 0.0000 12.798 7.8373 1.6984
132 62.500 12.500 0.0000 15.738 9.3529 1.8361
133 68.750 12.500 0.0000 19.081 11.077 1.9928
134 75.000 12.500 0.0000 22.843 13.016 2.1691
135 81.250 12.500 0.0000 27.036 15.178 2.3656
136 87.500 12.500 0.0000 31.675 17.570 2.5829
137 93.750 12.500 0.0000 36.772 20.198 2.8218
138 100.00 12.500 0.0000 42.338 23.068 3.0826
139 100.00 12.500 6.2500 42.430 23.105 3.5679
140 12.500 18.750 0.0000 2.6248 3.3796 1.3738
141 18.750 18.750 0.0000 3.2370 3.6952 1.4024
142 25.000 18.750 0.0000 4.1162 4.1485 1.4436
143 31.250 18.750 0.0000 5.2882 4.7528 1.4986
144 37.500 18.750 0.0000 6.7758 5.5199 1.5683
145 43.750 18.750 0.0000 8.5996 6.4602 1.6537
146 50.000 18.750 0.0000 10.778 7.5835 1.7558
147 56.250 18.750 0.0000 13.329 8.8988 1.8753
148 62.500 18.750 0.0000 16.269 10.414 2.0131
149 68.750 18.750 0.0000 19.612 12.138 2.1697
150 75.000 18.750 0.0000 23.374 14.078 2.3460
151 81.250 18.750 0.0000 27.567 16.240 2.5425
152 87.500 18.750 0.0000 32.206 18.632 2.7599
153 87.500 18.750 6.2500 32.298 18.669 3.2452
154 6.2500 18.750 0.0000 2.2494 3.1860 1.3562
155 6.2500 25.000 0.0000 3.0118 4.7106 1.6103
156 12.500 25.000 0.0000 3.3872 4.9041 1.6279
157 18.750 25.000 0.0000 3.9994 5.2198 1.6566
158 25.000 25.000 0.0000 4.8786 5.6731 1.6978
159 31.250 25.000 0.0000 6.0506 6.2774 1.7527
160 37.500 25.000 0.0000 7.5382 7.0444 1.8224
161 43.750 25.000 0.0000 9.3620 7.9848 1.9079
162 50.000 25.000 0.0000 11.541 9.1081 2.0099
163 56.250 25.000 0.0000 14.092 10.423 2.1295
164 62.500 25.000 0.0000 17.031 11.939 2.2672
165 68.750 25.000 0.0000 20.374 13.663 2.4239
166 75.000 25.000 0.0000 24.136 15.602 2.6001
167 81.250 25.000 0.0000 28.330 17.765 2.7966
168 87.500 25.000 0.0000 32.968 20.156 3.0140
169 93.750 25.000 0.0000 38.065 22.784 3.2528
170 93.750 25.000 6.2500 38.157 22.821 3.7381
171 6.2500 31.250 0.0000 4.0281 6.7429 1.9491
172 12.500 31.250 0.0000 4.4035 6.9365 1.9667
173 18.750 31.250 0.0000 5.0157 7.2521 1.9953
174 25.000 31.250 0.0000 5.8949 7.7055 2.0365
175 31.250 31.250 0.0000 7.0669 8.3098 2.0915
176 37.500 31.250 0.0000 8.5546 9.0768 2.1612
177 43.750 31.250 0.0000 10.378 10.017 2.2466
178 50.000 31.250 0.0000 12.557 11.140 2.3487
179 56.250 31.250 0.0000 15.108 12.456 2.4682
180 62.500 31.250 0.0000 18.047 13.971 2.6060
181 68.750 31.250 0.0000 21.391 15.695 2.7626
182 75.000 31.250 0.0000 25.152 17.635 2.9389
183 81.250 31.250 0.0000 29.346 19.797 3.1354
184 87.500 31.250 0.0000 33.985 22.189 3.3528
185 93.750 31.250 0.0000 39.081 24.817 3.5916
186 93.750 31.250 6.2500 39.173 24.853 4.0769
187 6.2500 37.500 0.0000 5.3181 9.3225 2.3791
188 12.500 37.500 0.0000 5.6935 9.5161 2.3967
189 18.750 37.500 0.0000 6.3056 9.8317 2.4253
190 25.000 37.500 0.0000 7.1849 10.285 2.4665
191 31.250 37.500 0.0000 8.3569 10.889 2.5215
192 37.500 37.500 0.0000 9.8445 11.656 2.5912
193 43.750 37.500 0.0000 11.668 12.597 2.6766
194 50.000 37.500 0.0000 13.847 13.720 2.7787
195 56.250 37.500 0.0000 16.398 15.035 2.8982
196 62.500 37.500 0.0000 19.337 16.551 3.0360
197 68.750 37.500 0.0000 22.681 18.275 3.1926
198 75.000 37.500 0.0000 26.442 20.214 3.3689
199 81.250 37.500 0.0000 30.636 22.376 3.5654
200 87.500 37.500 0.0000 35.275 24.768 3.7828
201 87.500 37.500 6.2500 35.367 24.805 4.2681
202 0.0000 43.750 0.0000 6.6890 12.376 2.8963
203 6.2500 43.750 0.0000 6.8995 12.485 2.9062
204 12.500 43.750 0.0000 7.2749 12.679 2.9238
205 18.750 43.750 0.0000 7.8871 12.994 2.9525
206 25.000 43.750 0.0000 8.7663 13.447 2.9937
207 31.250 43.750 0.0000 9.9383 14.052 3.0486
208 37.500 43.750 0.0000 11.426 14.819 3.1183
209 43.750 43.750 0.0000 13.250 15.759 3.2038
210 50.000 43.750 0.0000 15.428 16.882 3.3059
211 56.250 43.750 0.0000 17.979 18.198 3.4254
212 62.500 43.750 0.0000 20.919 19.713 3.5631
213 68.750 43.750 0.0000 24.262 21.437 3.7198
214 75.000 43.750 0.0000 28.024 23.377 3.8961
215 81.250 43.750 0.0000 32.217 25.539 4.0926
216 87.500 43.750 0.0000 36.856 27.931 4.3099
217 93.750 43.750 0.0000 41.953 30.559 4.5487
218 93.750 43.750 6.2500 42.045 30.595 5.0340
219 6.2500 50.000 0.0000 8.7887 16.263 3.5359
220 12.500 50.000 0.0000 9.1641 16.456 3.5535
221 18.750 50.000 0.0000 9.7762 16.772 3.5822
222 25.000 50.000 0.0000 10.655 17.225 3.6234
223 31.250 50.000 0.0000 11.827 17.830 3.6783
224 37.500 50.000 0.0000 13.315 18.597 3.7480
225 43.750 50.000 0.0000 15.139 19.537 3.8335
226 50.000 50.000 0.0000 17.318 20.660 3.9356
227 56.250 50.000 0.0000 19.868 21.976 4.0551
228 62.500 50.000 0.0000 22.808 23.491 4.1929
229 68.750 50.000 0.0000 26.151 25.215 4.3495
230 75.000 50.000 0.0000 29.913 27.154 4.5258
231 81.250 50.000 0.0000 34.106 29.317 4.7223
232 87.500 50.000 0.0000 38.745 31.709 4.9397
233 93.750 50.000 0.0000 43.842 34.336 5.1785
234 100.00 50.000 0.0000 49.408 37.206 5.4393
235 6.2500 56.250 0.0000 11.001 20.686 4.2733
236 12.500 56.250 0.0000 11.376 20.880 4.2909
237 18.750 56.250 0.0000 11.988 21.195 4.3196
238 25.000 56.250 0.0000 12.867 21.649 4.3608
239 31.250 56.250 0.0000 14.039 22.253 4.4157
240 37.500 56.250 0.0000 15.527 23.020 4.4854
241 43.750 56.250 0.0000 17.351 23.960 4.5708
242 50.000 56.250 0.0000 19.529 25.084 4.6729
243 56.250 56.250 0.0000 22.080 26.399 4.7925
244 62.500 56.250 0.0000 25.020 27.914 4.9302
245 68.750 56.250 0.0000 28.363 29.638 5.0869
246 75.000 56.250 0.0000 32.125 31.578 5.2631
247 81.250 56.250 0.0000 36.318 33.740 5.4596
248 87.500 56.250 0.0000 40.957 36.132 5.6770
249 93.750 56.250 0.0000 46.054 38.760 5.9158
250 100.00 56.250 0.0000 51.620 41.630 6.1766
251 6.2500 62.500 0.0000 13.550 25.783 5.1229
252 12.500 62.500 0.0000 13.925 25.977 5.1405
253 18.750 62.500 0.0000 14.537 26.292 5.1692
254 25.000 62.500 0.0000 15.416 26.746 5.2104
255 31.250 62.500 0.0000 16.588 27.350 5.2653
256 37.500 62.500 0.0000 18.076 28.117 5.3350
257 43.750 62.500 0.0000 19.900 29.057 5.4205
258 50.000 62.500 0.0000 22.078 30.181 5.5226
259 56.250 62.500 0.0000 24.629 31.496 5.6421
260 62.500 62.500 0.0000 27.569 33.012 5.7798
261 68.750 62.500 0.0000 30.912 34.735 5.9365
262 75.000 62.500 0.0000 34.674 36.675 6.1128
263 81.250 62.500 0.0000 38.867 38.837 6.3093
264 87.500 62.500 0.0000 43.506 41.229 6.5266
265 93.750 62.500 0.0000 48.603 43.857 6.7655
266 100.00 62.500 0.0000 54.169 46.727 7.0263
267 6.2500 68.750 0.0000 16.449 31.581 6.0893
268 12.500 68.750 0.0000 16.824 31.774 6.1069
269 18.750 68.750 0.0000 17.436 32.090 6.1356
270 25.000 68.750 0.0000 18.315 32.543 6.1768
271 31.250 68.750 0.0000 19.487 33.147 6.2317
272 37.500 68.750 0.0000 20.975 33.914 6.3014
273 43.750 68.750 0.0000 22.799 34.855 6.3869
274 50.000 68.750 0.0000 24.977 35.978 6.4889
275 56.250 68.750 0.0000 27.528 37.293 6.6085
276 62.500 68.750 0.0000 30.468 38.809 6.7462
277 68.750 68.750 0.0000 33.811 40.533 6.9029
278 75.000 68.750 0.0000 37.573 42.472 7.0791
279 81.250 68.750 0.0000 41.766 44.635 7.2756
280 87.500 68.750 0.0000 46.405 47.026 7.4930
281 93.750 68.750 0.0000 51.502 49.654 7.7318
282 100.00 68.750 0.0000 57.068 52.524 7.9927
283 6.2500 75.000 0.0000 19.710 38.103 7.1766
284 12.500 75.000 0.0000 20.086 38.297 7.1942
285 18.750 75.000 0.0000 20.698 38.613 7.2229
286 25.000 75.000 0.0000 21.577 39.066 7.2641
287 31.250 75.000 0.0000 22.749 39.670 7.3190
288 37.500 75.000 0.0000 24.237 40.437 7.3887
289 43.750 75.000 0.0000 26.061 41.378 7.4741
290 50.000 75.000 0.0000 28.239 42.501 7.5762
291 56.250 75.000 0.0000 30.790 43.816 7.6958
292 62.500 75.000 0.0000 33.730 45.332 7.8335
293 68.750 75.000 0.0000 37.073 47.056 7.9902
294 75.000 75.000 0.0000 40.835 48.995 8.1664
295 81.250 75.000 0.0000 45.028 51.157 8.3629
296 87.500 75.000 0.0000 49.667 53.549 8.5803
297 93.750 75.000 0.0000 54.764 56.177 8.8191
298 100.00 75.000 0.0000 60.330 59.047 9.0799
299 6.2500 81.250 0.0000 23.347 45.375 8.3887
300 12.500 81.250 0.0000 23.722 45.569 8.4063
301 18.750 81.250 0.0000 24.335 45.884 8.4350
302 25.000 81.250 0.0000 25.214 46.338 8.4762
303 31.250 81.250 0.0000 26.386 46.942 8.5311
304 37.500 81.250 0.0000 27.873 47.709 8.6008
305 43.750 81.250 0.0000 29.697 48.649 8.6863
306 50.000 81.250 0.0000 31.876 49.773 8.7884
307 56.250 81.250 0.0000 34.427 51.088 8.9079
308 62.500 81.250 0.0000 37.366 52.604 9.0457
309 68.750 81.250 0.0000 40.709 54.327 9.2023
310 75.000 81.250 0.0000 44.471 56.267 9.3786
311 81.250 81.250 0.0000 48.665 58.429 9.5751
312 87.500 81.250 0.0000 53.304 60.821 9.7925
313 93.750 81.250 0.0000 58.400 63.449 10.031
314 0.0000 87.500 0.0000 27.159 53.311 9.7197
315 6.2500 87.500 0.0000 27.369 53.419 9.7296
316 12.500 87.500 0.0000 27.745 53.613 9.7472
317 18.750 87.500 0.0000 28.357 53.928 9.7759
318 25.000 87.500 0.0000 29.236 54.382 9.8171
319 31.250 87.500 0.0000 30.408 54.986 9.8720
320 37.500 87.500 0.0000 31.896 55.753 9.9417
321 43.750 87.500 0.0000 33.720 56.693 10.027
322 50.000 87.500 0.0000 35.898 57.817 10.129
323 56.250 87.500 0.0000 38.449 59.132 10.249
324 62.500 87.500 0.0000 41.389 60.647 10.386
325 68.750 87.500 0.0000 44.732 62.371 10.543
326 75.000 87.500 0.0000 48.494 64.311 10.719
327 81.250 87.500 0.0000 52.687 66.473 10.916
328 87.500 87.500 0.0000 57.326 68.865 11.133
329 93.750 87.500 0.0000 62.423 71.493 11.372
330 0.0000 93.750 0.0000 31.578 62.148 11.193
331 6.2500 93.750 0.0000 31.789 62.257 11.203
332 12.500 93.750 0.0000 32.164 62.450 11.220
333 18.750 93.750 0.0000 32.776 62.766 11.249
334 25.000 93.750 0.0000 33.656 63.219 11.290
335 31.250 93.750 0.0000 34.828 63.824 11.345
336 37.500 93.750 0.0000 36.315 64.591 11.415
337 43.750 93.750 0.0000 38.139 65.531 11.500
338 50.000 93.750 0.0000 40.318 66.654 11.602
339 56.250 93.750 0.0000 42.869 67.970 11.722
340 62.500 93.750 0.0000 45.808 69.485 11.860
341 68.750 93.750 0.0000 49.151 71.209 12.016
342 75.000 93.750 0.0000 52.913 73.148 12.193
343 81.250 93.750 0.0000 57.107 75.311 12.389
344 87.500 93.750 0.0000 61.746 77.703 12.606
345 93.750 93.750 0.0000 66.842 80.330 12.845
346 0.0000 100.00 0.0000 36.405 71.801 12.802
347 6.2500 100.00 0.0000 36.616 71.909 12.812
348 12.500 100.00 0.0000 36.991 72.103 12.829
349 18.750 100.00 0.0000 37.603 72.418 12.858
350 25.000 100.00 0.0000 38.482 72.872 12.899
351 31.250 100.00 0.0000 39.655 73.476 12.954
352 37.500 100.00 0.0000 41.142 74.243 13.024
353 43.750 100.00 0.0000 42.966 75.183 13.109
354 50.000 100.00 0.0000 45.145 76.307 13.211
355 56.250 100.00 0.0000 47.695 77.622 13.331
356 62.500 100.00 0.0000 50.635 79.137 13.469
357 68.750 100.00 0.0000 53.978 80.861 13.625
358 75.000 100.00 0.0000 57.740 82.801 13.802
359 81.250 100.00 0.0000 61.934 84.963 13.998
360 87.500 100.00 0.0000 66.572 87.355 14.215
361 93.750 100.00 0.0000 71.669 89.983 14.454
362 0.0000 0.0000 6.2500 1.0921 1.0368 1.4853
363 6.2500 0.0000 6.2500 1.3026 1.1454 1.4952
364 12.500 0.0000 6.2500 1.6780 1.3389 1.5128
365 18.750 0.0000 6.2500 2.2902 1.6546 1.5414
366 25.000 0.0000 6.2500 3.1694 2.1079 1.5826
367 31.250 0.0000 6.2500 4.3415 2.7122 1.6376
368 37.500 0.0000 6.2500 5.8291 3.4792 1.7073
369 43.750 0.0000 6.2500 7.6528 4.4196 1.7927
370 50.000 0.0000 6.2500 9.8315 5.5429 1.8948
371 56.250 0.0000 6.2500 12.382 6.8581 2.0143
372 62.500 0.0000 6.2500 15.322 8.3737 2.1521
373 68.750 0.0000 6.2500 18.665 10.098 2.3087
374 75.000 0.0000 6.2500 22.427 12.037 2.4850
375 81.250 0.0000 6.2500 26.620 14.199 2.6815
376 87.500 0.0000 6.2500 31.259 16.591 2.8989
377 87.500 6.2500 6.2500 31.442 16.956 2.9597
378 93.750 6.2500 6.2500 36.538 19.584 3.1985
379 0.0000 6.2500 6.2500 1.2747 1.4019 1.5461
380 12.500 6.2500 6.2500 1.8606 1.7040 1.5736
381 18.750 6.2500 6.2500 2.4727 2.0196 1.6023
382 25.000 6.2500 6.2500 3.3520 2.4729 1.6435
383 31.250 6.2500 6.2500 4.5240 3.0772 1.6984
384 37.500 6.2500 6.2500 6.0116 3.8443 1.7681
385 43.750 6.2500 6.2500 7.8354 4.7846 1.8536
386 50.000 6.2500 6.2500 10.014 5.9079 1.9557
387 56.250 6.2500 6.2500 12.565 7.2232 2.0752
388 62.500 6.2500 6.2500 15.504 8.7388 2.2129
389 68.750 6.2500 6.2500 18.848 10.463 2.3696
390 75.000 6.2500 6.2500 22.609 12.402 2.5458
391 81.250 6.2500 6.2500 26.803 14.564 2.7424
392 100.00 0.0000 0.0000 41.830 22.052 2.9132
393 100.00 0.0000 6.2500 41.922 22.089 3.3985
394 100.00 6.2500 6.2500 42.105 22.454 3.4594
395 0.0000 12.500 6.2500 1.6002 2.0528 1.6547
396 6.2500 12.500 6.2500 1.8107 2.1614 1.6645
397 12.500 12.500 6.2500 2.1861 2.3549 1.6821
398 18.750 12.500 6.2500 2.7983 2.6706 1.7108
399 25.000 12.500 6.2500 3.6775 3.1239 1.7520
400 31.250 12.500 6.2500 4.8495 3.7282 1.8069
401 37.500 12.500 6.2500 6.3372 4.4952 1.8766
402 43.750 12.500 6.2500 8.1609 5.4355 1.9621
403 50.000 12.500 6.2500 10.340 6.5589 2.0642
404 56.250 12.500 6.2500 12.890 7.8741 2.1837
405 62.500 12.500 6.2500 15.830 9.3897 2.3214
406 68.750 12.500 6.2500 19.173 11.114 2.4781
407 75.000 12.500 6.2500 22.935 13.053 2.6544
408 81.250 12.500 6.2500 27.129 15.215 2.8509
409 87.500 12.500 6.2500 31.767 17.607 3.0682
410 93.750 12.500 6.2500 36.864 20.235 3.3070
411 0.0000 18.750 0.0000 2.0389 3.0775 1.3463
412 0.0000 18.750 6.2500 2.1310 3.1143 1.8316
413 6.2500 18.750 6.2500 2.3415 3.2229 1.8415
414 12.500 18.750 6.2500 2.7169 3.4164 1.8591
415 18.750 18.750 6.2500 3.3291 3.7321 1.8877
416 25.000 18.750 6.2500 4.2083 4.1854 1.9289
417 31.250 18.750 6.2500 5.3803 4.7897 1.9839
418 37.500 18.750 6.2500 6.8680 5.5567 2.0536
419 43.750 18.750 6.2500 8.6917 6.4971 2.1390
420 50.000 18.750 6.2500 10.870 7.6204 2.2411
421 56.250 18.750 6.2500 13.421 8.9356 2.3606
422 62.500 18.750 6.2500 16.361 10.451 2.4984
423 68.750 18.750 6.2500 19.704 12.175 2.6550
424 75.000 18.750 6.2500 23.466 14.115 2.8313
425 81.250 18.750 6.2500 27.659 16.277 3.0278
426 93.750 18.750 0.0000 37.303 21.260 2.9987
427 93.750 18.750 6.2500 37.395 21.296 3.4840
428 0.0000 12.500 0.0000 1.5081 2.0160 1.1694
429 0.0000 25.000 6.2500 2.8934 4.6389 2.0857
430 6.2500 25.000 6.2500 3.1039 4.7474 2.0956
431 12.500 25.000 6.2500 3.4793 4.9410 2.1132
432 18.750 25.000 6.2500 4.0915 5.2566 2.1419
433 25.000 25.000 6.2500 4.9707 5.7100 2.1831
434 31.250 25.000 6.2500 6.1427 6.3143 2.2380
435 37.500 25.000 6.2500 7.6304 7.0813 2.3077
436 43.750 25.000 6.2500 9.4541 8.0216 2.3932
437 50.000 25.000 6.2500 11.633 9.1449 2.4952
438 56.250 25.000 6.2500 14.184 10.460 2.6148
439 62.500 25.000 6.2500 17.123 11.976 2.7525
440 68.750 25.000 6.2500 20.466 13.700 2.9092
441 75.000 25.000 6.2500 24.228 15.639 3.0854
442 81.250 25.000 6.2500 28.422 17.801 3.2819
443 87.500 25.000 6.2500 33.061 20.193 3.4993
444 100.00 25.000 0.0000 43.631 25.654 3.5137
445 100.00 25.000 6.2500 43.724 25.691 3.9990
446 0.0000 31.250 6.2500 3.9097 6.6713 2.4245
447 6.2500 31.250 6.2500 4.1202 6.7798 2.4344
448 12.500 31.250 6.2500 4.4956 6.9734 2.4520
449 18.750 31.250 6.2500 5.1078 7.2890 2.4806
450 25.000 31.250 6.2500 5.9870 7.7423 2.5218
451 31.250 31.250 6.2500 7.1591 8.3466 2.5768
452 37.500 31.250 6.2500 8.6467 9.1136 2.6465
453 43.750 31.250 6.2500 10.470 10.054 2.7319
454 50.000 31.250 6.2500 12.649 11.177 2.8340
455 56.250 31.250 6.2500 15.200 12.493 2.9535
456 62.500 31.250 6.2500 18.139 14.008 3.0913
457 68.750 31.250 6.2500 21.483 15.732 3.2479
458 75.000 31.250 6.2500 25.244 17.671 3.4242
459 81.250 31.250 6.2500 29.438 19.834 3.6207
460 87.500 31.250 6.2500 34.077 22.226 3.8381
461 100.00 31.250 0.0000 44.648 27.687 3.8524
462 100.00 31.250 6.2500 44.740 27.723 4.3377
463 0.0000 37.500 6.2500 5.1997 9.2509 2.8545
464 6.2500 37.500 6.2500 5.4102 9.3594 2.8644
465 12.500 37.500 6.2500 5.7856 9.5529 2.8820
466 18.750 37.500 6.2500 6.3978 9.8686 2.9106
467 25.000 37.500 6.2500 7.2770 10.322 2.9518
468 31.250 37.500 6.2500 8.4490 10.926 3.0068
469 37.500 37.500 6.2500 9.9367 11.693 3.0765
470 43.750 37.500 6.2500 11.760 12.634 3.1619
471 50.000 37.500 6.2500 13.939 13.757 3.2640
472 56.250 37.500 6.2500 16.490 15.072 3.3835
473 62.500 37.500 6.2500 19.429 16.588 3.5213
474 68.750 37.500 6.2500 22.773 18.312 3.6779
475 75.000 37.500 6.2500 26.534 20.251 3.8542
476 81.250 37.500 6.2500 30.728 22.413 4.0507
477 93.750 37.500 0.0000 40.371 27.396 4.0216
478 93.750 37.500 6.2500 40.463 27.433 4.5069
479 100.00 37.500 6.2500 46.030 30.303 4.7677
480 0.0000 43.750 6.2500 6.7811 12.413 3.3816
481 6.2500 43.750 6.2500 6.9916 12.522 3.3915
482 12.500 43.750 6.2500 7.3670 12.715 3.4091
483 18.750 43.750 6.2500 7.9792 13.031 3.4378
484 25.000 43.750 6.2500 8.8584 13.484 3.4790
485 31.250 43.750 6.2500 10.030 14.089 3.5339
486 37.500 43.750 6.2500 11.518 14.856 3.6036
487 43.750 43.750 6.2500 13.342 15.796 3.6891
488 50.000 43.750 6.2500 15.520 16.919 3.7912
489 56.250 43.750 6.2500 18.071 18.235 3.9107
490 62.500 43.750 6.2500 21.011 19.750 4.0484
491 68.750 43.750 6.2500 24.354 21.474 4.2051
492 75.000 43.750 6.2500 28.116 23.413 4.3814
493 81.250 43.750 6.2500 32.309 25.576 4.5779
494 87.500 43.750 6.2500 36.948 27.968 4.7952
495 100.00 43.750 0.0000 47.519 33.429 4.8096
496 100.00 43.750 6.2500 47.611 33.465 5.2949
497 100.00 37.500 0.0000 45.938 30.266 4.2824
498 6.2500 50.000 6.2500 8.8808 16.300 4.0212
499 12.500 50.000 6.2500 9.2562 16.493 4.0388
500 18.750 50.000 6.2500 9.8684 16.809 4.0675
501 25.000 50.000 6.2500 10.748 17.262 4.1087
502 31.250 50.000 6.2500 11.920 17.866 4.1636
503 37.500 50.000 6.2500 13.407 18.633 4.2333
