DisplayCAL/ti1/d3-e4-s4-g52-m4-b0-f0.ti1
CTI1   

DESCRIPTOR "Argyll Calibration Target chart information 1"
ORIGINATOR "Argyll targen"
CREATED "Thu Aug 31 12:13:31 2017"
APPROX_WHITE_POINT "95.106486 100.000000 108.844025"
COLOR_REP "RGB"
WHITE_COLOR_PATCHES "4"
BLACK_COLOR_PATCHES "4"
SINGLE_DIM_STEPS "4"
COMP_GREY_STEPS "52"
MULTI_DIM_STEPS "4"

NUMBER_OF_FIELDS 7
BEGIN_DATA_FORMAT
SAMPLE_ID RGB_R RGB_G RGB_B XYZ_X XYZ_Y XYZ_Z
END_DATA_FORMAT

NUMBER_OF_SETS 115
BEGIN_DATA
1 100.00 100.00 100.00 95.106 100.00 108.84
2 100.00 66.667 100.00 73.933 57.660 101.79
3 100.00 100.00 100.00 95.106 100.00 108.84
4 100.00 100.00 100.00 95.106 100.00 108.84
5 0.0000 0.0000 0.0000 1.0000 1.0000 1.0000
6 33.333 0.0000 0.0000 4.7091 2.9124 1.1738
7 66.667 0.0000 0.0000 17.413 9.4625 1.7691
8 100.00 0.0000 0.0000 41.830 22.052 2.9132
9 100.00 0.0000 33.333 43.454 22.701 11.464
10 100.00 33.333 33.333 46.670 29.133 12.536
11 100.00 66.667 33.333 57.686 51.162 16.208
12 100.00 66.667 66.667 63.246 53.385 45.495
13 66.667 0.0000 100.00 35.284 16.610 95.898
14 100.00 0.0000 100.00 59.701 29.199 97.042
15 1.9608 1.9608 1.9608 1.1428 1.1502 1.1637
16 3.9216 3.9216 3.9216 1.2856 1.3005 1.3273
17 5.8824 5.8824 5.8824 1.4495 1.4729 1.5152
18 7.8431 7.8431 7.8431 1.6583 1.6925 1.7544
19 9.8039 9.8039 9.8039 1.9148 1.9624 2.0484
20 11.765 11.765 11.765 2.2218 2.2853 2.4001
21 13.726 13.726 13.726 2.5817 2.6639 2.8126
22 15.686 15.686 15.686 2.9968 3.1007 3.2883
23 17.647 17.647 17.647 3.4695 3.5979 3.8300
24 19.608 19.608 19.608 4.0016 4.1577 4.4398
25 21.569 21.569 21.569 4.5953 4.7822 5.1201
26 23.529 23.529 23.529 5.2523 5.4734 5.8731
27 25.490 25.490 25.490 5.9745 6.2332 6.7007
28 27.451 27.451 27.451 6.7637 7.0634 7.6050
29 29.412 29.412 29.412 7.6213 7.9656 8.5879
30 31.373 31.373 31.373 8.5492 8.9418 9.6512
31 33.333 33.333 33.333 9.5488 9.9933 10.797
32 35.294 35.294 35.294 10.622 11.122 12.026
33 37.255 37.255 37.255 11.769 12.329 13.341
34 39.216 39.216 39.216 12.993 13.616 14.743
35 41.176 41.176 41.176 14.294 14.985 16.234
36 43.137 43.137 43.137 15.674 16.437 17.816
37 45.098 45.098 45.098 17.134 17.973 19.489
38 47.059 47.059 47.059 18.675 19.594 21.255
39 49.020 49.020 49.020 20.299 21.303 23.117
40 50.980 50.980 50.980 22.007 23.100 25.074
41 52.941 52.941 52.941 23.800 24.986 27.129
42 54.902 54.902 54.902 25.679 26.963 29.282
43 56.863 56.863 56.863 27.646 29.032 31.536
44 58.824 58.824 58.824 29.701 31.194 33.891
45 60.784 60.784 60.784 31.846 33.450 36.349
46 62.745 62.745 62.745 34.081 35.802 38.911
47 64.706 64.706 64.706 36.409 38.250 41.578
48 66.667 66.667 66.667 38.829 40.796 44.351
49 68.627 68.627 68.627 41.343 43.440 47.232
50 70.588 70.588 70.588 43.951 46.185 50.221
51 72.549 72.549 72.549 46.656 49.030 53.321
52 74.510 74.510 74.510 49.457 51.977 56.531
53 76.471 76.471 76.471 52.356 55.027 59.853
54 78.431 78.431 78.431 55.354 58.180 63.289
55 80.392 80.392 80.392 58.452 61.439 66.838
56 82.353 82.353 82.353 61.650 64.803 70.503
57 84.314 84.314 84.314 64.949 68.275 74.285
58 86.275 86.275 86.275 68.351 71.854 78.183
59 88.235 88.235 88.235 71.857 75.541 82.200
60 90.196 90.196 90.196 75.466 79.338 86.337
61 92.157 92.157 92.157 79.181 83.246 90.594
62 94.118 94.118 94.118 83.001 87.265 94.972
63 96.078 96.078 96.078 86.929 91.397 99.472
64 98.039 98.039 98.039 90.963 95.641 104.10
65 33.333 33.333 0.0000 7.9254 9.3441 2.2459
66 66.667 33.333 0.0000 20.629 15.894 2.8412
67 100.00 33.333 0.0000 45.046 28.484 3.9853
68 100.00 66.667 0.0000 56.062 50.512 7.6573
69 66.667 66.667 0.0000 31.645 37.923 6.5132
70 33.333 66.667 0.0000 18.941 31.373 5.9179
71 33.333 100.00 0.0000 40.114 73.713 12.976
72 66.667 100.00 0.0000 52.818 80.263 13.571
73 100.00 100.00 0.0000 77.235 92.853 14.715
74 100.00 100.00 33.333 78.859 93.502 23.266
75 100.00 100.00 66.667 84.419 95.726 52.553
76 0.0000 33.333 0.0000 4.2163 7.4316 2.0721
77 0.0000 33.333 33.333 5.8397 8.0809 10.623
78 33.333 66.667 66.667 26.125 34.246 43.756
79 0.0000 66.667 0.0000 15.232 29.460 5.7441
80 0.0000 66.667 33.333 16.856 30.110 14.295
81 33.333 66.667 33.333 20.565 32.022 14.469
82 66.667 66.667 33.333 33.268 38.572 15.064
83 0.0000 100.00 0.0000 36.405 71.801 12.802
84 0.0000 100.00 33.333 38.029 72.450 21.353
85 33.333 100.00 33.333 41.738 74.362 21.526
86 66.667 100.00 33.333 54.441 80.912 22.122
87 66.667 100.00 66.667 60.002 83.136 51.409
88 66.667 0.0000 33.333 19.036 10.112 10.320
89 66.667 0.0000 66.667 24.597 12.336 39.607
90 100.00 0.0000 66.667 49.014 24.925 40.751
91 100.00 33.333 66.667 52.230 31.357 41.823
92 66.667 33.333 33.333 22.253 16.543 11.392
93 66.667 33.333 66.667 27.813 18.767 40.679
94 0.0000 0.0000 33.333 2.6234 1.6493 9.5508
95 0.0000 33.333 66.667 11.400 10.305 39.910
96 33.333 33.333 66.667 15.109 12.217 40.084
97 0.0000 66.667 66.667 22.416 32.333 43.582
98 0.0000 100.00 66.667 43.589 74.674 50.640
99 33.333 100.00 66.667 47.298 76.586 50.813
100 33.333 0.0000 33.333 6.3325 3.5617 9.7246
101 33.333 0.0000 66.667 11.893 5.7855 39.012
102 33.333 0.0000 100.00 22.580 10.060 95.303
103 0.0000 0.0000 66.667 8.1838 3.8731 38.838
104 0.0000 0.0000 100.00 18.871 8.1473 95.129
105 0.0000 33.333 100.00 22.087 14.579 96.201
106 33.333 33.333 100.00 25.796 16.491 96.375
107 66.667 33.333 100.00 38.500 23.041 96.970
108 100.00 33.333 100.00 62.918 35.631 98.114
109 0.0000 66.667 100.00 33.103 36.608 99.873
110 33.333 66.667 100.00 36.812 38.520 100.05
111 66.667 66.667 100.00 49.516 45.070 100.64
112 66.667 100.00 100.00 70.689 87.410 107.70
113 0.0000 100.00 100.00 54.276 78.948 106.93
114 33.333 100.00 100.00 57.985 80.860 107.10
115 100.00 100.00 100.00 95.106 100.00 108.84
END_DATA
CTI1   

DESCRIPTOR "Argyll Calibration Target chart information 1"
ORIGINATOR "Argyll targen"
DENSITY_EXTREME_VALUES "8"
CREATED "August 31, 2017"

NUMBER_OF_FIELDS 7
BEGIN_DATA_FORMAT
INDEX RGB_R RGB_G RGB_B XYZ_X XYZ_Y XYZ_Z
END_DATA_FORMAT

NUMBER_OF_SETS 8
BEGIN_DATA
0 100.0000 100.0000 100.0000 95.10649 100.0000 108.8440
1 0.000000 47.36070 100.0000 25.61297 21.62916 97.37627
2 100.0000 0.000000 79.35140 52.42580 26.28975 58.72153
3 0.000000 0.000000 58.99710 6.485834 3.193987 29.89445
4 100.0000 66.65930 0.000000 56.05879 50.50543 7.656144
5 0.000000 35.60110 0.000000 4.685619 8.370208 2.228550
6 84.44440 0.000000 0.000000 28.84279 15.35583 2.304665
7 0.000000 0.000000 0.000000 1.000000 1.000000 1.000000
END_DATA
CTI1   

DESCRIPTOR "Argyll Calibration Target chart information 1"
ORIGINATOR "Argyll targen"
DEVICE_COMBINATION_VALUES "9"
CREATED "August 31, 2017"

NUMBER_OF_FIELDS 7
BEGIN_DATA_FORMAT
INDEX RGB_R RGB_G RGB_B XYZ_X XYZ_Y XYZ_Z
END_DATA_FORMAT

NUMBER_OF_SETS 9
BEGIN_DATA
0 100.0000 100.0000 100.0000 95.10649 100.0000 108.8440
1 0.000000 100.0000 100.0000 54.27632 78.94783 106.9308
2 100.0000 0.000000 100.0000 59.70128 29.19948 97.04219
3 0.000000 0.000000 100.0000 18.87111 8.147314 95.12896
4 100.0000 100.0000 0.000000 77.23538 92.85269 14.71507
5 0.000000 100.0000 0.000000 36.40521 71.80052 12.80184
6 100.0000 0.000000 0.000000 41.83017 22.05217 2.913230
7 0.000000 0.000000 0.000000 1.000000 1.000000 1.000000
8 50.00000 50.00000 50.00000 21.14266 22.19007 24.08306
END_DATA