DisplayCAL/ti1/d3-e4-s3-g52-m3-b0-f0.ti1
CTI1   

DESCRIPTOR "Argyll Calibration Target chart information 1"
ORIGINATOR "Argyll targen"
CREATED "Thu Aug 31 13:00:19 2017"
APPROX_WHITE_POINT "95.106486 100.000000 108.844025"
COLOR_REP "RGB"
WHITE_COLOR_PATCHES "4"
BLACK_COLOR_PATCHES "4"
SINGLE_DIM_STEPS "3"
COMP_GREY_STEPS "52"
MULTI_DIM_STEPS "3"

NUMBER_OF_FIELDS 7
BEGIN_DATA_FORMAT
SAMPLE_ID RGB_R RGB_G RGB_B XYZ_X XYZ_Y XYZ_Z
END_DATA_FORMAT

NUMBER_OF_SETS 79
BEGIN_DATA
1 100.00 100.00 100.00 95.106 100.00 108.84
2 50.000 100.00 50.000 48.970 77.836 33.359
3 100.00 100.00 100.00 95.106 100.00 108.84
4 100.00 100.00 100.00 95.106 100.00 108.84
5 0.0000 0.0000 0.0000 1.0000 1.0000 1.0000
6 50.000 0.0000 0.0000 9.7393 5.5060 1.4095
7 100.00 0.0000 0.0000 41.830 22.052 2.9132
8 100.00 0.0000 50.000 45.655 23.582 23.061
9 100.00 0.0000 100.00 59.701 29.199 97.042
10 100.00 50.000 100.00 67.279 44.354 99.568
11 100.00 50.000 50.000 53.233 38.736 25.587
12 1.9608 1.9608 1.9608 1.1428 1.1502 1.1637
13 3.9216 3.9216 3.9216 1.2856 1.3005 1.3273
14 5.8824 5.8824 5.8824 1.4495 1.4729 1.5152
15 7.8431 7.8431 7.8431 1.6583 1.6925 1.7544
16 9.8039 9.8039 9.8039 1.9148 1.9624 2.0484
17 11.765 11.765 11.765 2.2218 2.2853 2.4001
18 13.726 13.726 13.726 2.5817 2.6639 2.8126
19 15.686 15.686 15.686 2.9968 3.1007 3.2883
20 17.647 17.647 17.647 3.4695 3.5979 3.8300
21 19.608 19.608 19.608 4.0016 4.1577 4.4398
22 21.569 21.569 21.569 4.5953 4.7822 5.1201
23 23.529 23.529 23.529 5.2523 5.4734 5.8731
24 25.490 25.490 25.490 5.9745 6.2332 6.7007
25 27.451 27.451 27.451 6.7637 7.0634 7.6050
26 29.412 29.412 29.412 7.6213 7.9656 8.5879
27 31.373 31.373 31.373 8.5492 8.9418 9.6512
28 33.333 33.333 33.333 9.5488 9.9933 10.797
29 35.294 35.294 35.294 10.622 11.122 12.026
30 37.255 37.255 37.255 11.769 12.329 13.341
31 39.216 39.216 39.216 12.993 13.616 14.743
32 41.176 41.176 41.176 14.294 14.985 16.234
33 43.137 43.137 43.137 15.674 16.437 17.816
34 45.098 45.098 45.098 17.134 17.973 19.489
35 47.059 47.059 47.059 18.675 19.594 21.255
36 49.020 49.020 49.020 20.299 21.303 23.117
37 50.980 50.980 50.980 22.007 23.100 25.074
38 54.902 54.902 54.902 25.679 26.963 29.282
39 56.863 56.863 56.863 27.646 29.032 31.536
40 58.824 58.824 58.824 29.701 31.194 33.891
41 60.784 60.784 60.784 31.846 33.450 36.349
42 62.745 62.745 62.745 34.081 35.802 38.911
43 64.706 64.706 64.706 36.409 38.250 41.578
44 66.667 66.667 66.667 38.829 40.796 44.351
45 68.627 68.627 68.627 41.343 43.440 47.232
46 70.588 70.588 70.588 43.951 46.185 50.221
47 72.549 72.549 72.549 46.656 49.030 53.321
48 74.510 74.510 74.510 49.457 51.977 56.531
49 76.471 76.471 76.471 52.356 55.027 59.853
50 78.431 78.431 78.431 55.354 58.180 63.289
51 80.392 80.392 80.392 58.452 61.439 66.838
52 82.353 82.353 82.353 61.650 64.803 70.503
53 84.314 84.314 84.314 64.949 68.275 74.285
54 86.275 86.275 86.275 68.351 71.854 78.183
55 88.235 88.235 88.235 71.857 75.541 82.200
56 90.196 90.196 90.196 75.466 79.338 86.337
57 92.157 92.157 92.157 79.181 83.246 90.594
58 94.118 94.118 94.118 83.001 87.265 94.972
59 96.078 96.078 96.078 86.929 91.397 99.472
60 98.039 98.039 98.039 90.963 95.641 104.10
61 100.00 50.000 0.0000 49.408 37.206 5.4393
62 50.000 50.000 0.0000 17.318 20.660 3.9356
63 50.000 100.00 0.0000 45.145 76.307 13.211
64 100.00 100.00 0.0000 77.235 92.853 14.715
65 100.00 100.00 50.000 81.061 94.383 34.863
66 0.0000 50.000 0.0000 8.5782 16.154 3.5261
67 0.0000 50.000 50.000 12.403 17.684 23.674
68 52.941 52.941 52.941 23.800 24.986 27.129
69 0.0000 100.00 0.0000 36.405 71.801 12.802
70 0.0000 100.00 50.000 40.230 73.330 32.949
71 0.0000 0.0000 50.000 4.8252 2.5298 21.147
72 50.000 0.0000 50.000 13.564 7.0358 21.557
73 50.000 0.0000 100.00 27.610 12.653 95.538
74 0.0000 0.0000 100.00 18.871 8.1473 95.129
75 0.0000 50.000 100.00 26.449 23.302 97.655
76 50.000 50.000 100.00 35.189 27.808 98.065
77 50.000 100.00 100.00 63.016 83.454 107.34
78 0.0000 100.00 100.00 54.276 78.948 106.93
79 100.00 100.00 100.00 95.106 100.00 108.84
END_DATA
CTI1   

DESCRIPTOR "Argyll Calibration Target chart information 1"
ORIGINATOR "Argyll targen"
DENSITY_EXTREME_VALUES "8"
CREATED "August 31, 2017"

NUMBER_OF_FIELDS 7
BEGIN_DATA_FORMAT
INDEX RGB_R RGB_G RGB_B XYZ_X XYZ_Y XYZ_Z
END_DATA_FORMAT

NUMBER_OF_SETS 8
BEGIN_DATA
0 100.0000 100.0000 100.0000 95.10649 100.0000 108.8440
1 0.000000 47.36070 100.0000 25.61297 21.62916 97.37627
2 100.0000 0.000000 79.35140 52.42580 26.28975 58.72153
3 0.000000 0.000000 58.99710 6.485834 3.193987 29.89445
4 100.0000 66.65930 0.000000 56.05879 50.50543 7.656144
5 0.000000 35.60110 0.000000 4.685619 8.370208 2.228550
6 84.44440 0.000000 0.000000 28.84279 15.35583 2.304665
7 0.000000 0.000000 0.000000 1.000000 1.000000 1.000000
END_DATA
CTI1   

DESCRIPTOR "Argyll Calibration Target chart information 1"
ORIGINATOR "Argyll targen"
DEVICE_COMBINATION_VALUES "9"
CREATED "August 31, 2017"

NUMBER_OF_FIELDS 7
BEGIN_DATA_FORMAT
INDEX RGB_R RGB_G RGB_B XYZ_X XYZ_Y XYZ_Z
END_DATA_FORMAT

NUMBER_OF_SETS 9
BEGIN_DATA
0 100.0000 100.0000 100.0000 95.10649 100.0000 108.8440
1 0.000000 100.0000 100.0000 54.27632 78.94783 106.9308
2 100.0000 0.000000 100.0000 59.70128 29.19948 97.04219
3 0.000000 0.000000 100.0000 18.87111 8.147314 95.12896
4 100.0000 100.0000 0.000000 77.23538 92.85269 14.71507
5 0.000000 100.0000 0.000000 36.40521 71.80052 12.80184
6 100.0000 0.000000 0.000000 41.83017 22.05217 2.913230
7 0.000000 0.000000 0.000000 1.000000 1.000000 1.000000
8 50.00000 50.00000 50.00000 21.14266 22.19007 24.08306
END_DATA