DisplayCAL/ti1/d3-e4-s17-g49-m5-b5-f0.ti1
CTI1   

ORIGINATOR "Argyll targen"
KEYWORD "MULTI_DIM_BCC_STEPS"
MULTI_DIM_BCC_STEPS "5"
CREATED "Sat Oct 19 13:37:24 2013"
KEYWORD "COMP_GREY_STEPS"
COMP_GREY_STEPS "49"
KEYWORD "BLACK_COLOR_PATCHES"
BLACK_COLOR_PATCHES "4"
KEYWORD "APPROX_WHITE_POINT"
APPROX_WHITE_POINT "95.106486 100.000000 108.844025"
DESCRIPTOR "Argyll Calibration Target chart information 1"
KEYWORD "MULTI_DIM_STEPS"
MULTI_DIM_STEPS "5"
KEYWORD "WHITE_COLOR_PATCHES"
WHITE_COLOR_PATCHES "4"
KEYWORD "SINGLE_DIM_STEPS"
SINGLE_DIM_STEPS "17"
KEYWORD "COLOR_REP"
COLOR_REP "RGB"

NUMBER_OF_FIELDS 7
BEGIN_DATA_FORMAT
SAMPLE_ID RGB_R RGB_G RGB_B XYZ_X XYZ_Y XYZ_Z
END_DATA_FORMAT

NUMBER_OF_SETS 271
BEGIN_DATA
1 100.000 100.000 100.000 95.1065 100.000 108.844
2 12.5000 37.5000 12.5000 5.94993 9.61866 3.74740
3 12.5000 62.5000 12.5000 14.1814 26.0794 6.49125
4 12.5000 87.5000 87.5000 40.9488 58.8934 79.2939
5 37.5000 87.5000 87.5000 45.0999 61.0337 79.4884
6 0.00000 25.0000 25.0000 3.71049 4.96568 6.38934
7 0.00000 25.0000 50.0000 6.62643 6.13187 21.7479
8 25.0000 75.0000 75.0000 30.9153 42.8005 56.4485
9 50.0000 75.0000 75.0000 37.5774 46.2355 56.7606
10 12.5000 0.00000 0.00000 1.58591 1.30210 1.02745
11 10.4167 10.4167 10.4167 2.00521 2.05749 2.15195
12 25.0000 0.00000 0.00000 3.07728 2.07105 1.09734
13 31.2500 0.00000 0.00000 4.24932 2.67536 1.15226
14 37.5000 0.00000 0.00000 5.73696 3.44239 1.22197
15 43.7500 0.00000 0.00000 7.56070 4.38272 1.30742
16 50.0000 0.00000 0.00000 9.73934 5.50603 1.40951
17 62.5000 37.5000 62.5000 25.5656 19.0418 35.8409
18 87.5000 37.5000 62.5000 41.5030 27.2592 36.5877
19 0.00000 0.00000 0.00000 1.00000 1.00000 1.00000
20 75.0000 0.00000 0.00000 22.3346 12.0002 1.99970
21 81.2500 0.00000 0.00000 26.5283 14.1625 2.19621
22 87.5000 0.00000 0.00000 31.1672 16.5543 2.41358
23 93.7500 0.00000 0.00000 36.2638 19.1821 2.65240
24 100.000 0.00000 0.00000 41.8302 22.0522 2.91323
25 62.5000 62.5000 12.5000 27.8253 33.1142 7.13058
26 75.0000 75.0000 50.0000 44.6598 50.5248 28.3139
27 8.33333 8.33333 8.33333 1.71786 1.75519 1.82265
28 0.00000 12.5000 0.00000 1.50806 2.01598 1.16935
29 0.00000 43.7500 0.00000 6.68900 12.3764 2.89635
30 0.00000 50.0000 0.00000 8.57817 16.1542 3.52608
31 0.00000 56.2500 0.00000 10.7902 20.5776 4.26342
32 0.00000 62.5000 0.00000 13.3391 25.6747 5.11306
33 12.5000 62.5000 37.5000 15.9983 26.8060 16.0610
34 0.00000 0.00000 0.00000 1.00000 1.00000 1.00000
35 0.00000 6.25000 0.00000 1.18254 1.36502 1.06085
36 0.00000 75.0000 0.00000 19.5000 37.9948 7.16671
37 0.00000 81.2500 0.00000 23.1365 45.2667 8.37888
38 0.00000 87.5000 0.00000 27.1590 53.3106 9.71972
39 0.00000 93.7500 0.00000 31.5784 62.1482 11.1929
40 0.00000 100.000 0.00000 36.4052 71.8005 12.8018
41 6.25000 6.25000 6.25000 1.48518 1.51041 1.55601
42 0.00000 0.00000 12.5000 1.25645 1.10256 2.35074
43 0.00000 0.00000 18.7500 1.52439 1.20972 3.76201
44 0.00000 0.00000 25.0000 1.90921 1.36363 5.78891
45 0.00000 0.00000 31.2500 2.42221 1.56879 8.49092
46 0.00000 0.00000 37.5000 3.07334 1.82920 11.9205
47 0.00000 0.00000 43.7500 3.87158 2.14845 16.1249
48 0.00000 0.00000 50.0000 4.82515 2.52982 21.1475
49 0.00000 0.00000 56.2500 5.94168 2.97636 27.0283
50 0.00000 0.00000 62.5000 7.22826 3.49091 33.8049
51 0.00000 0.00000 68.7500 8.69161 4.07616 41.5125
52 0.00000 0.00000 75.0000 10.3380 4.73463 50.1844
53 0.00000 0.00000 81.2500 12.1736 5.46873 59.8524
54 0.00000 0.00000 87.5000 14.2040 6.28076 70.5467
55 0.00000 0.00000 93.7500 16.4347 7.17291 82.2963
56 0.00000 0.00000 100.000 18.8711 8.14731 95.1290
57 0.00000 50.0000 100.000 26.4493 23.3015 97.6550
58 75.0000 50.0000 100.000 47.7839 34.3017 98.6547
59 0.00000 0.00000 6.25000 1.09214 1.03685 1.48530
60 2.08333 2.08333 2.08333 1.15175 1.15964 1.17390
61 4.16667 4.16667 4.16667 1.30372 1.31952 1.34806
62 12.5000 12.5000 12.5000 2.35042 2.42064 2.54755
63 14.5833 14.5833 14.5833 2.75638 2.84772 3.01278
64 16.6667 16.6667 16.6667 3.22584 3.34159 3.55077
65 18.7500 18.7500 18.7500 3.76135 3.90494 4.16445
66 20.8333 20.8333 20.8333 4.36533 4.54033 4.85660
67 22.9167 22.9167 22.9167 5.04007 5.25016 5.62984
68 25.0000 25.0000 25.0000 5.78777 6.03673 6.48668
69 27.0833 27.0833 27.0833 6.61052 6.90226 7.42953
70 29.1667 29.1667 29.1667 7.51032 7.84886 8.46069
71 31.2500 31.2500 31.2500 8.48913 8.87856 9.58238
72 6.25000 0.00000 0.00000 1.21051 1.10854 1.00986
73 33.3333 33.3333 33.3333 9.54879 9.99333 10.7967
74 35.4167 35.4167 35.4167 10.6911 11.1951 12.1058
75 39.5833 39.5833 39.5833 13.2307 13.8667 15.0161
76 41.6667 41.6667 41.6667 14.6313 15.3402 16.6212
77 43.7500 43.7500 43.7500 16.1213 16.9076 18.3287
78 45.8333 45.8333 45.8333 17.7021 18.5707 20.1403
79 47.9167 47.9167 47.9167 19.3754 20.3310 22.0579
80 50.0000 50.0000 50.0000 21.1427 22.1901 24.0831
81 52.0833 52.0833 52.0833 23.0052 24.1495 26.2175
82 54.1667 54.1667 54.1667 24.9646 26.2107 28.4629
83 56.2500 56.2500 56.2500 27.0221 28.3752 30.8208
84 58.3333 58.3333 58.3333 29.1791 30.6444 33.2927
85 60.4167 60.4167 60.4167 31.4370 33.0197 35.8802
86 62.5000 62.5000 62.5000 33.7971 35.5025 38.5847
87 64.5833 64.5833 64.5833 36.2605 38.0941 41.4078
88 66.6667 66.6667 66.6667 38.8287 40.7958 44.3509
89 68.7500 68.7500 68.7500 41.5028 43.6089 47.4154
90 70.8333 70.8333 70.8333 44.2840 46.5348 50.6026
91 72.9167 72.9167 72.9167 47.1736 49.5746 53.9140
92 75.0000 75.0000 75.0000 50.1727 52.7296 57.3508
93 77.0833 77.0833 77.0833 53.2824 56.0011 60.9145
94 79.1667 79.1667 79.1667 56.5039 59.3901 64.6063
95 81.2500 81.2500 81.2500 59.8383 62.8979 68.4275
96 83.3333 83.3333 83.3333 63.2868 66.5257 72.3793
97 85.4167 85.4167 85.4167 66.8503 70.2745 76.4631
98 87.5000 87.5000 87.5000 70.5301 74.1456 80.6800
99 89.5833 89.5833 89.5833 74.3270 78.1400 85.0312
100 91.6667 91.6667 91.6667 78.2423 82.2589 89.5180
101 93.7500 93.7500 93.7500 82.2769 86.5032 94.1415
102 95.8333 95.8333 95.8333 86.4317 90.8742 98.9029
103 97.9167 97.9167 97.9167 90.7080 95.3727 103.803
104 25.0000 25.0000 0.00000 4.87856 5.67311 1.69777
105 50.0000 25.0000 0.00000 11.5406 9.10808 2.00994
106 75.0000 25.0000 0.00000 24.1359 15.6023 2.60014
107 100.000 25.0000 0.00000 43.6314 25.6542 3.51366
108 100.000 75.0000 0.00000 60.3302 59.0470 9.07994
109 50.0000 50.0000 0.00000 17.3175 20.6603 3.93559
110 75.0000 50.0000 0.00000 29.9128 27.1544 4.52578
111 100.000 50.0000 0.00000 49.4083 37.2064 5.43931
112 100.000 100.000 100.000 95.1065 100.000 108.844
113 50.0000 75.0000 0.00000 28.2393 42.5008 7.57622
114 75.0000 75.0000 0.00000 40.8346 48.9950 8.16642
115 25.0000 75.0000 0.00000 21.5773 39.0658 7.26405
116 25.0000 100.000 0.00000 38.4825 72.8716 12.8992
117 50.0000 100.000 0.00000 45.1445 76.3065 13.2113
118 75.0000 100.000 0.00000 57.7399 82.8007 13.8015
119 100.000 100.000 0.00000 77.2354 92.8527 14.7151
120 25.0000 0.00000 25.0000 3.98649 2.43468 5.88625
121 50.0000 0.00000 25.0000 10.6485 5.86966 6.19842
122 75.0000 0.00000 25.0000 23.2439 12.3638 6.78862
123 75.0000 25.0000 25.0000 25.0451 15.9659 7.38905
124 87.5000 37.5000 37.5000 37.3481 25.5975 14.7033
125 56.2500 0.00000 0.00000 12.2903 6.82130 1.52904
126 100.000 0.00000 25.0000 42.7394 22.4158 7.70214
127 100.000 25.0000 25.0000 44.5407 26.0178 8.30257
128 100.000 25.0000 50.0000 47.4566 27.1840 23.6611
129 50.0000 25.0000 25.0000 12.4498 9.47171 6.79885
130 50.0000 50.0000 25.0000 18.2267 21.0239 8.72450
131 75.0000 50.0000 25.0000 30.8220 27.5181 9.31470
132 100.000 50.0000 25.0000 50.3176 37.5700 10.2282
133 25.0000 50.0000 25.0000 11.5647 17.5889 8.41233
134 25.0000 75.0000 25.0000 22.4865 39.4295 12.0530
135 50.0000 75.0000 25.0000 29.1485 42.8645 12.3651
136 75.0000 75.0000 25.0000 41.7438 49.3586 12.9553
137 100.000 75.0000 25.0000 61.2394 59.4106 13.8689
138 25.0000 50.0000 0.00000 10.6555 17.2253 3.62342
139 25.0000 100.000 25.0000 39.3917 73.2352 17.6881
140 50.0000 100.000 25.0000 46.0538 76.6702 18.0003
141 75.0000 100.000 25.0000 58.6491 83.1644 18.5905
142 100.000 100.000 25.0000 78.1446 93.2163 19.5040
143 25.0000 0.00000 50.0000 6.90243 3.60087 21.2448
144 50.0000 0.00000 50.0000 13.5645 7.03585 21.5570
145 75.0000 0.00000 50.0000 26.1598 13.5300 22.1472
146 100.000 0.00000 50.0000 45.6553 23.5820 23.0607
147 100.000 50.0000 75.0000 58.7464 40.9410 54.6237
148 100.000 50.0000 100.000 67.2794 44.3537 99.5683
149 50.0000 25.0000 50.0000 15.3658 10.6379 22.1574
150 75.0000 25.0000 50.0000 27.9611 17.1321 22.7476
151 100.000 25.0000 75.0000 52.9695 29.3888 52.6981
152 25.0000 25.0000 50.0000 8.70371 7.20292 21.8452
153 25.0000 50.0000 50.0000 14.4806 18.7551 23.7709
154 75.0000 50.0000 50.0000 33.7380 28.6843 24.6733
155 100.000 50.0000 50.0000 53.2335 38.7362 25.5868
156 100.000 75.0000 50.0000 64.1553 60.5768 29.2274
157 87.5000 62.5000 62.5000 49.7345 43.7199 39.3315
158 87.5000 87.5000 62.5000 63.5544 71.3558 43.9382
159 100.000 100.000 75.0000 86.5734 96.5873 63.8995
160 0.00000 68.7500 0.00000 16.2382 31.4721 6.07943
161 0.00000 100.000 25.0000 37.3144 72.1641 17.5907
162 0.00000 100.000 50.0000 40.2304 73.3303 32.9493
163 50.0000 100.000 50.0000 48.9697 77.8364 33.3588
164 75.0000 100.000 50.0000 61.5650 84.3305 33.9490
165 100.000 100.000 50.0000 81.0605 94.3825 34.8625
166 25.0000 0.00000 75.0000 12.4153 5.80568 50.2817
167 50.0000 0.00000 75.0000 19.0774 9.24066 50.5939
168 75.0000 0.00000 75.0000 31.6727 15.7348 51.1841
169 100.000 0.00000 75.0000 51.1682 25.7868 52.0976
170 100.000 0.00000 100.000 59.7013 29.1995 97.0422
171 25.0000 25.0000 75.0000 14.2166 9.40773 50.8822
172 50.0000 25.0000 75.0000 20.8787 12.8427 51.1944
173 75.0000 25.0000 75.0000 33.4740 19.3369 51.7845
174 0.00000 31.2500 0.00000 3.81760 6.63441 1.93921
175 0.00000 37.5000 0.00000 5.10758 9.21400 2.36920
176 25.0000 50.0000 75.0000 19.9935 20.9599 52.8078
177 50.0000 50.0000 75.0000 26.6555 24.3949 53.1200
178 75.0000 50.0000 75.0000 39.2509 30.8891 53.7102
179 100.000 75.0000 75.0000 69.6682 62.7816 58.2644
180 100.000 75.0000 100.000 78.2013 66.1943 103.209
181 0.00000 0.00000 0.00000 1.00000 1.00000 1.00000
182 12.5000 37.5000 37.5000 7.76682 10.3453 13.3171
183 25.0000 75.0000 50.0000 25.4024 40.5957 27.4115
184 25.0000 100.000 50.0000 42.3076 74.4014 33.0466
185 25.0000 100.000 75.0000 47.8205 76.6062 62.0836
186 50.0000 100.000 75.0000 54.4826 80.0412 62.3958
187 75.0000 100.000 75.0000 67.0779 86.5354 62.9859
188 100.000 100.000 100.000 95.1065 100.000 108.844
189 25.0000 0.00000 100.000 20.9484 9.21837 95.2263
190 50.0000 0.00000 100.000 27.6104 12.6533 95.5385
191 75.0000 0.00000 100.000 40.2058 19.1475 96.1287
192 75.0000 75.0000 100.000 58.7057 56.1423 102.295
193 0.00000 25.0000 100.000 20.6724 11.7494 95.7294
194 25.0000 25.0000 100.000 22.7497 12.8204 95.8267
195 50.0000 25.0000 100.000 29.4117 16.2554 96.1389
196 75.0000 25.0000 100.000 42.0070 22.7496 96.7291
197 100.000 25.0000 100.000 61.5026 32.8015 97.6426
198 0.00000 0.00000 0.00000 1.00000 1.00000 1.00000
199 25.0000 50.0000 100.000 28.5266 24.3726 97.7524
200 50.0000 50.0000 100.000 35.1886 27.8076 98.0645
201 50.0000 75.0000 100.000 46.1104 49.6481 101.705
202 12.5000 62.5000 62.5000 20.1532 28.4677 37.9454
203 12.5000 62.5000 87.5000 27.1290 31.2576 74.6872
204 25.0000 75.0000 100.000 39.4484 46.2132 101.393
205 0.00000 50.0000 50.0000 12.4033 17.6840 23.6735
206 0.00000 75.0000 75.0000 28.8380 41.7294 56.3511
207 0.00000 100.000 75.0000 45.7432 75.5351 61.9862
208 0.00000 100.000 100.000 54.2763 78.9478 106.931
209 25.0000 100.000 100.000 56.3536 80.0189 107.028
210 50.0000 100.000 100.000 63.0157 83.4539 107.340
211 75.0000 100.000 100.000 75.6110 89.9480 107.930
212 62.5000 0.00000 0.00000 15.2297 8.33690 1.66678
213 68.7500 0.00000 0.00000 18.5730 10.0607 1.82344
214 100.000 100.000 100.000 95.1065 100.000 108.844
215 0.00000 25.0000 0.00000 2.80128 4.60205 1.60043
216 37.5000 37.5000 12.5000 10.1010 11.7590 3.94191
217 62.5000 37.5000 12.5000 19.5938 16.6535 4.38672
218 87.5000 37.5000 12.5000 35.5312 24.8708 5.13352
219 37.5000 12.5000 12.5000 6.50147 4.56093 2.74206
220 62.5000 12.5000 12.5000 15.9942 9.45544 3.18687
221 87.5000 12.5000 12.5000 31.9317 17.6728 3.93367
222 87.5000 62.5000 12.5000 43.7627 41.3315 7.87738
223 37.5000 62.5000 12.5000 18.3325 28.2197 6.68576
224 37.5000 87.5000 12.5000 32.1524 55.8555 11.2924
225 62.5000 87.5000 12.5000 41.6451 60.7500 11.7372
226 87.5000 87.5000 12.5000 57.5826 68.9674 12.4840
227 12.5000 12.5000 37.5000 4.16730 3.14728 12.1173
228 37.5000 12.5000 37.5000 8.31836 5.28757 12.3118
229 62.5000 12.5000 37.5000 17.8111 10.1821 12.7566
230 87.5000 12.5000 37.5000 33.7486 18.3995 13.5034
231 87.5000 62.5000 37.5000 45.5796 42.0582 17.4471
232 62.5000 37.5000 37.5000 21.4106 17.3801 13.9565
233 62.5000 62.5000 37.5000 29.6421 33.8408 16.7003
234 37.5000 37.5000 37.5000 11.9179 12.4856 13.5116
235 37.5000 62.5000 37.5000 20.1494 28.9463 16.2555
236 50.0000 75.0000 50.0000 32.0645 44.0306 27.7237
237 12.5000 87.5000 12.5000 28.0013 53.7152 11.0979
238 12.5000 87.5000 37.5000 29.8182 54.4419 20.6677
239 37.5000 87.5000 37.5000 33.9692 56.5822 20.8622
240 62.5000 87.5000 37.5000 43.4620 61.4767 21.3070
241 87.5000 87.5000 37.5000 59.3994 69.6941 22.0538
242 18.7500 0.00000 0.00000 2.19807 1.61773 1.05614
243 37.5000 12.5000 62.5000 12.4733 6.94928 34.1962
244 62.5000 12.5000 62.5000 21.9661 11.8438 34.6410
245 87.5000 12.5000 62.5000 37.9035 20.0612 35.3878
246 87.5000 12.5000 87.5000 44.8792 22.8510 72.1296
247 87.5000 37.5000 87.5000 48.4787 30.0490 73.3295
248 87.5000 62.5000 87.5000 56.7102 46.5097 76.0733
249 0.00000 18.7500 0.00000 2.03889 3.07749 1.34630
250 0.00000 50.0000 25.0000 9.48738 16.5179 8.31499
251 0.00000 75.0000 25.0000 20.4092 38.3584 11.9556
252 0.00000 75.0000 50.0000 23.3251 39.5246 27.3142
253 12.5000 87.5000 62.5000 33.9731 56.1036 42.5521
254 37.5000 87.5000 62.5000 38.1242 58.2439 42.7466
255 62.5000 87.5000 62.5000 47.6169 63.1384 43.1914
256 12.5000 12.5000 62.5000 8.32223 4.80899 34.0017
257 12.5000 12.5000 87.5000 15.2979 7.59883 70.7435
258 37.5000 12.5000 87.5000 19.4490 9.73913 70.9380
259 62.5000 12.5000 87.5000 28.9418 14.6336 71.3828
260 12.5000 37.5000 62.5000 11.9217 12.0070 35.2016
261 12.5000 37.5000 87.5000 18.8975 14.7969 71.9433
262 37.5000 37.5000 87.5000 23.0485 16.9371 72.1379
263 62.5000 37.5000 87.5000 32.5413 21.8317 72.5827
264 37.5000 37.5000 62.5000 16.0728 14.1473 35.3961
265 37.5000 62.5000 62.5000 24.3043 30.6080 38.1399
266 37.5000 62.5000 87.5000 31.2800 33.3978 74.8817
267 62.5000 62.5000 87.5000 40.7728 38.2924 75.3265
268 62.5000 87.5000 87.5000 54.5927 65.9282 79.9332
269 0.00000 25.0000 75.0000 12.1393 8.33668 50.7848
270 0.00000 50.0000 75.0000 17.9162 19.8888 52.7105
271 0.00000 75.0000 100.000 37.3711 45.1421 101.296
END_DATA
CTI1   

ORIGINATOR "Argyll targen"
KEYWORD "DENSITY_EXTREME_VALUES"
DENSITY_EXTREME_VALUES "8"
CREATED "October 19, 2013"
DESCRIPTOR "Argyll Calibration Target chart information 1"

KEYWORD "INDEX"
NUMBER_OF_FIELDS 7
BEGIN_DATA_FORMAT
INDEX RGB_R RGB_G RGB_B XYZ_X XYZ_Y XYZ_Z
END_DATA_FORMAT

NUMBER_OF_SETS 8
BEGIN_DATA
0 100.000 100.000 100.000 95.1065 100.000 108.844
1 0.00000 47.3607 100.000 25.6130 21.6292 97.3763
2 100.000 0.00000 79.3514 52.4258 26.2898 58.7215
3 0.00000 0.00000 58.9971 6.48583 3.19399 29.8944
4 100.000 66.6593 0.00000 56.0588 50.5054 7.65614
5 0.00000 35.6011 0.00000 4.68562 8.37021 2.22855
6 84.4444 0.00000 0.00000 28.8428 15.3558 2.30466
7 0.00000 0.00000 0.00000 1.00000 1.00000 1.00000
END_DATA
CTI1   

ORIGINATOR "Argyll targen"
CREATED "October 19, 2013"
DESCRIPTOR "Argyll Calibration Target chart information 1"
KEYWORD "DEVICE_COMBINATION_VALUES"
DEVICE_COMBINATION_VALUES "9"

KEYWORD "INDEX"
NUMBER_OF_FIELDS 7
BEGIN_DATA_FORMAT
INDEX RGB_R RGB_G RGB_B XYZ_X XYZ_Y XYZ_Z
END_DATA_FORMAT

NUMBER_OF_SETS 9
BEGIN_DATA
0 100.000 100.000 100.000 95.1065 100.000 108.844
1 0.00000 100.000 100.000 54.2763 78.9478 106.931
2 100.000 0.00000 100.000 59.7013 29.1995 97.0422
3 0.00000 0.00000 100.000 18.8711 8.14731 95.1290
4 100.000 100.000 0.00000 77.2354 92.8527 14.7151
5 0.00000 100.000 0.00000 36.4052 71.8005 12.8018
6 100.000 0.00000 0.00000 41.8302 22.0522 2.91323
7 0.00000 0.00000 0.00000 1.00000 1.00000 1.00000
8 50.0000 50.0000 50.0000 21.1427 22.1901 24.0831
END_DATA