DisplayCAL/ti1/d3-e4-s9-g49-m9-b0-f0.ti1
CTI1   

DESCRIPTOR "Argyll Calibration Target chart information 1"
ORIGINATOR "Argyll targen"
CREATED "Fri May 19 13:29:29 2017"
APPROX_WHITE_POINT "95.106486 100.000000 108.844025"
COLOR_REP "RGB"
WHITE_COLOR_PATCHES "4"
BLACK_COLOR_PATCHES "4"
SINGLE_DIM_STEPS "9"
COMP_GREY_STEPS "49"
MULTI_DIM_STEPS "9"

NUMBER_OF_FIELDS 7
BEGIN_DATA_FORMAT
SAMPLE_ID RGB_R RGB_G RGB_B XYZ_X XYZ_Y XYZ_Z
END_DATA_FORMAT

NUMBER_OF_SETS 775
BEGIN_DATA
1 100.00 100.00 100.00 95.106 100.00 108.84
2 0.0000 12.500 50.000 5.3332 3.5458 21.317
3 0.0000 37.500 75.000 14.446 12.949 51.554
4 43.750 43.750 43.750 16.121 16.908 18.329
5 50.000 75.000 62.500 34.468 44.992 40.381
6 50.000 100.00 75.000 54.483 80.041 62.396
7 12.500 37.500 0.0000 5.6935 9.5161 2.3967
8 25.000 37.500 0.0000 7.1849 10.285 2.4665
9 87.500 37.500 25.000 36.184 25.132 8.5717
10 25.000 0.0000 0.0000 3.0773 2.0711 1.0973
11 37.500 0.0000 0.0000 5.7370 3.4424 1.2220
12 50.000 0.0000 0.0000 9.7393 5.5060 1.4095
13 62.500 0.0000 0.0000 15.230 8.3369 1.6668
14 75.000 0.0000 0.0000 22.335 12.000 1.9997
15 87.500 0.0000 0.0000 31.167 16.554 2.4136
16 100.00 0.0000 0.0000 41.830 22.052 2.9132
17 100.00 0.0000 25.000 42.739 22.416 7.7021
18 100.00 12.500 25.000 43.247 23.432 7.8715
19 100.00 25.000 25.000 44.541 26.018 8.3026
20 100.00 37.500 25.000 46.847 30.630 9.0713
21 100.00 62.500 25.000 55.078 47.090 11.815
22 100.00 75.000 25.000 61.239 59.411 13.869
23 100.00 75.000 37.500 62.403 59.876 20.000
24 100.00 87.500 37.500 70.062 75.192 22.553
25 0.0000 0.0000 12.500 1.2564 1.1026 2.3507
26 0.0000 0.0000 25.000 1.9092 1.3636 5.7889
27 0.0000 0.0000 37.500 3.0733 1.8292 11.920
28 0.0000 0.0000 50.000 4.8252 2.5298 21.147
29 0.0000 0.0000 62.500 7.2283 3.4909 33.805
30 0.0000 0.0000 75.000 10.338 4.7346 50.184
31 0.0000 0.0000 87.500 14.204 6.2808 70.547
32 0.0000 0.0000 100.00 18.871 8.1473 95.129
33 2.0833 2.0833 2.0833 1.1517 1.1596 1.1739
34 4.1667 4.1667 4.1667 1.3037 1.3195 1.3481
35 6.2500 6.2500 6.2500 1.4852 1.5104 1.5560
36 8.3333 8.3333 8.3333 1.7179 1.7552 1.8226
37 10.417 10.417 10.417 2.0052 2.0575 2.1520
38 12.500 12.500 12.500 2.3504 2.4206 2.5475
39 14.583 14.583 14.583 2.7564 2.8477 3.0128
40 16.667 16.667 16.667 3.2258 3.3416 3.5508
41 18.750 18.750 18.750 3.7614 3.9049 4.1645
42 20.833 20.833 20.833 4.3653 4.5403 4.8566
43 22.917 22.917 22.917 5.0401 5.2502 5.6298
44 25.000 25.000 25.000 5.7878 6.0367 6.4867
45 27.083 27.083 27.083 6.6105 6.9023 7.4295
46 29.167 29.167 29.167 7.5103 7.8489 8.4607
47 31.250 31.250 31.250 8.4891 8.8786 9.5824
48 33.333 33.333 33.333 9.5488 9.9933 10.797
49 35.417 35.417 35.417 10.691 11.195 12.106
50 37.500 37.500 37.500 11.918 12.486 13.512
51 39.583 39.583 39.583 13.231 13.867 15.016
52 41.667 41.667 41.667 14.631 15.340 16.621
53 0.0000 0.0000 0.0000 1.0000 1.0000 1.0000
54 45.833 45.833 45.833 17.702 18.571 20.140
55 47.917 47.917 47.917 19.375 20.331 22.058
56 50.000 50.000 50.000 21.143 22.190 24.083
57 52.083 52.083 52.083 23.005 24.149 26.218
58 54.167 54.167 54.167 24.965 26.211 28.463
59 56.250 56.250 56.250 27.022 28.375 30.821
60 58.333 58.333 58.333 29.179 30.644 33.293
61 60.417 60.417 60.417 31.437 33.020 35.880
62 62.500 62.500 62.500 33.797 35.503 38.585
63 64.583 64.583 64.583 36.261 38.094 41.408
64 66.667 66.667 66.667 38.829 40.796 44.351
65 68.750 68.750 68.750 41.503 43.609 47.415
66 70.833 70.833 70.833 44.284 46.535 50.603
67 72.917 72.917 72.917 47.174 49.575 53.914
68 75.000 75.000 75.000 50.173 52.730 57.351
69 77.083 77.083 77.083 53.282 56.001 60.914
70 79.167 79.167 79.167 56.504 59.390 64.606
71 81.250 81.250 81.250 59.838 62.898 68.427
72 83.333 83.333 83.333 63.287 66.526 72.379
73 85.417 85.417 85.417 66.850 70.275 76.463
74 87.500 87.500 87.500 70.530 74.146 80.680
75 89.583 89.583 89.583 74.327 78.140 85.031
76 91.667 91.667 91.667 78.242 82.259 89.518
77 93.750 93.750 93.750 82.277 86.503 94.142
78 95.833 95.833 95.833 86.432 90.874 98.903
79 97.917 97.917 97.917 90.708 95.373 103.80
80 12.500 12.500 0.0000 2.0940 2.3181 1.1968
81 25.000 12.500 0.0000 3.5853 3.0870 1.2667
82 37.500 12.500 0.0000 6.2450 4.4584 1.3913
83 50.000 12.500 0.0000 10.247 6.5220 1.5789
84 62.500 12.500 0.0000 15.738 9.3529 1.8361
85 75.000 12.500 0.0000 22.843 13.016 2.1691
86 87.500 12.500 0.0000 31.675 17.570 2.5829
87 100.00 12.500 0.0000 42.338 23.068 3.0826
88 12.500 25.000 0.0000 3.3872 4.9041 1.6279
89 25.000 25.000 0.0000 4.8786 5.6731 1.6978
90 37.500 25.000 0.0000 7.5382 7.0444 1.8224
91 50.000 25.000 0.0000 11.541 9.1081 2.0099
92 62.500 25.000 0.0000 17.031 11.939 2.2672
93 75.000 25.000 0.0000 24.136 15.602 2.6001
94 87.500 25.000 0.0000 32.968 20.156 3.0140
95 100.00 25.000 0.0000 43.631 25.654 3.5137
96 100.00 25.000 12.500 43.888 25.757 4.8644
97 0.0000 0.0000 0.0000 1.0000 1.0000 1.0000
98 37.500 37.500 0.0000 9.8445 11.656 2.5912
99 50.000 37.500 0.0000 13.847 13.720 2.7787
100 62.500 37.500 0.0000 19.337 16.551 3.0360
101 75.000 37.500 0.0000 26.442 20.214 3.3689
102 87.500 37.500 0.0000 35.275 24.768 3.7828
103 100.00 37.500 0.0000 45.938 30.266 4.2824
104 12.500 50.000 0.0000 9.1641 16.456 3.5535
105 25.000 50.000 0.0000 10.655 17.225 3.6234
106 37.500 50.000 0.0000 13.315 18.597 3.7480
107 50.000 50.000 0.0000 17.318 20.660 3.9356
108 62.500 50.000 0.0000 22.808 23.491 4.1929
109 75.000 50.000 0.0000 29.913 27.154 4.5258
110 87.500 50.000 0.0000 38.745 31.709 4.9397
111 100.00 50.000 0.0000 49.408 37.206 5.4393
112 12.500 62.500 0.0000 13.925 25.977 5.1405
113 25.000 62.500 0.0000 15.416 26.746 5.2104
114 37.500 62.500 0.0000 18.076 28.117 5.3350
115 50.000 62.500 0.0000 22.078 30.181 5.5226
116 62.500 62.500 0.0000 27.569 33.012 5.7798
117 75.000 62.500 0.0000 34.674 36.675 6.1128
118 87.500 62.500 0.0000 43.506 41.229 6.5266
119 87.500 62.500 12.500 43.763 41.332 7.8774
120 12.500 75.000 0.0000 20.086 38.297 7.1942
121 25.000 75.000 0.0000 21.577 39.066 7.2641
122 37.500 75.000 0.0000 24.237 40.437 7.3887
123 50.000 75.000 0.0000 28.239 42.501 7.5762
124 62.500 75.000 0.0000 33.730 45.332 7.8335
125 75.000 75.000 0.0000 40.835 48.995 8.1664
126 87.500 75.000 0.0000 49.667 53.549 8.5803
127 87.500 75.000 12.500 49.924 53.652 9.9310
128 12.500 87.500 0.0000 27.745 53.613 9.7472
129 25.000 87.500 0.0000 29.236 54.382 9.8171
130 37.500 87.500 0.0000 31.896 55.753 9.9417
131 50.000 87.500 0.0000 35.898 57.817 10.129
132 62.500 87.500 0.0000 41.389 60.647 10.386
133 75.000 87.500 0.0000 48.494 64.311 10.719
134 87.500 87.500 0.0000 57.326 68.865 11.133
135 87.500 87.500 12.500 57.583 68.967 12.484
136 12.500 100.00 0.0000 36.991 72.103 12.829
137 25.000 100.00 0.0000 38.482 72.872 12.899
138 37.500 100.00 0.0000 41.142 74.243 13.024
139 50.000 100.00 0.0000 45.145 76.307 13.211
140 62.500 100.00 0.0000 50.635 79.137 13.469
141 75.000 100.00 0.0000 57.740 82.801 13.802
142 87.500 100.00 0.0000 66.572 87.355 14.215
143 87.500 100.00 12.500 66.829 87.457 15.566
144 87.500 100.00 25.000 67.482 87.718 19.004
145 25.000 0.0000 12.500 3.3337 2.1736 2.4481
146 37.500 0.0000 12.500 5.9934 3.5450 2.5727
147 50.000 0.0000 12.500 9.9958 5.6086 2.7602
148 62.500 0.0000 12.500 15.486 8.4395 3.0175
149 75.000 0.0000 12.500 22.591 12.103 3.3504
150 87.500 0.0000 12.500 31.424 16.657 3.7643
151 100.00 0.0000 12.500 42.087 22.155 4.2640
152 100.00 12.500 12.500 42.595 23.171 4.4333
153 25.000 12.500 12.500 3.8418 3.1896 2.6174
154 37.500 12.500 12.500 6.5015 4.5609 2.7421
155 50.000 12.500 12.500 10.504 6.6246 2.9296
156 62.500 12.500 12.500 15.994 9.4554 3.1869
157 75.000 12.500 12.500 23.099 13.119 3.5198
158 87.500 12.500 12.500 31.932 17.673 3.9337
159 87.500 12.500 25.000 32.584 17.934 7.3718
160 87.500 12.500 37.500 33.749 18.399 13.503
161 12.500 25.000 12.500 3.6436 5.0067 2.9786
162 25.000 25.000 12.500 5.1350 5.7757 3.0485
163 37.500 25.000 12.500 7.7947 7.1470 3.1731
164 50.000 25.000 12.500 11.797 9.2106 3.3607
165 62.500 25.000 12.500 17.287 12.042 3.6179
166 75.000 25.000 12.500 24.392 15.705 3.9509
167 87.500 25.000 12.500 33.225 20.259 4.3647
168 0.0000 37.500 0.0000 5.1076 9.2140 2.3692
169 0.0000 37.500 12.500 5.3640 9.3166 3.7199
170 12.500 37.500 12.500 5.9499 9.6187 3.7474
171 25.000 37.500 12.500 7.4413 10.388 3.8173
172 37.500 37.500 12.500 10.101 11.759 3.9419
173 50.000 37.500 12.500 14.103 13.823 4.1295
174 62.500 37.500 12.500 19.594 16.653 4.3867
175 75.000 37.500 12.500 26.699 20.317 4.7196
176 87.500 37.500 12.500 35.531 24.871 5.1335
177 100.00 37.500 12.500 46.194 30.369 5.6332
178 0.0000 50.000 12.500 8.8346 16.257 4.8768
179 12.500 50.000 12.500 9.4205 16.559 4.9043
180 25.000 50.000 12.500 10.912 17.328 4.9742
181 37.500 50.000 12.500 13.572 18.699 5.0988
182 50.000 50.000 12.500 17.574 20.763 5.2863
183 62.500 50.000 12.500 23.064 23.594 5.5436
184 75.000 50.000 12.500 30.169 27.257 5.8765
185 87.500 50.000 12.500 39.002 31.811 6.2904
186 100.00 50.000 12.500 49.665 37.309 6.7900
187 0.0000 62.500 12.500 13.596 25.777 6.4638
188 12.500 62.500 12.500 14.181 26.079 6.4913
189 25.000 62.500 12.500 15.673 26.848 6.5611
190 37.500 62.500 12.500 18.332 28.220 6.6858
191 50.000 62.500 12.500 22.335 30.283 6.8733
192 62.500 62.500 12.500 27.825 33.114 7.1306
193 75.000 62.500 12.500 34.930 36.777 7.4635
194 100.00 62.500 0.0000 54.169 46.727 7.0263
195 100.00 62.500 12.500 54.426 46.829 8.3770
196 0.0000 75.000 12.500 19.756 38.097 8.5175
197 12.500 75.000 12.500 20.342 38.399 8.5449
198 25.000 75.000 12.500 21.834 39.168 8.6148
199 37.500 75.000 12.500 24.493 40.540 8.7394
200 50.000 75.000 12.500 28.496 42.603 8.9270
201 62.500 75.000 12.500 33.986 45.434 9.1842
202 75.000 75.000 12.500 41.091 49.098 9.5172
203 100.00 75.000 0.0000 60.330 59.047 9.0799
204 100.00 75.000 12.500 60.587 59.150 10.431
205 12.500 0.0000 0.0000 1.5859 1.3021 1.0275
206 12.500 87.500 12.500 28.001 53.715 11.098
207 25.000 87.500 12.500 29.493 54.484 11.168
208 37.500 87.500 12.500 32.152 55.856 11.292
209 50.000 87.500 12.500 36.155 57.919 11.480
210 62.500 87.500 12.500 41.645 60.750 11.737
211 75.000 87.500 12.500 48.750 64.413 12.070
212 100.00 87.500 0.0000 67.989 74.363 11.633
213 100.00 87.500 12.500 68.246 74.465 12.984
214 0.0000 100.00 12.500 36.662 71.903 14.153
215 12.500 100.00 12.500 37.248 72.205 14.180
216 25.000 100.00 12.500 38.739 72.974 14.250
217 37.500 100.00 12.500 41.399 74.345 14.375
218 50.000 100.00 12.500 45.401 76.409 14.562
219 62.500 100.00 12.500 50.891 79.240 14.819
220 75.000 100.00 12.500 57.996 82.903 15.152
221 100.00 100.00 0.0000 77.235 92.853 14.715
222 100.00 100.00 12.500 77.492 92.955 16.066
223 100.00 100.00 25.000 78.145 93.216 19.504
224 25.000 0.0000 25.000 3.9865 2.4347 5.8863
225 37.500 0.0000 25.000 6.6462 3.8060 6.0109
226 50.000 0.0000 25.000 10.649 5.8697 6.1984
227 62.500 0.0000 25.000 16.139 8.7005 6.4557
228 75.000 0.0000 25.000 23.244 12.364 6.7886
229 87.500 0.0000 25.000 32.076 16.918 7.2025
230 0.0000 12.500 12.500 1.7645 2.1185 2.5201
231 0.0000 12.500 25.000 2.4173 2.3796 5.9583
232 12.500 12.500 25.000 3.0032 2.6817 5.9857
233 25.000 12.500 25.000 4.4946 3.4507 6.0556
234 37.500 12.500 25.000 7.1542 4.8220 6.1802
235 50.000 12.500 25.000 11.157 6.8856 6.3678
236 62.500 12.500 25.000 16.647 9.7165 6.6250
237 75.000 12.500 25.000 23.752 13.380 6.9580
238 0.0000 12.500 0.0000 1.5081 2.0160 1.1694
239 0.0000 25.000 12.500 3.0577 4.7046 2.9512
240 0.0000 25.000 25.000 3.7105 4.9657 6.3893
241 12.500 25.000 25.000 4.2964 5.2678 6.4168
242 37.500 25.000 25.000 8.4474 7.4081 6.6113
243 50.000 25.000 25.000 12.450 9.4717 6.7989
244 62.500 25.000 25.000 17.940 12.303 7.0561
245 75.000 25.000 25.000 25.045 15.966 7.3890
246 87.500 25.000 25.000 33.878 20.520 7.8029
247 87.500 37.500 37.500 37.348 25.597 14.703
248 0.0000 37.500 25.000 6.0168 9.5776 7.1581
249 12.500 37.500 25.000 6.6027 9.8797 7.1856
250 25.000 37.500 25.000 8.0941 10.649 7.2555
251 37.500 37.500 25.000 10.754 12.020 7.3801
252 50.000 37.500 25.000 14.756 14.084 7.5676
253 62.500 37.500 25.000 20.247 16.915 7.8249
254 75.000 37.500 25.000 27.351 20.578 8.1578
255 100.00 50.000 25.000 50.318 37.570 10.228
256 0.0000 50.000 0.0000 8.5782 16.154 3.5261
257 0.0000 50.000 25.000 9.4874 16.518 8.3150
258 12.500 50.000 25.000 10.073 16.820 8.3424
259 25.000 50.000 25.000 11.565 17.589 8.4123
260 37.500 50.000 25.000 14.224 18.960 8.5370
261 50.000 50.000 25.000 18.227 21.024 8.7245
262 62.500 50.000 25.000 23.717 23.855 8.9818
263 75.000 50.000 25.000 30.822 27.518 9.3147
264 87.500 50.000 25.000 39.655 32.072 9.7286
265 0.0000 62.500 0.0000 13.339 25.675 5.1131
266 0.0000 62.500 25.000 14.248 26.038 9.9020
267 12.500 62.500 25.000 14.834 26.340 9.9294
268 25.000 62.500 25.000 16.326 27.109 9.9993
269 37.500 62.500 25.000 18.985 28.481 10.124
270 50.000 62.500 25.000 22.988 30.544 10.311
271 62.500 62.500 25.000 28.478 33.375 10.569
272 75.000 62.500 25.000 35.583 37.039 10.902
273 87.500 62.500 25.000 44.415 41.593 11.316
274 0.0000 75.000 0.0000 19.500 37.995 7.1667
275 0.0000 75.000 25.000 20.409 38.358 11.956
276 12.500 75.000 25.000 20.995 38.661 11.983
277 25.000 75.000 25.000 22.486 39.429 12.053
278 37.500 75.000 25.000 25.146 40.801 12.178
279 50.000 75.000 25.000 29.149 42.864 12.365
280 62.500 75.000 25.000 34.639 45.695 12.622
281 75.000 75.000 25.000 41.744 49.359 12.955
282 87.500 75.000 25.000 50.576 53.913 13.369
283 0.0000 87.500 12.500 27.415 53.413 11.070
284 0.0000 87.500 25.000 28.068 53.674 14.509
285 12.500 87.500 25.000 28.654 53.976 14.536
286 25.000 87.500 25.000 30.145 54.745 14.606
287 37.500 87.500 25.000 32.805 56.117 14.731
288 50.000 87.500 25.000 36.807 58.180 14.918
289 62.500 87.500 25.000 42.298 61.011 15.175
290 75.000 87.500 25.000 49.403 64.674 15.508
291 87.500 87.500 25.000 58.235 69.228 15.922
292 100.00 87.500 25.000 68.898 74.726 16.422
293 0.0000 100.00 25.000 37.314 72.164 17.591
294 12.500 100.00 25.000 37.900 72.466 17.618
295 25.000 100.00 25.000 39.392 73.235 17.688
296 37.500 100.00 25.000 42.051 74.607 17.813
297 50.000 100.00 25.000 46.054 76.670 18.000
298 62.500 100.00 25.000 51.544 79.501 18.258
299 75.000 100.00 25.000 58.649 83.164 18.590
300 12.500 0.0000 12.500 1.8424 1.4047 2.3782
301 12.500 0.0000 25.000 2.4951 1.6657 5.8164
302 12.500 0.0000 37.500 3.6592 2.1313 11.948
303 25.000 0.0000 37.500 5.1506 2.9003 12.018
304 37.500 0.0000 37.500 7.8103 4.2716 12.142
305 50.000 0.0000 37.500 11.813 6.3352 12.330
306 62.500 0.0000 37.500 17.303 9.1661 12.587
307 75.000 0.0000 37.500 24.408 12.829 12.920
308 87.500 0.0000 37.500 33.240 17.383 13.334
309 87.500 0.0000 50.000 34.992 18.084 22.561
310 0.0000 12.500 37.500 3.5814 2.8452 12.090
311 12.500 12.500 37.500 4.1673 3.1473 12.117
312 25.000 12.500 37.500 5.6587 3.9162 12.187
313 37.500 12.500 37.500 8.3184 5.2876 12.312
314 50.000 12.500 37.500 12.321 7.3512 12.499
315 62.500 12.500 37.500 17.811 10.182 12.757
316 75.000 12.500 37.500 24.916 13.845 13.090
317 100.00 37.500 37.500 48.011 31.095 15.203
318 100.00 100.00 100.00 95.106 100.00 108.84
319 0.0000 25.000 37.500 4.8746 5.4313 12.521
320 12.500 25.000 37.500 5.4605 5.7334 12.548
321 25.000 25.000 37.500 6.9519 6.5023 12.618
322 37.500 25.000 37.500 9.6116 7.8736 12.743
323 50.000 25.000 37.500 13.614 9.9373 12.930
324 62.500 25.000 37.500 19.104 12.768 13.188
325 75.000 25.000 37.500 26.209 16.431 13.521
326 87.500 25.000 37.500 35.042 20.986 13.934
327 100.00 25.000 37.500 45.705 26.483 14.434
328 0.0000 37.500 37.500 7.1809 10.043 13.290
329 12.500 37.500 37.500 7.7668 10.345 13.317
330 25.000 37.500 37.500 9.2582 11.114 13.387
331 50.000 37.500 37.500 15.920 14.549 13.699
332 62.500 37.500 37.500 21.411 17.380 13.956
333 75.000 37.500 37.500 28.516 21.043 14.289
334 75.000 100.00 62.500 63.968 85.292 46.606
335 0.0000 25.000 0.0000 2.8013 4.6021 1.6004
336 0.0000 50.000 37.500 10.652 16.983 14.447
337 12.500 50.000 37.500 11.237 17.286 14.474
338 25.000 50.000 37.500 12.729 18.054 14.544
339 37.500 50.000 37.500 15.388 19.426 14.669
340 50.000 50.000 37.500 19.391 21.489 14.856
341 62.500 50.000 37.500 24.881 24.320 15.113
342 75.000 50.000 37.500 31.986 27.984 15.446
343 87.500 50.000 37.500 40.819 32.538 15.860
344 100.00 50.000 37.500 51.482 38.036 16.360
345 0.0000 62.500 37.500 15.412 26.504 16.034
346 12.500 62.500 37.500 15.998 26.806 16.061
347 25.000 62.500 37.500 17.490 27.575 16.131
348 37.500 62.500 37.500 20.149 28.946 16.256
349 50.000 62.500 37.500 24.152 31.010 16.443
350 62.500 62.500 37.500 29.642 33.841 16.700
351 75.000 62.500 37.500 36.747 37.504 17.033
352 87.500 62.500 37.500 45.580 42.058 17.447
353 100.00 62.500 37.500 56.243 47.556 17.947
354 0.0000 75.000 37.500 21.573 38.824 18.087
355 12.500 75.000 37.500 22.159 39.126 18.115
356 25.000 75.000 37.500 23.651 39.895 18.185
357 37.500 75.000 37.500 26.310 41.266 18.309
358 50.000 75.000 37.500 30.313 43.330 18.497
359 62.500 75.000 37.500 35.803 46.161 18.754
360 75.000 75.000 37.500 42.908 49.824 19.087
361 87.500 75.000 37.500 51.740 54.378 19.501
362 87.500 87.500 37.500 59.399 69.694 22.054
363 0.0000 87.500 37.500 29.232 54.140 20.640
364 12.500 87.500 37.500 29.818 54.442 20.668
365 25.000 87.500 37.500 31.310 55.211 20.738
366 37.500 87.500 37.500 33.969 56.582 20.862
367 50.000 87.500 37.500 37.972 58.646 21.050
368 62.500 87.500 37.500 43.462 61.477 21.307
369 75.000 87.500 37.500 50.567 65.140 21.640
370 0.0000 87.500 0.0000 27.159 53.311 9.7197
371 0.0000 100.00 0.0000 36.405 71.801 12.802
372 0.0000 100.00 37.500 38.479 72.630 23.722
373 12.500 100.00 37.500 39.064 72.932 23.750
374 25.000 100.00 37.500 40.556 73.701 23.820
375 37.500 100.00 37.500 43.215 75.072 23.944
376 50.000 100.00 37.500 47.218 77.136 24.132
377 62.500 100.00 37.500 52.708 79.967 24.389
378 75.000 100.00 37.500 59.813 83.630 24.722
379 87.500 100.00 37.500 68.646 88.184 25.136
380 100.00 100.00 37.500 79.309 93.682 25.636
381 12.500 0.0000 50.000 5.4111 2.8319 21.175
382 25.000 0.0000 50.000 6.9024 3.6009 21.245
383 37.500 0.0000 50.000 9.5621 4.9722 21.369
384 50.000 0.0000 50.000 13.564 7.0358 21.557
385 62.500 0.0000 50.000 19.055 9.8667 21.814
386 75.000 0.0000 50.000 26.160 13.530 22.147
387 100.00 0.0000 50.000 45.655 23.582 23.061
388 100.00 0.0000 37.500 43.904 22.881 13.834
389 100.00 12.500 37.500 44.412 23.897 14.003
390 12.500 12.500 50.000 5.9191 3.8479 21.344
391 25.000 12.500 50.000 7.4105 4.6169 21.414
392 37.500 12.500 50.000 10.070 5.9882 21.539
393 50.000 12.500 50.000 14.073 8.0518 21.726
394 62.500 12.500 50.000 19.563 10.883 21.984
395 75.000 12.500 50.000 26.668 14.546 22.317
396 87.500 12.500 50.000 35.500 19.100 22.730
397 100.00 12.500 50.000 46.163 24.598 23.230
398 100.00 12.500 62.500 48.566 25.559 35.887
399 100.00 25.000 62.500 49.860 28.145 36.319
400 25.000 25.000 50.000 8.7037 7.2029 21.845
401 37.500 25.000 50.000 11.363 8.5743 21.970
402 50.000 25.000 50.000 15.366 10.638 22.157
403 62.500 25.000 50.000 20.856 13.469 22.415
404 75.000 25.000 50.000 27.961 17.132 22.748
405 87.500 25.000 50.000 36.794 21.686 23.161
406 100.00 25.000 50.000 47.457 27.184 23.661
407 12.500 25.000 50.000 7.2123 6.4340 21.775
408 12.500 37.500 50.000 9.5186 11.046 22.544
409 25.000 37.500 50.000 11.010 11.815 22.614
410 37.500 37.500 50.000 13.670 13.186 22.739
411 50.000 37.500 50.000 17.672 15.250 22.926
412 62.500 37.500 50.000 23.162 18.081 23.183
413 75.000 37.500 50.000 30.267 21.744 23.516
414 87.500 37.500 50.000 39.100 26.298 23.930
415 100.00 37.500 50.000 49.763 31.796 24.430
416 0.0000 50.000 50.000 12.403 17.684 23.674
417 12.500 50.000 50.000 12.989 17.986 23.701
418 25.000 50.000 50.000 14.481 18.755 23.771
419 37.500 50.000 50.000 17.140 20.126 23.896
420 62.500 50.000 50.000 26.633 25.021 24.340
421 75.000 50.000 50.000 33.738 28.684 24.673
422 87.500 50.000 50.000 42.570 33.238 25.087
423 100.00 50.000 50.000 53.233 38.736 25.587
424 0.0000 62.500 50.000 17.164 27.205 25.261
425 12.500 62.500 50.000 17.750 27.507 25.288
426 25.000 62.500 50.000 19.242 28.276 25.358
427 37.500 62.500 50.000 21.901 29.647 25.483
428 50.000 62.500 50.000 25.904 31.711 25.670
429 62.500 62.500 50.000 31.394 34.541 25.927
430 75.000 62.500 50.000 38.499 38.205 26.260
431 87.500 62.500 50.000 47.331 42.759 26.674
432 100.00 62.500 50.000 57.994 48.257 27.174
433 0.0000 75.000 50.000 23.325 39.525 27.314
434 12.500 75.000 50.000 23.911 39.827 27.342
435 25.000 75.000 50.000 25.402 40.596 27.412
436 37.500 75.000 50.000 28.062 41.967 27.536
437 50.000 75.000 50.000 32.064 44.031 27.724
438 62.500 75.000 50.000 37.555 46.862 27.981
439 75.000 75.000 50.000 44.660 50.525 28.314
440 87.500 75.000 50.000 53.492 55.079 28.728
441 100.00 75.000 50.000 64.155 60.577 29.227
442 0.0000 87.500 50.000 30.984 54.840 29.867
443 12.500 87.500 50.000 31.570 55.142 29.895
444 25.000 87.500 50.000 33.061 55.911 29.965
445 37.500 87.500 50.000 35.721 57.283 30.089
446 50.000 87.500 50.000 39.723 59.346 30.277
447 62.500 87.500 50.000 45.214 62.177 30.534
448 75.000 87.500 50.000 52.319 65.841 30.867
449 87.500 87.500 50.000 61.151 70.395 31.281
450 100.00 87.500 50.000 71.814 75.893 31.780
451 0.0000 100.00 50.000 40.230 73.330 32.949
452 12.500 100.00 50.000 40.816 73.632 32.977
453 25.000 100.00 50.000 42.308 74.401 33.047
454 37.500 100.00 50.000 44.967 75.773 33.171
455 50.000 100.00 50.000 48.970 77.836 33.359
456 62.500 100.00 50.000 54.460 80.667 33.616
457 75.000 100.00 50.000 61.565 84.331 33.949
458 87.500 100.00 50.000 70.398 88.885 34.363
459 100.00 100.00 50.000 81.061 94.383 34.863
460 12.500 0.0000 62.500 7.8142 3.7930 33.832
461 25.000 0.0000 62.500 9.3055 4.5620 33.902
462 37.500 0.0000 62.500 11.965 5.9333 34.027
463 50.000 0.0000 62.500 15.968 7.9969 34.214
464 62.500 0.0000 62.500 21.458 10.828 34.472
465 75.000 0.0000 62.500 28.563 14.491 34.805
466 87.500 0.0000 62.500 37.395 19.045 35.218
467 100.00 0.0000 62.500 48.058 24.543 35.718
468 100.00 0.0000 75.000 51.168 25.787 52.098
469 100.00 12.500 75.000 51.676 26.803 52.267
470 25.000 12.500 62.500 9.8136 5.5779 34.072
471 37.500 12.500 62.500 12.473 6.9493 34.196
472 50.000 12.500 62.500 16.476 9.0129 34.384
473 62.500 12.500 62.500 21.966 11.844 34.641
474 75.000 12.500 62.500 29.071 15.507 34.974
475 87.500 12.500 62.500 37.903 20.061 35.388
476 87.500 25.000 62.500 39.197 22.647 35.819
477 87.500 100.00 62.500 72.801 89.846 47.020
478 100.00 100.00 62.500 83.464 95.344 47.520
479 25.000 25.000 62.500 11.107 8.1640 34.503
480 37.500 25.000 62.500 13.767 9.5354 34.627
481 50.000 25.000 62.500 17.769 11.599 34.815
482 62.500 25.000 62.500 23.259 14.430 35.072
483 75.000 25.000 62.500 30.364 18.093 35.405
484 0.0000 25.000 50.000 6.6264 6.1319 21.748
485 0.0000 37.500 50.000 8.9327 10.744 22.517
486 0.0000 37.500 62.500 11.336 11.705 35.174
487 12.500 37.500 62.500 11.922 12.007 35.202
488 25.000 37.500 62.500 13.413 12.776 35.271
489 37.500 37.500 62.500 16.073 14.147 35.396
490 50.000 37.500 62.500 20.075 16.211 35.584
491 62.500 37.500 62.500 25.566 19.042 35.841
492 75.000 37.500 62.500 32.670 22.705 36.174
493 87.500 37.500 62.500 41.503 27.259 36.588
494 100.00 37.500 62.500 52.166 32.757 37.087
495 0.0000 50.000 62.500 14.806 18.645 36.331
496 12.500 50.000 62.500 15.392 18.947 36.358
497 25.000 50.000 62.500 16.884 19.716 36.428
498 37.500 50.000 62.500 19.543 21.088 36.553
499 50.000 50.000 62.500 23.546 23.151 36.740
500 62.500 50.000 62.500 29.036 25.982 36.998
501 75.000 50.000 62.500 36.141 29.645 37.331
502 87.500 50.000 62.500 44.974 34.199 37.745
503 100.00 50.000 62.500 55.637 39.697 38.244
