DisplayCAL/ti1/d3-e4-s5-g49-m5-b0-f0.ti1
CTI1   

DESCRIPTOR "Argyll Calibration Target chart information 1"
ORIGINATOR "Argyll targen"
CREATED "Fri May 19 13:23:28 2017"
APPROX_WHITE_POINT "95.106486 100.000000 108.844025"
COLOR_REP "RGB"
WHITE_COLOR_PATCHES "4"
BLACK_COLOR_PATCHES "4"
SINGLE_DIM_STEPS "5"
COMP_GREY_STEPS "49"
MULTI_DIM_STEPS "5"

NUMBER_OF_FIELDS 7
BEGIN_DATA_FORMAT
SAMPLE_ID RGB_R RGB_G RGB_B XYZ_X XYZ_Y XYZ_Z
END_DATA_FORMAT

NUMBER_OF_SETS 175
BEGIN_DATA
1 100.00 100.00 100.00 95.106 100.00 108.84
2 95.833 95.833 95.833 86.432 90.874 98.903
3 0.0000 25.000 0.0000 2.8013 4.6021 1.6004
4 0.0000 50.000 0.0000 8.5782 16.154 3.5261
5 0.0000 75.000 50.000 23.325 39.525 27.314
6 25.000 75.000 50.000 25.402 40.596 27.412
7 0.0000 50.000 25.000 9.4874 16.518 8.3150
8 0.0000 50.000 50.000 12.403 17.684 23.674
9 0.0000 50.000 75.000 17.916 19.889 52.710
10 50.000 0.0000 0.0000 9.7393 5.5060 1.4095
11 75.000 0.0000 0.0000 22.335 12.000 1.9997
12 100.00 0.0000 0.0000 41.830 22.052 2.9132
13 0.0000 0.0000 0.0000 1.0000 1.0000 1.0000
14 6.2500 6.2500 6.2500 1.4852 1.5104 1.5560
15 75.000 75.000 0.0000 40.835 48.995 8.1664
16 100.00 75.000 0.0000 60.330 59.047 9.0799
17 0.0000 0.0000 25.000 1.9092 1.3636 5.7889
18 25.000 0.0000 25.000 3.9865 2.4347 5.8863
19 75.000 0.0000 100.00 40.206 19.148 96.129
20 100.00 0.0000 100.00 59.701 29.199 97.042
21 2.0833 2.0833 2.0833 1.1517 1.1596 1.1739
22 4.1667 4.1667 4.1667 1.3037 1.3195 1.3481
23 0.0000 0.0000 0.0000 1.0000 1.0000 1.0000
24 8.3333 8.3333 8.3333 1.7179 1.7552 1.8226
25 10.417 10.417 10.417 2.0052 2.0575 2.1520
26 12.500 12.500 12.500 2.3504 2.4206 2.5475
27 14.583 14.583 14.583 2.7564 2.8477 3.0128
28 16.667 16.667 16.667 3.2258 3.3416 3.5508
29 18.750 18.750 18.750 3.7614 3.9049 4.1645
30 20.833 20.833 20.833 4.3653 4.5403 4.8566
31 22.917 22.917 22.917 5.0401 5.2502 5.6298
32 25.000 25.000 25.000 5.7878 6.0367 6.4867
33 27.083 27.083 27.083 6.6105 6.9023 7.4295
34 29.167 29.167 29.167 7.5103 7.8489 8.4607
35 31.250 31.250 31.250 8.4891 8.8786 9.5824
36 33.333 33.333 33.333 9.5488 9.9933 10.797
37 35.417 35.417 35.417 10.691 11.195 12.106
38 37.500 37.500 37.500 11.918 12.486 13.512
39 39.583 39.583 39.583 13.231 13.867 15.016
40 41.667 41.667 41.667 14.631 15.340 16.621
41 43.750 43.750 43.750 16.121 16.908 18.329
42 45.833 45.833 45.833 17.702 18.571 20.140
43 47.917 47.917 47.917 19.375 20.331 22.058
44 50.000 50.000 50.000 21.143 22.190 24.083
45 52.083 52.083 52.083 23.005 24.149 26.218
46 54.167 54.167 54.167 24.965 26.211 28.463
47 25.000 0.0000 0.0000 3.0773 2.0711 1.0973
48 50.000 50.000 0.0000 17.318 20.660 3.9356
49 60.417 60.417 60.417 31.437 33.020 35.880
50 62.500 62.500 62.500 33.797 35.503 38.585
51 64.583 64.583 64.583 36.261 38.094 41.408
52 66.667 66.667 66.667 38.829 40.796 44.351
53 68.750 68.750 68.750 41.503 43.609 47.415
54 70.833 70.833 70.833 44.284 46.535 50.603
55 72.917 72.917 72.917 47.174 49.575 53.914
56 75.000 75.000 75.000 50.173 52.730 57.351
57 77.083 77.083 77.083 53.282 56.001 60.914
58 79.167 79.167 79.167 56.504 59.390 64.606
59 81.250 81.250 81.250 59.838 62.898 68.427
60 83.333 83.333 83.333 63.287 66.526 72.379
61 85.417 85.417 85.417 66.850 70.275 76.463
62 87.500 87.500 87.500 70.530 74.146 80.680
63 89.583 89.583 89.583 74.327 78.140 85.031
64 91.667 91.667 91.667 78.242 82.259 89.518
65 93.750 93.750 93.750 82.277 86.503 94.142
66 25.000 50.000 50.000 14.481 18.755 23.771
67 56.250 56.250 56.250 27.022 28.375 30.821
68 58.333 58.333 58.333 29.179 30.644 33.293
69 25.000 25.000 0.0000 4.8786 5.6731 1.6978
70 75.000 25.000 0.0000 24.136 15.602 2.6001
71 100.00 25.000 0.0000 43.631 25.654 3.5137
72 100.00 100.00 100.00 95.106 100.00 108.84
73 25.000 50.000 25.000 11.565 17.589 8.4123
74 50.000 50.000 25.000 18.227 21.024 8.7245
75 0.0000 75.000 0.0000 19.500 37.995 7.1667
76 25.000 75.000 0.0000 21.577 39.066 7.2641
77 25.000 100.00 25.000 39.392 73.235 17.688
78 50.000 100.00 25.000 46.054 76.670 18.000
79 0.0000 100.00 0.0000 36.405 71.801 12.802
80 25.000 100.00 0.0000 38.482 72.872 12.899
81 50.000 100.00 0.0000 45.145 76.307 13.211
82 75.000 100.00 0.0000 57.740 82.801 13.802
83 100.00 100.00 0.0000 77.235 92.853 14.715
84 100.00 100.00 25.000 78.145 93.216 19.504
85 50.000 0.0000 25.000 10.649 5.8697 6.1984
86 75.000 0.0000 25.000 23.244 12.364 6.7886
87 100.00 0.0000 25.000 42.739 22.416 7.7021
88 50.000 25.000 0.0000 11.541 9.1081 2.0099
89 50.000 25.000 25.000 12.450 9.4717 6.7989
90 75.000 25.000 25.000 25.045 15.966 7.3890
91 100.00 25.000 25.000 44.541 26.018 8.3026
92 100.00 50.000 50.000 53.233 38.736 25.587
93 100.00 75.000 50.000 64.155 60.577 29.227
94 75.000 50.000 0.0000 29.913 27.154 4.5258
95 75.000 50.000 25.000 30.822 27.518 9.3147
96 75.000 50.000 50.000 33.738 28.684 24.673
97 0.0000 75.000 25.000 20.409 38.358 11.956
98 25.000 75.000 25.000 22.486 39.429 12.053
99 50.000 75.000 25.000 29.149 42.864 12.365
100 75.000 75.000 25.000 41.744 49.359 12.955
101 100.00 75.000 25.000 61.239 59.411 13.869
102 25.000 50.000 0.0000 10.655 17.225 3.6234
103 50.000 75.000 0.0000 28.239 42.501 7.5762
104 75.000 100.00 25.000 58.649 83.164 18.590
105 75.000 100.00 50.000 61.565 84.331 33.949
106 100.00 100.00 50.000 81.061 94.383 34.863
107 25.000 0.0000 50.000 6.9024 3.6009 21.245
108 50.000 0.0000 50.000 13.564 7.0358 21.557
109 75.000 0.0000 50.000 26.160 13.530 22.147
110 0.0000 25.000 25.000 3.7105 4.9657 6.3893
111 0.0000 25.000 50.000 6.6264 6.1319 21.748
112 25.000 25.000 50.000 8.7037 7.2029 21.845
113 50.000 25.000 50.000 15.366 10.638 22.157
114 75.000 25.000 50.000 27.961 17.132 22.748
115 100.00 25.000 50.000 47.457 27.184 23.661
116 100.00 0.0000 50.000 45.655 23.582 23.061
117 0.0000 0.0000 0.0000 1.0000 1.0000 1.0000
118 100.00 50.000 0.0000 49.408 37.206 5.4393
119 100.00 50.000 25.000 50.318 37.570 10.228
120 97.917 97.917 97.917 90.708 95.373 103.80
121 100.00 100.00 100.00 95.106 100.00 108.84
122 50.000 75.000 50.000 32.064 44.031 27.724
123 75.000 75.000 50.000 44.660 50.525 28.314
124 0.0000 100.00 25.000 37.314 72.164 17.591
125 0.0000 100.00 50.000 40.230 73.330 32.949
126 25.000 100.00 50.000 42.308 74.401 33.047
127 50.000 100.00 50.000 48.970 77.836 33.359
128 0.0000 0.0000 0.0000 1.0000 1.0000 1.0000
129 0.0000 0.0000 50.000 4.8252 2.5298 21.147
130 25.000 0.0000 75.000 12.415 5.8057 50.282
131 50.000 0.0000 75.000 19.077 9.2407 50.594
132 75.000 0.0000 75.000 31.673 15.735 51.184
133 100.00 0.0000 75.000 51.168 25.787 52.098
134 100.00 25.000 75.000 52.969 29.389 52.698
135 25.000 25.000 75.000 14.217 9.4077 50.882
136 50.000 25.000 75.000 20.879 12.843 51.194
137 75.000 25.000 75.000 33.474 19.337 51.785
138 100.00 25.000 100.00 61.503 32.802 97.643
139 100.00 100.00 100.00 95.106 100.00 108.84
140 25.000 50.000 75.000 19.993 20.960 52.808
141 50.000 50.000 75.000 26.656 24.395 53.120
142 75.000 50.000 75.000 39.251 30.889 53.710
143 100.00 50.000 75.000 58.746 40.941 54.624
144 100.00 75.000 75.000 69.668 62.782 58.264
145 25.000 75.000 75.000 30.915 42.800 56.448
146 50.000 75.000 75.000 37.577 46.235 56.761
147 0.0000 75.000 75.000 28.838 41.729 56.351
148 0.0000 100.00 75.000 45.743 75.535 61.986
149 25.000 100.00 75.000 47.821 76.606 62.084
150 50.000 100.00 75.000 54.483 80.041 62.396
151 75.000 100.00 75.000 67.078 86.535 62.986
152 100.00 100.00 75.000 86.573 96.587 63.899
153 25.000 0.0000 100.00 20.948 9.2184 95.226
154 50.000 0.0000 100.00 27.610 12.653 95.538
155 50.000 25.000 100.00 29.412 16.255 96.139
156 0.0000 0.0000 100.00 18.871 8.1473 95.129
157 0.0000 25.000 100.00 20.672 11.749 95.729
158 25.000 25.000 100.00 22.750 12.820 95.827
159 75.000 25.000 100.00 42.007 22.750 96.729
160 0.0000 0.0000 75.000 10.338 4.7346 50.184
161 0.0000 25.000 75.000 12.139 8.3367 50.785
162 0.0000 50.000 100.00 26.449 23.302 97.655
163 25.000 50.000 100.00 28.527 24.373 97.752
164 50.000 50.000 100.00 35.189 27.808 98.065
165 75.000 50.000 100.00 47.784 34.302 98.655
166 100.00 50.000 100.00 67.279 44.354 99.568
167 0.0000 75.000 100.00 37.371 45.142 101.30
168 25.000 75.000 100.00 39.448 46.213 101.39
169 50.000 75.000 100.00 46.110 49.648 101.71
170 75.000 75.000 100.00 58.706 56.142 102.30
171 100.00 75.000 100.00 78.201 66.194 103.21
172 0.0000 100.00 100.00 54.276 78.948 106.93
173 25.000 100.00 100.00 56.354 80.019 107.03
174 50.000 100.00 100.00 63.016 83.454 107.34
175 75.000 100.00 100.00 75.611 89.948 107.93
END_DATA
CTI1   

DESCRIPTOR "Argyll Calibration Target chart information 1"
ORIGINATOR "Argyll targen"
DENSITY_EXTREME_VALUES "8"
CREATED "May 19, 2017"

NUMBER_OF_FIELDS 7
BEGIN_DATA_FORMAT
INDEX RGB_R RGB_G RGB_B XYZ_X XYZ_Y XYZ_Z
END_DATA_FORMAT

NUMBER_OF_SETS 8
BEGIN_DATA
0 100.0000 100.0000 100.0000 95.10649 100.0000 108.8440
1 0.000000 47.36069 100.0000 25.61297 21.62916 97.37627
2 100.0000 0.000000 79.35138 52.42580 26.28975 58.72153
3 0.000000 0.000000 58.99714 6.485834 3.193987 29.89445
4 100.0000 66.65930 0.000000 56.05879 50.50543 7.656144
5 0.000000 35.60114 0.000000 4.685619 8.370208 2.228550
6 84.44437 0.000000 0.000000 28.84279 15.35583 2.304665
7 0.000000 0.000000 0.000000 1.000000 1.000000 1.000000
END_DATA
CTI1   

DESCRIPTOR "Argyll Calibration Target chart information 1"
ORIGINATOR "Argyll targen"
DEVICE_COMBINATION_VALUES "9"
CREATED "May 19, 2017"

NUMBER_OF_FIELDS 7
BEGIN_DATA_FORMAT
INDEX RGB_R RGB_G RGB_B XYZ_X XYZ_Y XYZ_Z
END_DATA_FORMAT

NUMBER_OF_SETS 9
BEGIN_DATA
0 100.0000 100.0000 100.0000 95.10649 100.0000 108.8440
1 0.000000 100.0000 100.0000 54.27632 78.94783 106.9308
2 100.0000 0.000000 100.0000 59.70128 29.19948 97.04219
3 0.000000 0.000000 100.0000 18.87111 8.147314 95.12896
4 100.0000 100.0000 0.000000 77.23538 92.85269 14.71507
5 0.000000 100.0000 0.000000 36.40521 71.80052 12.80184
6 100.0000 0.000000 0.000000 41.83017 22.05217 2.913230
7 0.000000 0.000000 0.000000 1.000000 1.000000 1.000000
8 50.00000 50.00000 50.00000 21.14266 22.19007 24.08306
END_DATA