DisplayCAL/ti1/d3-e4-s2-g25-m0-b0-f0.ti1
CTI1   

ORIGINATOR "Argyll targen"
KEYWORD "MULTI_DIM_BCC_STEPS"
MULTI_DIM_BCC_STEPS "0"
CREATED "Fri Oct 18 17:54:11 2013"
KEYWORD "COMP_GREY_STEPS"
COMP_GREY_STEPS "25"
KEYWORD "BLACK_COLOR_PATCHES"
BLACK_COLOR_PATCHES "4"
KEYWORD "APPROX_WHITE_POINT"
APPROX_WHITE_POINT "95.106486 100.000000 108.844025"
DESCRIPTOR "Argyll Calibration Target chart information 1"
KEYWORD "MULTI_DIM_STEPS"
MULTI_DIM_STEPS "0"
KEYWORD "WHITE_COLOR_PATCHES"
WHITE_COLOR_PATCHES "4"
KEYWORD "SINGLE_DIM_STEPS"
SINGLE_DIM_STEPS "2"
KEYWORD "COLOR_REP"
COLOR_REP "RGB"

NUMBER_OF_FIELDS 7
BEGIN_DATA_FORMAT
SAMPLE_ID RGB_R RGB_G RGB_B XYZ_X XYZ_Y XYZ_Z
END_DATA_FORMAT

NUMBER_OF_SETS 34
BEGIN_DATA
1 100.00 100.00 100.00 95.106 100.00 108.84
2 100.00 100.00 100.00 95.106 100.00 108.84
3 100.00 100.00 100.00 95.106 100.00 108.84
4 100.00 100.00 100.00 95.106 100.00 108.84
5 0.0000 0.0000 0.0000 1.0000 1.0000 1.0000
6 0.0000 0.0000 0.0000 1.0000 1.0000 1.0000
7 0.0000 0.0000 0.0000 1.0000 1.0000 1.0000
8 0.0000 0.0000 0.0000 1.0000 1.0000 1.0000
9 4.1667 4.1667 4.1667 1.3037 1.3195 1.3481
10 8.3333 8.3333 8.3333 1.7179 1.7552 1.8226
11 12.500 12.500 12.500 2.3504 2.4206 2.5475
12 16.667 16.667 16.667 3.2259 3.3417 3.5509
13 20.833 20.833 20.833 4.3652 4.5402 4.8565
14 25.000 25.000 25.000 5.7878 6.0367 6.4867
15 29.167 29.167 29.167 7.5105 7.8490 8.4609
16 33.333 33.333 33.333 9.5486 9.9931 10.797
17 37.500 37.500 37.500 11.918 12.486 13.512
18 41.667 41.667 41.667 14.632 15.340 16.621
19 45.833 45.833 45.833 17.702 18.570 20.140
20 50.000 50.000 50.000 21.143 22.190 24.083
21 54.167 54.167 54.167 24.965 26.211 28.463
22 58.333 58.333 58.333 29.179 30.644 33.292
23 62.500 62.500 62.500 33.797 35.503 38.585
24 66.667 66.667 66.667 38.829 40.796 44.351
25 70.833 70.833 70.833 44.284 46.534 50.602
26 75.000 75.000 75.000 50.173 52.730 57.351
27 79.167 79.167 79.167 56.504 59.391 64.607
28 83.333 83.333 83.333 63.286 66.525 72.379
29 87.500 87.500 87.500 70.530 74.146 80.680
30 91.667 91.667 91.667 78.243 82.260 89.519
31 95.833 95.833 95.833 86.431 90.873 98.902
32 0.0000 0.0000 100.00 18.871 8.1473 95.129
33 0.0000 100.00 0.0000 36.405 71.801 12.802
34 100.00 0.0000 0.0000 41.830 22.052 2.9132
END_DATA
CTI1   

ORIGINATOR "Argyll targen"
KEYWORD "DENSITY_EXTREME_VALUES"
DENSITY_EXTREME_VALUES "8"
CREATED "October 18, 2013"
DESCRIPTOR "Argyll Calibration Target chart information 1"

KEYWORD "INDEX"
NUMBER_OF_FIELDS 7
BEGIN_DATA_FORMAT
INDEX RGB_R RGB_G RGB_B XYZ_X XYZ_Y XYZ_Z
END_DATA_FORMAT

NUMBER_OF_SETS 8
BEGIN_DATA
0 100.000 100.000 100.000 95.0460 100.000 108.910
1 0.00000 46.3070 100.000 24.5380 20.1970 97.2170
2 100.000 0.00000 76.4350 51.0790 25.1960 53.7500
3 0.00000 0.00000 55.4170 4.83100 1.93250 25.4410
4 100.000 64.4300 0.00000 54.5660 47.9170 6.37360
5 0.00000 34.0820 0.00000 3.40060 6.80170 1.13370
6 78.9890 0.00000 0.00000 24.2000 12.4760 1.13290
7 5.02670 4.49050 3.59250 0.33816 0.35379 0.31287
END_DATA
CTI1   

ORIGINATOR "Argyll targen"
CREATED "October 18, 2013"
DESCRIPTOR "Argyll Calibration Target chart information 1"
KEYWORD "DEVICE_COMBINATION_VALUES"
DEVICE_COMBINATION_VALUES "9"

KEYWORD "INDEX"
NUMBER_OF_FIELDS 7
BEGIN_DATA_FORMAT
INDEX RGB_R RGB_G RGB_B XYZ_X XYZ_Y XYZ_Z
END_DATA_FORMAT

NUMBER_OF_SETS 9
BEGIN_DATA
0 100.00 100.00 100.00 95.046 100.00 108.91
1 0.0000 100.00 100.00 53.807 78.740 106.98
2 100.00 0.0000 100.00 59.288 28.480 96.985
3 0.0000 0.0000 100.00 18.050 7.2205 95.055
4 100.00 100.00 0.0000 76.996 92.780 13.851
5 0.0000 100.00 0.0000 35.757 71.520 11.921
6 100.00 0.0000 0.0000 41.238 21.260 1.9306
7 0.0000 0.0000 0.0000 0.0000 0.0000 0.0000
8 50.000 50.000 50.000 20.344 21.405 23.311
END_DATA