DisplayCAL/ti1/d3-e4-s17-g49-m17-b0-f0.ti1
CTI1   

DESCRIPTOR "Argyll Calibration Target chart information 1"
ORIGINATOR "Argyll targen"
CREATED "Mon May 22 01:55:52 2017"
APPROX_WHITE_POINT "95.106486 100.000000 108.844025"
COLOR_REP "RGB"
WHITE_COLOR_PATCHES "4"
BLACK_COLOR_PATCHES "4"
SINGLE_DIM_STEPS "17"
COMP_GREY_STEPS "49"
MULTI_DIM_STEPS "17"

NUMBER_OF_FIELDS 7
BEGIN_DATA_FORMAT
SAMPLE_ID RGB_R RGB_G RGB_B XYZ_X XYZ_Y XYZ_Z
END_DATA_FORMAT

NUMBER_OF_SETS 4951
BEGIN_DATA
1 100.00 100.00 100.00 95.106 100.00 108.84
2 0.0000 93.750 0.0000 31.578 62.148 11.193
3 6.2500 93.750 6.2500 31.881 62.294 11.688
4 0.0000 25.000 6.2500 2.8934 4.6389 2.0857
5 0.0000 25.000 68.750 10.493 7.6782 42.113
6 56.250 31.250 75.000 24.446 16.190 51.653
7 62.500 37.500 81.250 30.511 21.020 61.888
8 62.500 68.750 68.750 38.160 41.885 47.259
9 0.0000 31.250 25.000 4.7268 6.9980 6.7281
10 12.500 0.0000 0.0000 1.5859 1.3021 1.0275
11 18.750 0.0000 0.0000 2.1981 1.6177 1.0561
12 25.000 0.0000 0.0000 3.0773 2.0711 1.0973
13 31.250 0.0000 0.0000 4.2493 2.6754 1.1523
14 37.500 0.0000 0.0000 5.7370 3.4424 1.2220
15 43.750 0.0000 0.0000 7.5607 4.3827 1.3074
16 50.000 0.0000 0.0000 9.7393 5.5060 1.4095
17 56.250 0.0000 0.0000 12.290 6.8213 1.5290
18 62.500 0.0000 0.0000 15.230 8.3369 1.6668
19 68.750 0.0000 0.0000 18.573 10.061 1.8234
20 75.000 0.0000 0.0000 22.335 12.000 1.9997
21 81.250 0.0000 0.0000 26.528 14.162 2.1962
22 87.500 0.0000 0.0000 31.167 16.554 2.4136
23 93.750 0.0000 0.0000 36.264 19.182 2.6524
24 93.750 0.0000 6.2500 36.356 19.219 3.1377
25 100.00 12.500 6.2500 42.430 23.105 3.5679
26 0.0000 12.500 0.0000 1.5081 2.0160 1.1694
27 0.0000 18.750 0.0000 2.0389 3.0775 1.3463
28 0.0000 25.000 0.0000 2.8013 4.6021 1.6004
29 0.0000 31.250 0.0000 3.8176 6.6344 1.9392
30 0.0000 37.500 0.0000 5.1076 9.2140 2.3692
31 0.0000 43.750 0.0000 6.6890 12.376 2.8963
32 0.0000 50.000 0.0000 8.5782 16.154 3.5261
33 0.0000 56.250 0.0000 10.790 20.578 4.2634
34 0.0000 62.500 0.0000 13.339 25.675 5.1131
35 0.0000 68.750 0.0000 16.238 31.472 6.0794
36 0.0000 75.000 0.0000 19.500 37.995 7.1667
37 0.0000 81.250 0.0000 23.136 45.267 8.3789
38 0.0000 87.500 0.0000 27.159 53.311 9.7197
39 56.250 93.750 0.0000 42.869 67.970 11.722
40 100.00 93.750 0.0000 72.409 83.200 13.106
41 100.00 100.00 0.0000 77.235 92.853 14.715
42 0.0000 0.0000 12.500 1.2564 1.1026 2.3507
43 0.0000 0.0000 18.750 1.5244 1.2097 3.7620
44 0.0000 0.0000 25.000 1.9092 1.3636 5.7889
45 0.0000 0.0000 31.250 2.4222 1.5688 8.4909
46 0.0000 0.0000 37.500 3.0733 1.8292 11.920
47 0.0000 0.0000 43.750 3.8716 2.1484 16.125
48 0.0000 0.0000 50.000 4.8252 2.5298 21.147
49 0.0000 0.0000 56.250 5.9417 2.9764 27.028
50 0.0000 0.0000 62.500 7.2283 3.4909 33.805
51 0.0000 0.0000 68.750 8.6916 4.0762 41.512
52 0.0000 0.0000 75.000 10.338 4.7346 50.184
53 0.0000 0.0000 81.250 12.174 5.4687 59.852
54 0.0000 0.0000 87.500 14.204 6.2808 70.547
55 0.0000 0.0000 93.750 16.435 7.1729 82.296
56 0.0000 0.0000 100.00 18.871 8.1473 95.129
57 2.0833 2.0833 2.0833 1.1517 1.1596 1.1739
58 4.1667 4.1667 4.1667 1.3037 1.3195 1.3481
59 6.2500 6.2500 6.2500 1.4852 1.5104 1.5560
60 8.3333 8.3333 8.3333 1.7179 1.7552 1.8226
61 10.417 10.417 10.417 2.0052 2.0575 2.1520
62 12.500 12.500 12.500 2.3504 2.4206 2.5475
63 14.583 14.583 14.583 2.7564 2.8477 3.0128
64 16.667 16.667 16.667 3.2258 3.3416 3.5508
65 18.750 18.750 18.750 3.7614 3.9049 4.1645
66 20.833 20.833 20.833 4.3653 4.5403 4.8566
67 22.917 22.917 22.917 5.0401 5.2502 5.6298
68 25.000 25.000 25.000 5.7878 6.0367 6.4867
69 27.083 27.083 27.083 6.6105 6.9023 7.4295
70 29.167 29.167 29.167 7.5103 7.8489 8.4607
71 31.250 31.250 31.250 8.4891 8.8786 9.5824
72 33.333 33.333 33.333 9.5488 9.9933 10.797
73 35.417 35.417 35.417 10.691 11.195 12.106
74 37.500 37.500 37.500 11.918 12.486 13.512
75 39.583 39.583 39.583 13.231 13.867 15.016
76 41.667 41.667 41.667 14.631 15.340 16.621
77 43.750 43.750 43.750 16.121 16.908 18.329
78 45.833 45.833 45.833 17.702 18.571 20.140
79 47.917 47.917 47.917 19.375 20.331 22.058
80 50.000 50.000 50.000 21.143 22.190 24.083
81 52.083 52.083 52.083 23.005 24.149 26.218
82 54.167 54.167 54.167 24.965 26.211 28.463
83 56.250 56.250 56.250 27.022 28.375 30.821
84 58.333 58.333 58.333 29.179 30.644 33.293
85 60.417 60.417 60.417 31.437 33.020 35.880
86 62.500 62.500 62.500 33.797 35.503 38.585
87 64.583 64.583 64.583 36.261 38.094 41.408
88 66.667 66.667 66.667 38.829 40.796 44.351
89 68.750 68.750 68.750 41.503 43.609 47.415
90 70.833 70.833 70.833 44.284 46.535 50.603
91 72.917 72.917 72.917 47.174 49.575 53.914
92 75.000 75.000 75.000 50.173 52.730 57.351
93 77.083 77.083 77.083 53.282 56.001 60.914
94 79.167 79.167 79.167 56.504 59.390 64.606
95 81.250 81.250 81.250 59.838 62.898 68.427
96 83.333 83.333 83.333 63.287 66.526 72.379
97 85.417 85.417 85.417 66.850 70.275 76.463
98 87.500 87.500 87.500 70.530 74.146 80.680
99 89.583 89.583 89.583 74.327 78.140 85.031
100 91.667 91.667 91.667 78.242 82.259 89.518
101 93.750 93.750 93.750 82.277 86.503 94.142
102 95.833 95.833 95.833 86.432 90.874 98.903
103 97.917 97.917 97.917 90.708 95.373 103.80
104 6.2500 6.2500 0.0000 1.3930 1.4736 1.0707
105 12.500 6.2500 0.0000 1.7684 1.6671 1.0883
106 18.750 6.2500 0.0000 2.3806 1.9828 1.1170
107 25.000 6.2500 0.0000 3.2598 2.4361 1.1582
108 31.250 6.2500 0.0000 4.4319 3.0404 1.2131
109 37.500 6.2500 0.0000 5.9195 3.8074 1.2828
110 43.750 6.2500 0.0000 7.7432 4.7477 1.3683
111 50.000 6.2500 0.0000 9.9219 5.8711 1.4704
112 56.250 6.2500 0.0000 12.473 7.1863 1.5899
113 62.500 6.2500 0.0000 15.412 8.7019 1.7276
114 68.750 6.2500 0.0000 18.756 10.426 1.8843
115 75.000 6.2500 0.0000 22.517 12.365 2.0606
116 81.250 6.2500 0.0000 26.711 14.527 2.2571
117 87.500 6.2500 0.0000 31.350 16.919 2.4744
118 93.750 6.2500 0.0000 36.446 19.547 2.7132
119 100.00 6.2500 0.0000 42.013 22.417 2.9741
120 6.2500 12.500 0.0000 1.7186 2.1245 1.1792
121 12.500 12.500 0.0000 2.0940 2.3181 1.1968
122 18.750 12.500 0.0000 2.7061 2.6337 1.2255
123 25.000 12.500 0.0000 3.5853 3.0870 1.2667
124 31.250 12.500 0.0000 4.7574 3.6913 1.3216
125 37.500 12.500 0.0000 6.2450 4.4584 1.3913
126 43.750 12.500 0.0000 8.0688 5.3987 1.4768
127 50.000 12.500 0.0000 10.247 6.5220 1.5789
128 56.250 12.500 0.0000 12.798 7.8373 1.6984
129 62.500 12.500 0.0000 15.738 9.3529 1.8361
130 68.750 12.500 0.0000 19.081 11.077 1.9928
131 75.000 12.500 0.0000 22.843 13.016 2.1691
132 81.250 12.500 0.0000 27.036 15.178 2.3656
133 87.500 12.500 0.0000 31.675 17.570 2.5829
134 93.750 12.500 0.0000 36.772 20.198 2.8218
135 100.00 12.500 0.0000 42.338 23.068 3.0826
136 100.00 18.750 0.0000 42.869 24.130 3.2595
137 12.500 18.750 0.0000 2.6248 3.3796 1.3738
138 18.750 18.750 0.0000 3.2370 3.6952 1.4024
139 25.000 18.750 0.0000 4.1162 4.1485 1.4436
140 31.250 18.750 0.0000 5.2882 4.7528 1.4986
141 37.500 18.750 0.0000 6.7758 5.5199 1.5683
142 43.750 18.750 0.0000 8.5996 6.4602 1.6537
143 50.000 18.750 0.0000 10.778 7.5835 1.7558
144 56.250 18.750 0.0000 13.329 8.8988 1.8753
145 62.500 18.750 0.0000 16.269 10.414 2.0131
146 68.750 18.750 0.0000 19.612 12.138 2.1697
147 75.000 18.750 0.0000 23.374 14.078 2.3460
148 81.250 18.750 0.0000 27.567 16.240 2.5425
149 87.500 18.750 0.0000 32.206 18.632 2.7599
150 87.500 18.750 6.2500 32.298 18.669 3.2452
151 6.2500 18.750 0.0000 2.2494 3.1860 1.3562
152 6.2500 25.000 0.0000 3.0118 4.7106 1.6103
153 12.500 25.000 0.0000 3.3872 4.9041 1.6279
154 18.750 25.000 0.0000 3.9994 5.2198 1.6566
155 25.000 25.000 0.0000 4.8786 5.6731 1.6978
156 31.250 25.000 0.0000 6.0506 6.2774 1.7527
157 37.500 25.000 0.0000 7.5382 7.0444 1.8224
158 43.750 25.000 0.0000 9.3620 7.9848 1.9079
159 50.000 25.000 0.0000 11.541 9.1081 2.0099
160 56.250 25.000 0.0000 14.092 10.423 2.1295
161 62.500 25.000 0.0000 17.031 11.939 2.2672
162 68.750 25.000 0.0000 20.374 13.663 2.4239
163 75.000 25.000 0.0000 24.136 15.602 2.6001
164 81.250 25.000 0.0000 28.330 17.765 2.7966
165 87.500 25.000 0.0000 32.968 20.156 3.0140
166 93.750 25.000 0.0000 38.065 22.784 3.2528
167 93.750 25.000 6.2500 38.157 22.821 3.7381
168 6.2500 31.250 0.0000 4.0281 6.7429 1.9491
169 12.500 31.250 0.0000 4.4035 6.9365 1.9667
170 18.750 31.250 0.0000 5.0157 7.2521 1.9953
171 25.000 31.250 0.0000 5.8949 7.7055 2.0365
172 31.250 31.250 0.0000 7.0669 8.3098 2.0915
173 37.500 31.250 0.0000 8.5546 9.0768 2.1612
174 43.750 31.250 0.0000 10.378 10.017 2.2466
175 50.000 31.250 0.0000 12.557 11.140 2.3487
176 56.250 31.250 0.0000 15.108 12.456 2.4682
177 62.500 31.250 0.0000 18.047 13.971 2.6060
178 68.750 31.250 0.0000 21.391 15.695 2.7626
179 75.000 31.250 0.0000 25.152 17.635 2.9389
180 81.250 31.250 0.0000 29.346 19.797 3.1354
181 87.500 31.250 0.0000 33.985 22.189 3.3528
182 93.750 31.250 0.0000 39.081 24.817 3.5916
183 93.750 31.250 6.2500 39.173 24.853 4.0769
184 6.2500 37.500 0.0000 5.3181 9.3225 2.3791
185 12.500 37.500 0.0000 5.6935 9.5161 2.3967
186 18.750 37.500 0.0000 6.3056 9.8317 2.4253
187 25.000 37.500 0.0000 7.1849 10.285 2.4665
188 31.250 37.500 0.0000 8.3569 10.889 2.5215
189 37.500 37.500 0.0000 9.8445 11.656 2.5912
190 43.750 37.500 0.0000 11.668 12.597 2.6766
191 50.000 37.500 0.0000 13.847 13.720 2.7787
192 56.250 37.500 0.0000 16.398 15.035 2.8982
193 62.500 37.500 0.0000 19.337 16.551 3.0360
194 68.750 37.500 0.0000 22.681 18.275 3.1926
195 75.000 37.500 0.0000 26.442 20.214 3.3689
196 81.250 37.500 0.0000 30.636 22.376 3.5654
197 87.500 37.500 0.0000 35.275 24.768 3.7828
198 93.750 37.500 0.0000 40.371 27.396 4.0216
199 93.750 37.500 6.2500 40.463 27.433 4.5069
200 6.2500 43.750 0.0000 6.8995 12.485 2.9062
201 12.500 43.750 0.0000 7.2749 12.679 2.9238
202 18.750 43.750 0.0000 7.8871 12.994 2.9525
203 25.000 43.750 0.0000 8.7663 13.447 2.9937
204 31.250 43.750 0.0000 9.9383 14.052 3.0486
205 37.500 43.750 0.0000 11.426 14.819 3.1183
206 43.750 43.750 0.0000 13.250 15.759 3.2038
207 50.000 43.750 0.0000 15.428 16.882 3.3059
208 56.250 43.750 0.0000 17.979 18.198 3.4254
209 62.500 43.750 0.0000 20.919 19.713 3.5631
210 68.750 43.750 0.0000 24.262 21.437 3.7198
211 75.000 43.750 0.0000 28.024 23.377 3.8961
212 81.250 43.750 0.0000 32.217 25.539 4.0926
213 87.500 43.750 0.0000 36.856 27.931 4.3099
214 93.750 43.750 0.0000 41.953 30.559 4.5487
215 93.750 43.750 6.2500 42.045 30.595 5.0340
216 6.2500 50.000 0.0000 8.7887 16.263 3.5359
217 12.500 50.000 0.0000 9.1641 16.456 3.5535
218 18.750 50.000 0.0000 9.7762 16.772 3.5822
219 25.000 50.000 0.0000 10.655 17.225 3.6234
220 31.250 50.000 0.0000 11.827 17.830 3.6783
221 37.500 50.000 0.0000 13.315 18.597 3.7480
222 43.750 50.000 0.0000 15.139 19.537 3.8335
223 50.000 50.000 0.0000 17.318 20.660 3.9356
224 56.250 50.000 0.0000 19.868 21.976 4.0551
225 62.500 50.000 0.0000 22.808 23.491 4.1929
226 68.750 50.000 0.0000 26.151 25.215 4.3495
227 75.000 50.000 0.0000 29.913 27.154 4.5258
228 81.250 50.000 0.0000 34.106 29.317 4.7223
229 87.500 50.000 0.0000 38.745 31.709 4.9397
230 93.750 50.000 0.0000 43.842 34.336 5.1785
231 100.00 50.000 0.0000 49.408 37.206 5.4393
232 6.2500 56.250 0.0000 11.001 20.686 4.2733
233 12.500 56.250 0.0000 11.376 20.880 4.2909
234 18.750 56.250 0.0000 11.988 21.195 4.3196
235 25.000 56.250 0.0000 12.867 21.649 4.3608
236 31.250 56.250 0.0000 14.039 22.253 4.4157
237 37.500 56.250 0.0000 15.527 23.020 4.4854
238 43.750 56.250 0.0000 17.351 23.960 4.5708
239 50.000 56.250 0.0000 19.529 25.084 4.6729
240 56.250 56.250 0.0000 22.080 26.399 4.7925
241 62.500 56.250 0.0000 25.020 27.914 4.9302
242 68.750 56.250 0.0000 28.363 29.638 5.0869
243 75.000 56.250 0.0000 32.125 31.578 5.2631
244 81.250 56.250 0.0000 36.318 33.740 5.4596
245 87.500 56.250 0.0000 40.957 36.132 5.6770
246 93.750 56.250 0.0000 46.054 38.760 5.9158
247 100.00 56.250 0.0000 51.620 41.630 6.1766
248 6.2500 62.500 0.0000 13.550 25.783 5.1229
249 12.500 62.500 0.0000 13.925 25.977 5.1405
250 18.750 62.500 0.0000 14.537 26.292 5.1692
251 25.000 62.500 0.0000 15.416 26.746 5.2104
252 31.250 62.500 0.0000 16.588 27.350 5.2653
253 37.500 62.500 0.0000 18.076 28.117 5.3350
254 43.750 62.500 0.0000 19.900 29.057 5.4205
255 50.000 62.500 0.0000 22.078 30.181 5.5226
256 56.250 62.500 0.0000 24.629 31.496 5.6421
257 62.500 62.500 0.0000 27.569 33.012 5.7798
258 68.750 62.500 0.0000 30.912 34.735 5.9365
259 75.000 62.500 0.0000 34.674 36.675 6.1128
260 81.250 62.500 0.0000 38.867 38.837 6.3093
261 87.500 62.500 0.0000 43.506 41.229 6.5266
262 93.750 62.500 0.0000 48.603 43.857 6.7655
263 100.00 62.500 0.0000 54.169 46.727 7.0263
264 6.2500 68.750 0.0000 16.449 31.581 6.0893
265 12.500 68.750 0.0000 16.824 31.774 6.1069
266 18.750 68.750 0.0000 17.436 32.090 6.1356
267 25.000 68.750 0.0000 18.315 32.543 6.1768
268 31.250 68.750 0.0000 19.487 33.147 6.2317
269 37.500 68.750 0.0000 20.975 33.914 6.3014
270 43.750 68.750 0.0000 22.799 34.855 6.3869
271 50.000 68.750 0.0000 24.977 35.978 6.4889
272 56.250 68.750 0.0000 27.528 37.293 6.6085
273 62.500 68.750 0.0000 30.468 38.809 6.7462
274 68.750 68.750 0.0000 33.811 40.533 6.9029
275 75.000 68.750 0.0000 37.573 42.472 7.0791
276 81.250 68.750 0.0000 41.766 44.635 7.2756
277 87.500 68.750 0.0000 46.405 47.026 7.4930
278 93.750 68.750 0.0000 51.502 49.654 7.7318
279 100.00 68.750 0.0000 57.068 52.524 7.9927
280 6.2500 75.000 0.0000 19.710 38.103 7.1766
281 12.500 75.000 0.0000 20.086 38.297 7.1942
282 18.750 75.000 0.0000 20.698 38.613 7.2229
283 25.000 75.000 0.0000 21.577 39.066 7.2641
284 31.250 75.000 0.0000 22.749 39.670 7.3190
285 37.500 75.000 0.0000 24.237 40.437 7.3887
286 43.750 75.000 0.0000 26.061 41.378 7.4741
287 50.000 75.000 0.0000 28.239 42.501 7.5762
288 56.250 75.000 0.0000 30.790 43.816 7.6958
289 62.500 75.000 0.0000 33.730 45.332 7.8335
290 68.750 75.000 0.0000 37.073 47.056 7.9902
291 75.000 75.000 0.0000 40.835 48.995 8.1664
292 81.250 75.000 0.0000 45.028 51.157 8.3629
293 87.500 75.000 0.0000 49.667 53.549 8.5803
294 93.750 75.000 0.0000 54.764 56.177 8.8191
295 100.00 75.000 0.0000 60.330 59.047 9.0799
296 6.2500 81.250 0.0000 23.347 45.375 8.3887
297 12.500 81.250 0.0000 23.722 45.569 8.4063
298 18.750 81.250 0.0000 24.335 45.884 8.4350
299 25.000 81.250 0.0000 25.214 46.338 8.4762
300 31.250 81.250 0.0000 26.386 46.942 8.5311
301 37.500 81.250 0.0000 27.873 47.709 8.6008
302 43.750 81.250 0.0000 29.697 48.649 8.6863
303 50.000 81.250 0.0000 31.876 49.773 8.7884
304 56.250 81.250 0.0000 34.427 51.088 8.9079
305 62.500 81.250 0.0000 37.366 52.604 9.0457
306 68.750 81.250 0.0000 40.709 54.327 9.2023
307 75.000 81.250 0.0000 44.471 56.267 9.3786
308 81.250 81.250 0.0000 48.665 58.429 9.5751
309 87.500 81.250 0.0000 53.304 60.821 9.7925
310 93.750 81.250 0.0000 58.400 63.449 10.031
311 100.00 81.250 0.0000 63.967 66.319 10.292
312 6.2500 87.500 0.0000 27.369 53.419 9.7296
313 12.500 87.500 0.0000 27.745 53.613 9.7472
314 18.750 87.500 0.0000 28.357 53.928 9.7759
315 25.000 87.500 0.0000 29.236 54.382 9.8171
316 31.250 87.500 0.0000 30.408 54.986 9.8720
317 37.500 87.500 0.0000 31.896 55.753 9.9417
318 43.750 87.500 0.0000 33.720 56.693 10.027
319 50.000 87.500 0.0000 35.898 57.817 10.129
320 56.250 87.500 0.0000 38.449 59.132 10.249
321 62.500 87.500 0.0000 41.389 60.647 10.386
322 68.750 87.500 0.0000 44.732 62.371 10.543
323 75.000 87.500 0.0000 48.494 64.311 10.719
324 81.250 87.500 0.0000 52.687 66.473 10.916
325 87.500 87.500 0.0000 57.326 68.865 11.133
326 93.750 87.500 0.0000 62.423 71.493 11.372
327 100.00 87.500 0.0000 67.989 74.363 11.633
328 6.2500 93.750 0.0000 31.789 62.257 11.203
329 12.500 93.750 0.0000 32.164 62.450 11.220
330 18.750 93.750 0.0000 32.776 62.766 11.249
331 25.000 93.750 0.0000 33.656 63.219 11.290
332 31.250 93.750 0.0000 34.828 63.824 11.345
333 37.500 93.750 0.0000 36.315 64.591 11.415
334 43.750 93.750 0.0000 38.139 65.531 11.500
335 50.000 93.750 0.0000 40.318 66.654 11.602
336 0.0000 0.0000 0.0000 1.0000 1.0000 1.0000
337 62.500 93.750 0.0000 45.808 69.485 11.860
338 68.750 93.750 0.0000 49.151 71.209 12.016
339 75.000 93.750 0.0000 52.913 73.148 12.193
340 81.250 93.750 0.0000 57.107 75.311 12.389
341 87.500 93.750 0.0000 61.746 77.703 12.606
342 93.750 93.750 0.0000 66.842 80.330 12.845
343 0.0000 100.00 0.0000 36.405 71.801 12.802
344 6.2500 100.00 0.0000 36.616 71.909 12.812
345 12.500 100.00 0.0000 36.991 72.103 12.829
346 18.750 100.00 0.0000 37.603 72.418 12.858
347 25.000 100.00 0.0000 38.482 72.872 12.899
348 31.250 100.00 0.0000 39.655 73.476 12.954
349 37.500 100.00 0.0000 41.142 74.243 13.024
350 43.750 100.00 0.0000 42.966 75.183 13.109
351 50.000 100.00 0.0000 45.145 76.307 13.211
352 56.250 100.00 0.0000 47.695 77.622 13.331
353 62.500 100.00 0.0000 50.635 79.137 13.469
354 68.750 100.00 0.0000 53.978 80.861 13.625
355 75.000 100.00 0.0000 57.740 82.801 13.802
356 81.250 100.00 0.0000 61.934 84.963 13.998
357 87.500 100.00 0.0000 66.572 87.355 14.215
358 93.750 100.00 0.0000 71.669 89.983 14.454
359 0.0000 0.0000 6.2500 1.0921 1.0368 1.4853
360 6.2500 0.0000 6.2500 1.3026 1.1454 1.4952
361 12.500 0.0000 6.2500 1.6780 1.3389 1.5128
362 18.750 0.0000 6.2500 2.2902 1.6546 1.5414
363 25.000 0.0000 6.2500 3.1694 2.1079 1.5826
364 31.250 0.0000 6.2500 4.3415 2.7122 1.6376
365 37.500 0.0000 6.2500 5.8291 3.4792 1.7073
366 43.750 0.0000 6.2500 7.6528 4.4196 1.7927
367 50.000 0.0000 6.2500 9.8315 5.5429 1.8948
368 56.250 0.0000 6.2500 12.382 6.8581 2.0143
369 62.500 0.0000 6.2500 15.322 8.3737 2.1521
370 68.750 0.0000 6.2500 18.665 10.098 2.3087
371 75.000 0.0000 6.2500 22.427 12.037 2.4850
372 81.250 0.0000 6.2500 26.620 14.199 2.6815
373 87.500 0.0000 6.2500 31.259 16.591 2.8989
374 87.500 6.2500 6.2500 31.442 16.956 2.9597
375 93.750 6.2500 6.2500 36.538 19.584 3.1985
376 0.0000 6.2500 6.2500 1.2747 1.4019 1.5461
377 12.500 6.2500 6.2500 1.8606 1.7040 1.5736
378 18.750 6.2500 6.2500 2.4727 2.0196 1.6023
379 25.000 6.2500 6.2500 3.3520 2.4729 1.6435
380 31.250 6.2500 6.2500 4.5240 3.0772 1.6984
381 37.500 6.2500 6.2500 6.0116 3.8443 1.7681
382 43.750 6.2500 6.2500 7.8354 4.7846 1.8536
383 50.000 6.2500 6.2500 10.014 5.9079 1.9557
384 56.250 6.2500 6.2500 12.565 7.2232 2.0752
385 62.500 6.2500 6.2500 15.504 8.7388 2.2129
386 68.750 6.2500 6.2500 18.848 10.463 2.3696
387 75.000 6.2500 6.2500 22.609 12.402 2.5458
388 81.250 6.2500 6.2500 26.803 14.564 2.7424
389 100.00 0.0000 0.0000 41.830 22.052 2.9132
390 100.00 0.0000 6.2500 41.922 22.089 3.3985
391 100.00 6.2500 6.2500 42.105 22.454 3.4594
392 0.0000 12.500 6.2500 1.6002 2.0528 1.6547
393 6.2500 12.500 6.2500 1.8107 2.1614 1.6645
394 12.500 12.500 6.2500 2.1861 2.3549 1.6821
395 18.750 12.500 6.2500 2.7983 2.6706 1.7108
396 25.000 12.500 6.2500 3.6775 3.1239 1.7520
397 31.250 12.500 6.2500 4.8495 3.7282 1.8069
398 37.500 12.500 6.2500 6.3372 4.4952 1.8766
399 43.750 12.500 6.2500 8.1609 5.4355 1.9621
400 50.000 12.500 6.2500 10.340 6.5589 2.0642
401 56.250 12.500 6.2500 12.890 7.8741 2.1837
402 62.500 12.500 6.2500 15.830 9.3897 2.3214
403 68.750 12.500 6.2500 19.173 11.114 2.4781
404 75.000 12.500 6.2500 22.935 13.053 2.6544
405 81.250 12.500 6.2500 27.129 15.215 2.8509
406 87.500 12.500 6.2500 31.767 17.607 3.0682
407 93.750 12.500 6.2500 36.864 20.235 3.3070
408 0.0000 6.2500 0.0000 1.1825 1.3650 1.0608
409 0.0000 18.750 6.2500 2.1310 3.1143 1.8316
410 6.2500 18.750 6.2500 2.3415 3.2229 1.8415
411 12.500 18.750 6.2500 2.7169 3.4164 1.8591
412 18.750 18.750 6.2500 3.3291 3.7321 1.8877
413 25.000 18.750 6.2500 4.2083 4.1854 1.9289
414 31.250 18.750 6.2500 5.3803 4.7897 1.9839
415 37.500 18.750 6.2500 6.8680 5.5567 2.0536
416 43.750 18.750 6.2500 8.6917 6.4971 2.1390
417 50.000 18.750 6.2500 10.870 7.6204 2.2411
418 56.250 18.750 6.2500 13.421 8.9356 2.3606
419 62.500 18.750 6.2500 16.361 10.451 2.4984
420 68.750 18.750 6.2500 19.704 12.175 2.6550
421 75.000 18.750 6.2500 23.466 14.115 2.8313
422 81.250 18.750 6.2500 27.659 16.277 3.0278
423 93.750 18.750 0.0000 37.303 21.260 2.9987
424 93.750 18.750 6.2500 37.395 21.296 3.4840
425 100.00 18.750 6.2500 42.961 24.167 3.7448
426 100.00 81.250 37.500 66.040 67.148 21.213
427 6.2500 25.000 6.2500 3.1039 4.7474 2.0956
428 12.500 25.000 6.2500 3.4793 4.9410 2.1132
429 18.750 25.000 6.2500 4.0915 5.2566 2.1419
430 25.000 25.000 6.2500 4.9707 5.7100 2.1831
431 31.250 25.000 6.2500 6.1427 6.3143 2.2380
432 37.500 25.000 6.2500 7.6304 7.0813 2.3077
433 43.750 25.000 6.2500 9.4541 8.0216 2.3932
434 50.000 25.000 6.2500 11.633 9.1449 2.4952
435 56.250 25.000 6.2500 14.184 10.460 2.6148
436 62.500 25.000 6.2500 17.123 11.976 2.7525
437 68.750 25.000 6.2500 20.466 13.700 2.9092
438 75.000 25.000 6.2500 24.228 15.639 3.0854
439 81.250 25.000 6.2500 28.422 17.801 3.2819
440 87.500 25.000 6.2500 33.061 20.193 3.4993
441 100.00 25.000 0.0000 43.631 25.654 3.5137
442 100.00 25.000 6.2500 43.724 25.691 3.9990
443 0.0000 31.250 6.2500 3.9097 6.6713 2.4245
444 6.2500 31.250 6.2500 4.1202 6.7798 2.4344
445 12.500 31.250 6.2500 4.4956 6.9734 2.4520
446 18.750 31.250 6.2500 5.1078 7.2890 2.4806
447 25.000 31.250 6.2500 5.9870 7.7423 2.5218
448 31.250 31.250 6.2500 7.1591 8.3466 2.5768
449 37.500 31.250 6.2500 8.6467 9.1136 2.6465
450 43.750 31.250 6.2500 10.470 10.054 2.7319
451 50.000 31.250 6.2500 12.649 11.177 2.8340
452 56.250 31.250 6.2500 15.200 12.493 2.9535
453 62.500 31.250 6.2500 18.139 14.008 3.0913
454 68.750 31.250 6.2500 21.483 15.732 3.2479
455 75.000 31.250 6.2500 25.244 17.671 3.4242
456 81.250 31.250 6.2500 29.438 19.834 3.6207
457 87.500 31.250 6.2500 34.077 22.226 3.8381
458 100.00 31.250 0.0000 44.648 27.687 3.8524
459 100.00 31.250 6.2500 44.740 27.723 4.3377
460 0.0000 37.500 6.2500 5.1997 9.2509 2.8545
461 6.2500 37.500 6.2500 5.4102 9.3594 2.8644
462 12.500 37.500 6.2500 5.7856 9.5529 2.8820
463 18.750 37.500 6.2500 6.3978 9.8686 2.9106
464 25.000 37.500 6.2500 7.2770 10.322 2.9518
465 31.250 37.500 6.2500 8.4490 10.926 3.0068
466 37.500 37.500 6.2500 9.9367 11.693 3.0765
467 43.750 37.500 6.2500 11.760 12.634 3.1619
468 50.000 37.500 6.2500 13.939 13.757 3.2640
469 56.250 37.500 6.2500 16.490 15.072 3.3835
470 62.500 37.500 6.2500 19.429 16.588 3.5213
471 68.750 37.500 6.2500 22.773 18.312 3.6779
472 75.000 37.500 6.2500 26.534 20.251 3.8542
473 81.250 37.500 6.2500 30.728 22.413 4.0507
474 87.500 37.500 6.2500 35.367 24.805 4.2681
475 100.00 37.500 0.0000 45.938 30.266 4.2824
476 100.00 37.500 6.2500 46.030 30.303 4.7677
477 0.0000 43.750 6.2500 6.7811 12.413 3.3816
478 6.2500 43.750 6.2500 6.9916 12.522 3.3915
479 12.500 43.750 6.2500 7.3670 12.715 3.4091
480 18.750 43.750 6.2500 7.9792 13.031 3.4378
481 25.000 43.750 6.2500 8.8584 13.484 3.4790
482 31.250 43.750 6.2500 10.030 14.089 3.5339
483 37.500 43.750 6.2500 11.518 14.856 3.6036
484 43.750 43.750 6.2500 13.342 15.796 3.6891
485 50.000 43.750 6.2500 15.520 16.919 3.7912
486 56.250 43.750 6.2500 18.071 18.235 3.9107
487 62.500 43.750 6.2500 21.011 19.750 4.0484
488 68.750 43.750 6.2500 24.354 21.474 4.2051
489 75.000 43.750 6.2500 28.116 23.413 4.3814
490 81.250 43.750 6.2500 32.309 25.576 4.5779
491 87.500 43.750 6.2500 36.948 27.968 4.7952
492 100.00 43.750 0.0000 47.519 33.429 4.8096
493 100.00 43.750 6.2500 47.611 33.465 5.2949
494 0.0000 50.000 6.2500 8.6703 16.191 4.0114
495 6.2500 50.000 6.2500 8.8808 16.300 4.0212
496 12.500 50.000 6.2500 9.2562 16.493 4.0388
497 18.750 50.000 6.2500 9.8684 16.809 4.0675
498 25.000 50.000 6.2500 10.748 17.262 4.1087
499 31.250 50.000 6.2500 11.920 17.866 4.1636
500 37.500 50.000 6.2500 13.407 18.633 4.2333
501 43.750 50.000 6.2500 15.231 19.574 4.3188
502 50.000 50.000 6.2500 17.410 20.697 4.4209
503 56.250 50.000 6.2500 19.961 22.012 4.5404
